( Made using CamBam - http://www.cambam.co.uk )
( attiny_midi_cv_panel 7/4/2016 2:21:49 PM )
( T3 : 3.175 )
G21 G90 G64 G40
G0 Z3.0
( T3 : 3.175 )
T3 M6
( holes )
G17
M3 S1000
G0 X16.4007 Y125.2796
G0 Z3.0
G0 X16.4132 Y125.2796
G1 F1000.0 Z0.0
G2 F2000.0 X16.3944 Y125.2688 Z-0.0333 I-0.0125 J0.0
G2 Y125.2905 Z-0.0667 I0.0062 J0.0108
G2 X16.4132 Y125.2796 Z-0.1 I0.0063 J-0.0108
G2 X16.3944 Y125.2688 Z-0.1333 I-0.0125 J0.0
G2 Y125.2905 Z-0.1667 I0.0062 J0.0108
G2 X16.4132 Y125.2796 Z-0.2 I0.0063 J-0.0108
G2 X16.3944 Y125.2688 Z-0.2333 I-0.0125 J0.0
G2 Y125.2905 Z-0.2667 I0.0062 J0.0108
G2 X16.4132 Y125.2796 Z-0.3 I0.0063 J-0.0108
G2 X16.3944 Y125.2688 Z-0.3333 I-0.0125 J0.0
G2 Y125.2905 Z-0.3667 I0.0062 J0.0108
G2 X16.4132 Y125.2796 Z-0.4 I0.0063 J-0.0108
G2 X16.3944 Y125.2688 Z-0.4333 I-0.0125 J0.0
G2 Y125.2905 Z-0.4667 I0.0062 J0.0108
G2 X16.4132 Y125.2796 Z-0.5 I0.0063 J-0.0108
G2 X16.3944 Y125.2688 Z-0.5333 I-0.0125 J0.0
G2 Y125.2905 Z-0.5667 I0.0062 J0.0108
G2 X16.4132 Y125.2796 Z-0.6 I0.0063 J-0.0108
G2 X16.3944 Y125.2688 Z-0.6333 I-0.0125 J0.0
G2 Y125.2905 Z-0.6667 I0.0062 J0.0108
G2 X16.4132 Y125.2796 Z-0.7 I0.0063 J-0.0108
G2 X16.3944 Y125.2688 Z-0.7333 I-0.0125 J0.0
G2 Y125.2905 Z-0.7667 I0.0062 J0.0108
G2 X16.4132 Y125.2796 Z-0.8 I0.0063 J-0.0108
G2 X16.3944 Y125.2688 Z-0.8333 I-0.0125 J0.0
G2 Y125.2905 Z-0.8667 I0.0062 J0.0108
G2 X16.4132 Y125.2796 Z-0.9 I0.0063 J-0.0108
G2 X16.3944 Y125.2688 Z-0.9333 I-0.0125 J0.0
G2 Y125.2905 Z-0.9667 I0.0062 J0.0108
G2 X16.4132 Y125.2796 Z-1.0 I0.0063 J-0.0108
G2 X16.3944 Y125.2688 Z-1.0333 I-0.0125 J0.0
G2 Y125.2905 Z-1.0667 I0.0062 J0.0108
G2 X16.4132 Y125.2796 Z-1.1 I0.0063 J-0.0108
G2 X16.3944 Y125.2688 Z-1.1333 I-0.0125 J0.0
G2 Y125.2905 Z-1.1667 I0.0062 J0.0108
G2 X16.4132 Y125.2796 Z-1.2 I0.0063 J-0.0108
G2 X16.3944 Y125.2688 Z-1.2333 I-0.0125 J0.0
G2 Y125.2905 Z-1.2667 I0.0062 J0.0108
G2 X16.4132 Y125.2796 Z-1.3 I0.0063 J-0.0108
G2 X16.3944 Y125.2688 Z-1.3333 I-0.0125 J0.0
G2 Y125.2905 Z-1.3667 I0.0062 J0.0108
G2 X16.4132 Y125.2796 Z-1.4 I0.0063 J-0.0108
G2 X16.3944 Y125.2688 Z-1.4333 I-0.0125 J0.0
G2 Y125.2905 Z-1.4667 I0.0062 J0.0108
G2 X16.4132 Y125.2796 Z-1.5 I0.0063 J-0.0108
G2 X16.3944 Y125.2688 Z-1.5333 I-0.0125 J0.0
G2 Y125.2905 Z-1.5667 I0.0062 J0.0108
G2 X16.4132 Y125.2796 Z-1.6 I0.0063 J-0.0108
G2 X16.3944 Y125.2688 Z-1.6333 I-0.0125 J0.0
G2 Y125.2905 Z-1.6667 I0.0062 J0.0108
G2 X16.4132 Y125.2796 Z-1.7 I0.0063 J-0.0108
G2 X16.3944 Y125.2688 Z-1.7333 I-0.0125 J0.0
G2 Y125.2905 Z-1.7667 I0.0062 J0.0108
G2 X16.4132 Y125.2796 Z-1.8 I0.0063 J-0.0108
G2 X16.3944 Y125.2688 Z-1.8333 I-0.0125 J0.0
G2 Y125.2905 Z-1.8667 I0.0062 J0.0108
G2 X16.4132 Y125.2796 Z-1.9 I0.0063 J-0.0108
G2 X16.3944 Y125.2688 Z-1.9333 I-0.0125 J0.0
G2 Y125.2905 Z-1.9667 I0.0062 J0.0108
G2 X16.4132 Y125.2796 Z-2.0 I0.0063 J-0.0108
G2 X16.3944 Y125.2688 Z-2.0333 I-0.0125 J0.0
G2 Y125.2905 Z-2.0667 I0.0062 J0.0108
G2 X16.4132 Y125.2796 Z-2.1 I0.0063 J-0.0108
G2 X16.3944 Y125.2688 Z-2.1333 I-0.0125 J0.0
G2 Y125.2905 Z-2.1667 I0.0062 J0.0108
G2 X16.4132 Y125.2796 Z-2.2 I0.0063 J-0.0108
G2 X16.3944 Y125.2688 Z-2.2333 I-0.0125 J0.0
G2 Y125.2905 Z-2.2667 I0.0062 J0.0108
G2 X16.4132 Y125.2796 Z-2.3 I0.0063 J-0.0108
G2 X16.3944 Y125.2688 Z-2.3333 I-0.0125 J0.0
G2 Y125.2905 Z-2.3667 I0.0062 J0.0108
G2 X16.4132 Y125.2796 Z-2.4 I0.0063 J-0.0108
G2 X16.3944 Y125.2688 Z-2.4333 I-0.0125 J0.0
G2 Y125.2905 Z-2.4667 I0.0062 J0.0108
G2 X16.4132 Y125.2796 Z-2.5 I0.0063 J-0.0108
G2 X16.3944 Y125.2688 Z-2.5333 I-0.0125 J0.0
G2 Y125.2905 Z-2.5667 I0.0062 J0.0108
G2 X16.4132 Y125.2796 Z-2.6 I0.0063 J-0.0108
G2 X16.3944 Y125.2688 Z-2.6333 I-0.0125 J0.0
G2 Y125.2905 Z-2.6667 I0.0062 J0.0108
G2 X16.4132 Y125.2796 Z-2.7 I0.0063 J-0.0108
G2 X16.3944 Y125.2688 Z-2.7333 I-0.0125 J0.0
G2 Y125.2905 Z-2.7667 I0.0062 J0.0108
G2 X16.4132 Y125.2796 Z-2.8 I0.0063 J-0.0108
G2 X16.3944 Y125.2688 Z-2.8333 I-0.0125 J0.0
G2 Y125.2905 Z-2.8667 I0.0062 J0.0108
G2 X16.4132 Y125.2796 Z-2.9 I0.0063 J-0.0108
G2 X16.3944 Y125.2688 Z-2.9333 I-0.0125 J0.0
G2 Y125.2905 Z-2.9667 I0.0062 J0.0108
G2 X16.4132 Y125.2796 Z-3.0 I0.0063 J-0.0108
G2 X16.3944 Y125.2688 Z-3.0333 I-0.0125 J0.0
G2 Y125.2905 Z-3.0667 I0.0062 J0.0108
G2 X16.4132 Y125.2796 Z-3.1 I0.0063 J-0.0108
G2 X16.3944 Y125.2688 Z-3.1333 I-0.0125 J0.0
G2 Y125.2905 Z-3.1667 I0.0062 J0.0108
G2 X16.4132 Y125.2796 Z-3.2 I0.0063 J-0.0108
G2 X16.3944 Y125.2688 I-0.0125 J0.0
G2 Y125.2905 I0.0063 J0.0108
G2 X16.4132 Y125.2796 I0.0062 J-0.0108
G0 Z3.0
G0 X9.6337 Y112.2048
G1 F1000.0 Z0.0
G2 F2000.0 X9.6149 Y112.194 Z-0.0333 I-0.0125 J0.0
G2 Y112.2156 Z-0.0667 I0.0062 J0.0108
G2 X9.6337 Y112.2048 Z-0.1 I0.0063 J-0.0108
G2 X9.6149 Y112.194 Z-0.1333 I-0.0125 J0.0
G2 Y112.2156 Z-0.1667 I0.0062 J0.0108
G2 X9.6337 Y112.2048 Z-0.2 I0.0063 J-0.0108
G2 X9.6149 Y112.194 Z-0.2333 I-0.0125 J0.0
G2 Y112.2156 Z-0.2667 I0.0062 J0.0108
G2 X9.6337 Y112.2048 Z-0.3 I0.0063 J-0.0108
G2 X9.6149 Y112.194 Z-0.3333 I-0.0125 J0.0
G2 Y112.2156 Z-0.3667 I0.0062 J0.0108
G2 X9.6337 Y112.2048 Z-0.4 I0.0063 J-0.0108
G2 X9.6149 Y112.194 Z-0.4333 I-0.0125 J0.0
G2 Y112.2156 Z-0.4667 I0.0062 J0.0108
G2 X9.6337 Y112.2048 Z-0.5 I0.0063 J-0.0108
G2 X9.6149 Y112.194 Z-0.5333 I-0.0125 J0.0
G2 Y112.2156 Z-0.5667 I0.0062 J0.0108
G2 X9.6337 Y112.2048 Z-0.6 I0.0063 J-0.0108
G2 X9.6149 Y112.194 Z-0.6333 I-0.0125 J0.0
G2 Y112.2156 Z-0.6667 I0.0062 J0.0108
G2 X9.6337 Y112.2048 Z-0.7 I0.0063 J-0.0108
G2 X9.6149 Y112.194 Z-0.7333 I-0.0125 J0.0
G2 Y112.2156 Z-0.7667 I0.0062 J0.0108
G2 X9.6337 Y112.2048 Z-0.8 I0.0063 J-0.0108
G2 X9.6149 Y112.194 Z-0.8333 I-0.0125 J0.0
G2 Y112.2156 Z-0.8667 I0.0062 J0.0108
G2 X9.6337 Y112.2048 Z-0.9 I0.0063 J-0.0108
G2 X9.6149 Y112.194 Z-0.9333 I-0.0125 J0.0
G2 Y112.2156 Z-0.9667 I0.0062 J0.0108
G2 X9.6337 Y112.2048 Z-1.0 I0.0063 J-0.0108
G2 X9.6149 Y112.194 Z-1.0333 I-0.0125 J0.0
G2 Y112.2156 Z-1.0667 I0.0062 J0.0108
G2 X9.6337 Y112.2048 Z-1.1 I0.0063 J-0.0108
G2 X9.6149 Y112.194 Z-1.1333 I-0.0125 J0.0
G2 Y112.2156 Z-1.1667 I0.0062 J0.0108
G2 X9.6337 Y112.2048 Z-1.2 I0.0063 J-0.0108
G2 X9.6149 Y112.194 Z-1.2333 I-0.0125 J0.0
G2 Y112.2156 Z-1.2667 I0.0062 J0.0108
G2 X9.6337 Y112.2048 Z-1.3 I0.0063 J-0.0108
G2 X9.6149 Y112.194 Z-1.3333 I-0.0125 J0.0
G2 Y112.2156 Z-1.3667 I0.0062 J0.0108
G2 X9.6337 Y112.2048 Z-1.4 I0.0063 J-0.0108
G2 X9.6149 Y112.194 Z-1.4333 I-0.0125 J0.0
G2 Y112.2156 Z-1.4667 I0.0062 J0.0108
G2 X9.6337 Y112.2048 Z-1.5 I0.0063 J-0.0108
G2 X9.6149 Y112.194 Z-1.5333 I-0.0125 J0.0
G2 Y112.2156 Z-1.5667 I0.0062 J0.0108
G2 X9.6337 Y112.2048 Z-1.6 I0.0063 J-0.0108
G2 X9.6149 Y112.194 Z-1.6333 I-0.0125 J0.0
G2 Y112.2156 Z-1.6667 I0.0062 J0.0108
G2 X9.6337 Y112.2048 Z-1.7 I0.0063 J-0.0108
G2 X9.6149 Y112.194 Z-1.7333 I-0.0125 J0.0
G2 Y112.2156 Z-1.7667 I0.0062 J0.0108
G2 X9.6337 Y112.2048 Z-1.8 I0.0063 J-0.0108
G2 X9.6149 Y112.194 Z-1.8333 I-0.0125 J0.0
G2 Y112.2156 Z-1.8667 I0.0062 J0.0108
G2 X9.6337 Y112.2048 Z-1.9 I0.0063 J-0.0108
G2 X9.6149 Y112.194 Z-1.9333 I-0.0125 J0.0
G2 Y112.2156 Z-1.9667 I0.0062 J0.0108
G2 X9.6337 Y112.2048 Z-2.0 I0.0063 J-0.0108
G2 X9.6149 Y112.194 Z-2.0333 I-0.0125 J0.0
G2 Y112.2156 Z-2.0667 I0.0062 J0.0108
G2 X9.6337 Y112.2048 Z-2.1 I0.0063 J-0.0108
G2 X9.6149 Y112.194 Z-2.1333 I-0.0125 J0.0
G2 Y112.2156 Z-2.1667 I0.0062 J0.0108
G2 X9.6337 Y112.2048 Z-2.2 I0.0063 J-0.0108
G2 X9.6149 Y112.194 Z-2.2333 I-0.0125 J0.0
G2 Y112.2156 Z-2.2667 I0.0062 J0.0108
G2 X9.6337 Y112.2048 Z-2.3 I0.0063 J-0.0108
G2 X9.6149 Y112.194 Z-2.3333 I-0.0125 J0.0
G2 Y112.2156 Z-2.3667 I0.0062 J0.0108
G2 X9.6337 Y112.2048 Z-2.4 I0.0063 J-0.0108
G2 X9.6149 Y112.194 Z-2.4333 I-0.0125 J0.0
G2 Y112.2156 Z-2.4667 I0.0062 J0.0108
G2 X9.6337 Y112.2048 Z-2.5 I0.0063 J-0.0108
G2 X9.6149 Y112.194 Z-2.5333 I-0.0125 J0.0
G2 Y112.2156 Z-2.5667 I0.0062 J0.0108
G2 X9.6337 Y112.2048 Z-2.6 I0.0063 J-0.0108
G2 X9.6149 Y112.194 Z-2.6333 I-0.0125 J0.0
G2 Y112.2156 Z-2.6667 I0.0062 J0.0108
G2 X9.6337 Y112.2048 Z-2.7 I0.0063 J-0.0108
G2 X9.6149 Y112.194 Z-2.7333 I-0.0125 J0.0
G2 Y112.2156 Z-2.7667 I0.0062 J0.0108
G2 X9.6337 Y112.2048 Z-2.8 I0.0062 J-0.0108
G2 X9.6149 Y112.194 Z-2.8333 I-0.0125 J0.0
G2 Y112.2156 Z-2.8667 I0.0062 J0.0108
G2 X9.6337 Y112.2048 Z-2.9 I0.0062 J-0.0108
G2 X9.6149 Y112.194 Z-2.9333 I-0.0125 J0.0
G2 Y112.2156 Z-2.9667 I0.0062 J0.0108
G2 X9.6337 Y112.2048 Z-3.0 I0.0062 J-0.0108
G2 X9.6149 Y112.194 Z-3.0333 I-0.0125 J0.0
G2 Y112.2156 Z-3.0667 I0.0062 J0.0108
G2 X9.6337 Y112.2048 Z-3.1 I0.0062 J-0.0108
G2 X9.6149 Y112.194 Z-3.1333 I-0.0125 J0.0
G2 Y112.2156 Z-3.1667 I0.0063 J0.0108
G2 X9.6337 Y112.2048 Z-3.2 I0.0062 J-0.0108
G2 X9.6149 Y112.194 I-0.0125 J0.0
G2 Y112.2156 I0.0063 J0.0108
G2 X9.6337 Y112.2048 I0.0062 J-0.0108
G0 Z3.0
G0 X9.6268 Y101.199
G1 F1000.0 Z0.0
G2 F2000.0 X9.608 Y101.1882 Z-0.0333 I-0.0125 J0.0
G2 Y101.2098 Z-0.0667 I0.0062 J0.0108
G2 X9.6268 Y101.199 Z-0.1 I0.0063 J-0.0108
G2 X9.608 Y101.1882 Z-0.1333 I-0.0125 J0.0
G2 Y101.2098 Z-0.1667 I0.0062 J0.0108
G2 X9.6268 Y101.199 Z-0.2 I0.0063 J-0.0108
G2 X9.608 Y101.1882 Z-0.2333 I-0.0125 J0.0
G2 Y101.2098 Z-0.2667 I0.0062 J0.0108
G2 X9.6268 Y101.199 Z-0.3 I0.0063 J-0.0108
G2 X9.608 Y101.1882 Z-0.3333 I-0.0125 J0.0
G2 Y101.2098 Z-0.3667 I0.0062 J0.0108
G2 X9.6268 Y101.199 Z-0.4 I0.0063 J-0.0108
G2 X9.608 Y101.1882 Z-0.4333 I-0.0125 J0.0
G2 Y101.2098 Z-0.4667 I0.0062 J0.0108
G2 X9.6268 Y101.199 Z-0.5 I0.0063 J-0.0108
G2 X9.608 Y101.1882 Z-0.5333 I-0.0125 J0.0
G2 Y101.2098 Z-0.5667 I0.0062 J0.0108
G2 X9.6268 Y101.199 Z-0.6 I0.0063 J-0.0108
G2 X9.608 Y101.1882 Z-0.6333 I-0.0125 J0.0
G2 Y101.2098 Z-0.6667 I0.0062 J0.0108
G2 X9.6268 Y101.199 Z-0.7 I0.0063 J-0.0108
G2 X9.608 Y101.1882 Z-0.7333 I-0.0125 J0.0
G2 Y101.2098 Z-0.7667 I0.0062 J0.0108
G2 X9.6268 Y101.199 Z-0.8 I0.0063 J-0.0108
G2 X9.608 Y101.1882 Z-0.8333 I-0.0125 J0.0
G2 Y101.2098 Z-0.8667 I0.0062 J0.0108
G2 X9.6268 Y101.199 Z-0.9 I0.0063 J-0.0108
G2 X9.608 Y101.1882 Z-0.9333 I-0.0125 J0.0
G2 Y101.2098 Z-0.9667 I0.0062 J0.0108
G2 X9.6268 Y101.199 Z-1.0 I0.0063 J-0.0108
G2 X9.608 Y101.1882 Z-1.0333 I-0.0125 J0.0
G2 Y101.2098 Z-1.0667 I0.0062 J0.0108
G2 X9.6268 Y101.199 Z-1.1 I0.0063 J-0.0108
G2 X9.608 Y101.1882 Z-1.1333 I-0.0125 J0.0
G2 Y101.2098 Z-1.1667 I0.0062 J0.0108
G2 X9.6268 Y101.199 Z-1.2 I0.0063 J-0.0108
G2 X9.608 Y101.1882 Z-1.2333 I-0.0125 J0.0
G2 Y101.2098 Z-1.2667 I0.0062 J0.0108
G2 X9.6268 Y101.199 Z-1.3 I0.0063 J-0.0108
G2 X9.608 Y101.1882 Z-1.3333 I-0.0125 J0.0
G2 Y101.2098 Z-1.3667 I0.0062 J0.0108
G2 X9.6268 Y101.199 Z-1.4 I0.0063 J-0.0108
G2 X9.608 Y101.1882 Z-1.4333 I-0.0125 J0.0
G2 Y101.2098 Z-1.4667 I0.0062 J0.0108
G2 X9.6268 Y101.199 Z-1.5 I0.0063 J-0.0108
G2 X9.608 Y101.1882 Z-1.5333 I-0.0125 J0.0
G2 Y101.2098 Z-1.5667 I0.0062 J0.0108
G2 X9.6268 Y101.199 Z-1.6 I0.0063 J-0.0108
G2 X9.608 Y101.1882 Z-1.6333 I-0.0125 J0.0
G2 Y101.2098 Z-1.6667 I0.0062 J0.0108
G2 X9.6268 Y101.199 Z-1.7 I0.0063 J-0.0108
G2 X9.608 Y101.1882 Z-1.7333 I-0.0125 J0.0
G2 Y101.2098 Z-1.7667 I0.0062 J0.0108
G2 X9.6268 Y101.199 Z-1.8 I0.0063 J-0.0108
G2 X9.608 Y101.1882 Z-1.8333 I-0.0125 J0.0
G2 Y101.2098 Z-1.8667 I0.0062 J0.0108
G2 X9.6268 Y101.199 Z-1.9 I0.0063 J-0.0108
G2 X9.608 Y101.1882 Z-1.9333 I-0.0125 J0.0
G2 Y101.2098 Z-1.9667 I0.0062 J0.0108
G2 X9.6268 Y101.199 Z-2.0 I0.0063 J-0.0108
G2 X9.608 Y101.1882 Z-2.0333 I-0.0125 J0.0
G2 Y101.2098 Z-2.0667 I0.0062 J0.0108
G2 X9.6268 Y101.199 Z-2.1 I0.0063 J-0.0108
G2 X9.608 Y101.1882 Z-2.1333 I-0.0125 J0.0
G2 Y101.2098 Z-2.1667 I0.0062 J0.0108
G2 X9.6268 Y101.199 Z-2.2 I0.0063 J-0.0108
G2 X9.608 Y101.1882 Z-2.2333 I-0.0125 J0.0
G2 Y101.2098 Z-2.2667 I0.0062 J0.0108
G2 X9.6268 Y101.199 Z-2.3 I0.0063 J-0.0108
G2 X9.608 Y101.1882 Z-2.3333 I-0.0125 J0.0
G2 Y101.2098 Z-2.3667 I0.0062 J0.0108
G2 X9.6268 Y101.199 Z-2.4 I0.0063 J-0.0108
G2 X9.608 Y101.1882 Z-2.4333 I-0.0125 J0.0
G2 Y101.2098 Z-2.4667 I0.0062 J0.0108
G2 X9.6268 Y101.199 Z-2.5 I0.0063 J-0.0108
G2 X9.608 Y101.1882 Z-2.5333 I-0.0125 J0.0
G2 Y101.2098 Z-2.5667 I0.0062 J0.0108
G2 X9.6268 Y101.199 Z-2.6 I0.0063 J-0.0108
G2 X9.608 Y101.1882 Z-2.6333 I-0.0125 J0.0
G2 Y101.2098 Z-2.6667 I0.0062 J0.0108
G2 X9.6268 Y101.199 Z-2.7 I0.0063 J-0.0108
G2 X9.608 Y101.1882 Z-2.7333 I-0.0125 J0.0
G2 Y101.2098 Z-2.7667 I0.0062 J0.0108
G2 X9.6268 Y101.199 Z-2.8 I0.0063 J-0.0108
G2 X9.608 Y101.1882 Z-2.8333 I-0.0125 J0.0
G2 Y101.2098 Z-2.8667 I0.0062 J0.0108
G2 X9.6268 Y101.199 Z-2.9 I0.0063 J-0.0108
G2 X9.608 Y101.1882 Z-2.9333 I-0.0125 J0.0
G2 Y101.2098 Z-2.9667 I0.0062 J0.0108
G2 X9.6268 Y101.199 Z-3.0 I0.0063 J-0.0108
G2 X9.608 Y101.1882 Z-3.0333 I-0.0125 J0.0
G2 Y101.2098 Z-3.0667 I0.0062 J0.0108
G2 X9.6268 Y101.199 Z-3.1 I0.0063 J-0.0108
G2 X9.608 Y101.1882 Z-3.1333 I-0.0125 J0.0
G2 Y101.2098 Z-3.1667 I0.0063 J0.0108
G2 X9.6268 Y101.199 Z-3.2 I0.0062 J-0.0108
G2 X9.608 Y101.1882 I-0.0125 J0.0
G2 Y101.2098 I0.0063 J0.0108
G2 X9.6268 Y101.199 I0.0062 J-0.0108
G0 Z3.0
G0 X9.6355 Y89.9862
G1 F1000.0 Z0.0
G2 F2000.0 X9.6168 Y89.9754 Z-0.0333 I-0.0125 J0.0
G2 Y89.997 Z-0.0667 I0.0062 J0.0108
G2 X9.6355 Y89.9862 Z-0.1 I0.0063 J-0.0108
G2 X9.6168 Y89.9754 Z-0.1333 I-0.0125 J0.0
G2 Y89.997 Z-0.1667 I0.0062 J0.0108
G2 X9.6355 Y89.9862 Z-0.2 I0.0063 J-0.0108
G2 X9.6168 Y89.9754 Z-0.2333 I-0.0125 J0.0
G2 Y89.997 Z-0.2667 I0.0062 J0.0108
G2 X9.6355 Y89.9862 Z-0.3 I0.0063 J-0.0108
G2 X9.6168 Y89.9754 Z-0.3333 I-0.0125 J0.0
G2 Y89.997 Z-0.3667 I0.0062 J0.0108
G2 X9.6355 Y89.9862 Z-0.4 I0.0063 J-0.0108
G2 X9.6168 Y89.9754 Z-0.4333 I-0.0125 J0.0
G2 Y89.997 Z-0.4667 I0.0062 J0.0108
G2 X9.6355 Y89.9862 Z-0.5 I0.0063 J-0.0108
G2 X9.6168 Y89.9754 Z-0.5333 I-0.0125 J0.0
G2 Y89.997 Z-0.5667 I0.0062 J0.0108
G2 X9.6355 Y89.9862 Z-0.6 I0.0063 J-0.0108
G2 X9.6168 Y89.9754 Z-0.6333 I-0.0125 J0.0
G2 Y89.997 Z-0.6667 I0.0062 J0.0108
G2 X9.6355 Y89.9862 Z-0.7 I0.0063 J-0.0108
G2 X9.6168 Y89.9754 Z-0.7333 I-0.0125 J0.0
G2 Y89.997 Z-0.7667 I0.0062 J0.0108
G2 X9.6355 Y89.9862 Z-0.8 I0.0063 J-0.0108
G2 X9.6168 Y89.9754 Z-0.8333 I-0.0125 J0.0
G2 Y89.997 Z-0.8667 I0.0062 J0.0108
G2 X9.6355 Y89.9862 Z-0.9 I0.0063 J-0.0108
G2 X9.6168 Y89.9754 Z-0.9333 I-0.0125 J0.0
G2 Y89.997 Z-0.9667 I0.0062 J0.0108
G2 X9.6355 Y89.9862 Z-1.0 I0.0063 J-0.0108
G2 X9.6168 Y89.9754 Z-1.0333 I-0.0125 J0.0
G2 Y89.997 Z-1.0667 I0.0062 J0.0108
G2 X9.6355 Y89.9862 Z-1.1 I0.0063 J-0.0108
G2 X9.6168 Y89.9754 Z-1.1333 I-0.0125 J0.0
G2 Y89.997 Z-1.1667 I0.0062 J0.0108
G2 X9.6355 Y89.9862 Z-1.2 I0.0063 J-0.0108
G2 X9.6168 Y89.9754 Z-1.2333 I-0.0125 J0.0
G2 Y89.997 Z-1.2667 I0.0062 J0.0108
G2 X9.6355 Y89.9862 Z-1.3 I0.0063 J-0.0108
G2 X9.6168 Y89.9754 Z-1.3333 I-0.0125 J0.0
G2 Y89.997 Z-1.3667 I0.0062 J0.0108
G2 X9.6355 Y89.9862 Z-1.4 I0.0063 J-0.0108
G2 X9.6168 Y89.9754 Z-1.4333 I-0.0125 J0.0
G2 Y89.997 Z-1.4667 I0.0062 J0.0108
G2 X9.6355 Y89.9862 Z-1.5 I0.0063 J-0.0108
G2 X9.6168 Y89.9754 Z-1.5333 I-0.0125 J0.0
G2 Y89.997 Z-1.5667 I0.0062 J0.0108
G2 X9.6355 Y89.9862 Z-1.6 I0.0063 J-0.0108
G2 X9.6168 Y89.9754 Z-1.6333 I-0.0125 J0.0
G2 Y89.997 Z-1.6667 I0.0062 J0.0108
G2 X9.6355 Y89.9862 Z-1.7 I0.0063 J-0.0108
G2 X9.6168 Y89.9754 Z-1.7333 I-0.0125 J0.0
G2 Y89.997 Z-1.7667 I0.0062 J0.0108
G2 X9.6355 Y89.9862 Z-1.8 I0.0063 J-0.0108
G2 X9.6168 Y89.9754 Z-1.8333 I-0.0125 J0.0
G2 Y89.997 Z-1.8667 I0.0062 J0.0108
G2 X9.6355 Y89.9862 Z-1.9 I0.0063 J-0.0108
G2 X9.6168 Y89.9754 Z-1.9333 I-0.0125 J0.0
G2 Y89.997 Z-1.9667 I0.0062 J0.0108
G2 X9.6355 Y89.9862 Z-2.0 I0.0063 J-0.0108
G2 X9.6168 Y89.9754 Z-2.0333 I-0.0125 J0.0
G2 Y89.997 Z-2.0667 I0.0062 J0.0108
G2 X9.6355 Y89.9862 Z-2.1 I0.0063 J-0.0108
G2 X9.6168 Y89.9754 Z-2.1333 I-0.0125 J0.0
G2 Y89.997 Z-2.1667 I0.0062 J0.0108
G2 X9.6355 Y89.9862 Z-2.2 I0.0063 J-0.0108
G2 X9.6168 Y89.9754 Z-2.2333 I-0.0125 J0.0
G2 Y89.997 Z-2.2667 I0.0062 J0.0108
G2 X9.6355 Y89.9862 Z-2.3 I0.0063 J-0.0108
G2 X9.6168 Y89.9754 Z-2.3333 I-0.0125 J0.0
G2 Y89.997 Z-2.3667 I0.0062 J0.0108
G2 X9.6355 Y89.9862 Z-2.4 I0.0063 J-0.0108
G2 X9.6168 Y89.9754 Z-2.4333 I-0.0125 J0.0
G2 Y89.997 Z-2.4667 I0.0062 J0.0108
G2 X9.6355 Y89.9862 Z-2.5 I0.0063 J-0.0108
G2 X9.6168 Y89.9754 Z-2.5333 I-0.0125 J0.0
G2 Y89.997 Z-2.5667 I0.0062 J0.0108
G2 X9.6355 Y89.9862 Z-2.6 I0.0063 J-0.0108
G2 X9.6168 Y89.9754 Z-2.6333 I-0.0125 J0.0
G2 Y89.997 Z-2.6667 I0.0062 J0.0108
G2 X9.6355 Y89.9862 Z-2.7 I0.0063 J-0.0108
G2 X9.6168 Y89.9754 Z-2.7333 I-0.0125 J0.0
G2 Y89.997 Z-2.7667 I0.0062 J0.0108
G2 X9.6355 Y89.9862 Z-2.8 I0.0062 J-0.0108
G2 X9.6168 Y89.9754 Z-2.8333 I-0.0125 J0.0
G2 Y89.997 Z-2.8667 I0.0062 J0.0108
G2 X9.6355 Y89.9862 Z-2.9 I0.0062 J-0.0108
G2 X9.6168 Y89.9754 Z-2.9333 I-0.0125 J0.0
G2 Y89.997 Z-2.9667 I0.0062 J0.0108
G2 X9.6355 Y89.9862 Z-3.0 I0.0062 J-0.0108
G2 X9.6168 Y89.9754 Z-3.0333 I-0.0125 J0.0
G2 Y89.997 Z-3.0667 I0.0062 J0.0108
G2 X9.6355 Y89.9862 Z-3.1 I0.0062 J-0.0108
G2 X9.6168 Y89.9754 Z-3.1333 I-0.0125 J0.0
G2 Y89.997 Z-3.1667 I0.0063 J0.0108
G2 X9.6355 Y89.9862 Z-3.2 I0.0062 J-0.0108
G2 X9.6168 Y89.9754 I-0.0125 J0.0
G2 Y89.997 I0.0063 J0.0108
G2 X9.6355 Y89.9862 I0.0062 J-0.0108
G0 Z3.0
G0 X9.7857 Y70.6341
G1 F1000.0 Z0.0
G2 F2000.0 X9.767 Y70.6233 Z-0.0333 I-0.0125 J0.0
G2 Y70.645 Z-0.0667 I0.0062 J0.0108
G2 X9.7857 Y70.6341 Z-0.1 I0.0063 J-0.0108
G2 X9.767 Y70.6233 Z-0.1333 I-0.0125 J0.0
G2 Y70.645 Z-0.1667 I0.0062 J0.0108
G2 X9.7857 Y70.6341 Z-0.2 I0.0063 J-0.0108
G2 X9.767 Y70.6233 Z-0.2333 I-0.0125 J0.0
G2 Y70.645 Z-0.2667 I0.0062 J0.0108
G2 X9.7857 Y70.6341 Z-0.3 I0.0063 J-0.0108
G2 X9.767 Y70.6233 Z-0.3333 I-0.0125 J0.0
G2 Y70.645 Z-0.3667 I0.0062 J0.0108
G2 X9.7857 Y70.6341 Z-0.4 I0.0063 J-0.0108
G2 X9.767 Y70.6233 Z-0.4333 I-0.0125 J0.0
G2 Y70.645 Z-0.4667 I0.0062 J0.0108
G2 X9.7857 Y70.6341 Z-0.5 I0.0063 J-0.0108
G2 X9.767 Y70.6233 Z-0.5333 I-0.0125 J0.0
G2 Y70.645 Z-0.5667 I0.0062 J0.0108
G2 X9.7857 Y70.6341 Z-0.6 I0.0063 J-0.0108
G2 X9.767 Y70.6233 Z-0.6333 I-0.0125 J0.0
G2 Y70.645 Z-0.6667 I0.0062 J0.0108
G2 X9.7857 Y70.6341 Z-0.7 I0.0063 J-0.0108
G2 X9.767 Y70.6233 Z-0.7333 I-0.0125 J0.0
G2 Y70.645 Z-0.7667 I0.0062 J0.0108
G2 X9.7857 Y70.6341 Z-0.8 I0.0063 J-0.0108
G2 X9.767 Y70.6233 Z-0.8333 I-0.0125 J0.0
G2 Y70.645 Z-0.8667 I0.0062 J0.0108
G2 X9.7857 Y70.6341 Z-0.9 I0.0063 J-0.0108
G2 X9.767 Y70.6233 Z-0.9333 I-0.0125 J0.0
G2 Y70.645 Z-0.9667 I0.0062 J0.0108
G2 X9.7857 Y70.6341 Z-1.0 I0.0063 J-0.0108
G2 X9.767 Y70.6233 Z-1.0333 I-0.0125 J0.0
G2 Y70.645 Z-1.0667 I0.0062 J0.0108
G2 X9.7857 Y70.6341 Z-1.1 I0.0063 J-0.0108
G2 X9.767 Y70.6233 Z-1.1333 I-0.0125 J0.0
G2 Y70.645 Z-1.1667 I0.0062 J0.0108
G2 X9.7857 Y70.6341 Z-1.2 I0.0063 J-0.0108
G2 X9.767 Y70.6233 Z-1.2333 I-0.0125 J0.0
G2 Y70.645 Z-1.2667 I0.0062 J0.0108
G2 X9.7857 Y70.6341 Z-1.3 I0.0063 J-0.0108
G2 X9.767 Y70.6233 Z-1.3333 I-0.0125 J0.0
G2 Y70.645 Z-1.3667 I0.0062 J0.0108
G2 X9.7857 Y70.6341 Z-1.4 I0.0063 J-0.0108
G2 X9.767 Y70.6233 Z-1.4333 I-0.0125 J0.0
G2 Y70.645 Z-1.4667 I0.0062 J0.0108
G2 X9.7857 Y70.6341 Z-1.5 I0.0063 J-0.0108
G2 X9.767 Y70.6233 Z-1.5333 I-0.0125 J0.0
G2 Y70.645 Z-1.5667 I0.0062 J0.0108
G2 X9.7857 Y70.6341 Z-1.6 I0.0063 J-0.0108
G2 X9.767 Y70.6233 Z-1.6333 I-0.0125 J0.0
G2 Y70.645 Z-1.6667 I0.0062 J0.0108
G2 X9.7857 Y70.6341 Z-1.7 I0.0063 J-0.0108
G2 X9.767 Y70.6233 Z-1.7333 I-0.0125 J0.0
G2 Y70.645 Z-1.7667 I0.0062 J0.0108
G2 X9.7857 Y70.6341 Z-1.8 I0.0063 J-0.0108
G2 X9.767 Y70.6233 Z-1.8333 I-0.0125 J0.0
G2 Y70.645 Z-1.8667 I0.0062 J0.0108
G2 X9.7857 Y70.6341 Z-1.9 I0.0063 J-0.0108
G2 X9.767 Y70.6233 Z-1.9333 I-0.0125 J0.0
G2 Y70.645 Z-1.9667 I0.0062 J0.0108
G2 X9.7857 Y70.6341 Z-2.0 I0.0063 J-0.0108
G2 X9.767 Y70.6233 Z-2.0333 I-0.0125 J0.0
G2 Y70.645 Z-2.0667 I0.0062 J0.0108
G2 X9.7857 Y70.6341 Z-2.1 I0.0063 J-0.0108
G2 X9.767 Y70.6233 Z-2.1333 I-0.0125 J0.0
G2 Y70.645 Z-2.1667 I0.0062 J0.0108
G2 X9.7857 Y70.6341 Z-2.2 I0.0063 J-0.0108
G2 X9.767 Y70.6233 Z-2.2333 I-0.0125 J0.0
G2 Y70.645 Z-2.2667 I0.0062 J0.0108
G2 X9.7857 Y70.6341 Z-2.3 I0.0063 J-0.0108
G2 X9.767 Y70.6233 Z-2.3333 I-0.0125 J0.0
G2 Y70.645 Z-2.3667 I0.0062 J0.0108
G2 X9.7857 Y70.6341 Z-2.4 I0.0063 J-0.0108
G2 X9.767 Y70.6233 Z-2.4333 I-0.0125 J0.0
G2 Y70.645 Z-2.4667 I0.0062 J0.0108
G2 X9.7857 Y70.6341 Z-2.5 I0.0063 J-0.0108
G2 X9.767 Y70.6233 Z-2.5333 I-0.0125 J0.0
G2 Y70.645 Z-2.5667 I0.0062 J0.0108
G2 X9.7857 Y70.6341 Z-2.6 I0.0063 J-0.0108
G2 X9.767 Y70.6233 Z-2.6333 I-0.0125 J0.0
G2 Y70.645 Z-2.6667 I0.0062 J0.0108
G2 X9.7857 Y70.6341 Z-2.7 I0.0063 J-0.0108
G2 X9.767 Y70.6233 Z-2.7333 I-0.0125 J0.0
G2 Y70.645 Z-2.7667 I0.0062 J0.0108
G2 X9.7857 Y70.6341 Z-2.8 I0.0062 J-0.0108
G2 X9.767 Y70.6233 Z-2.8333 I-0.0125 J0.0
G2 Y70.645 Z-2.8667 I0.0062 J0.0108
G2 X9.7857 Y70.6341 Z-2.9 I0.0062 J-0.0108
G2 X9.767 Y70.6233 Z-2.9333 I-0.0125 J0.0
G2 Y70.645 Z-2.9667 I0.0062 J0.0108
G2 X9.7857 Y70.6341 Z-3.0 I0.0062 J-0.0108
G2 X9.767 Y70.6233 Z-3.0333 I-0.0125 J0.0
G2 Y70.645 Z-3.0667 I0.0062 J0.0108
G2 X9.7857 Y70.6341 Z-3.1 I0.0062 J-0.0108
G2 X9.767 Y70.6233 Z-3.1333 I-0.0125 J0.0
G2 Y70.645 Z-3.1667 I0.0063 J0.0108
G2 X9.7857 Y70.6341 Z-3.2 I0.0062 J-0.0108
G2 X9.767 Y70.6233 I-0.0125 J0.0
G2 Y70.645 I0.0063 J0.0108
G2 X9.7857 Y70.6341 I0.0062 J-0.0108
G0 Z3.0
G0 X9.8065 Y52.8329
G1 F1000.0 Z0.0
G2 F2000.0 X9.7877 Y52.8221 Z-0.0333 I-0.0125 J0.0
G2 Y52.8438 Z-0.0667 I0.0063 J0.0108
G2 X9.8065 Y52.8329 Z-0.1 I0.0062 J-0.0108
G2 X9.7877 Y52.8221 Z-0.1333 I-0.0125 J0.0
G2 Y52.8438 Z-0.1667 I0.0063 J0.0108
G2 X9.8065 Y52.8329 Z-0.2 I0.0062 J-0.0108
G2 X9.7877 Y52.8221 Z-0.2333 I-0.0125 J0.0
G2 Y52.8438 Z-0.2667 I0.0063 J0.0108
G2 X9.8065 Y52.8329 Z-0.3 I0.0062 J-0.0108
G2 X9.7877 Y52.8221 Z-0.3333 I-0.0125 J0.0
G2 Y52.8438 Z-0.3667 I0.0063 J0.0108
G2 X9.8065 Y52.8329 Z-0.4 I0.0062 J-0.0108
G2 X9.7877 Y52.8221 Z-0.4333 I-0.0125 J0.0
G2 Y52.8438 Z-0.4667 I0.0063 J0.0108
G2 X9.8065 Y52.8329 Z-0.5 I0.0062 J-0.0108
G2 X9.7877 Y52.8221 Z-0.5333 I-0.0125 J0.0
G2 Y52.8438 Z-0.5667 I0.0063 J0.0108
G2 X9.8065 Y52.8329 Z-0.6 I0.0062 J-0.0108
G2 X9.7877 Y52.8221 Z-0.6333 I-0.0125 J0.0
G2 Y52.8438 Z-0.6667 I0.0063 J0.0108
G2 X9.8065 Y52.8329 Z-0.7 I0.0062 J-0.0108
G2 X9.7877 Y52.8221 Z-0.7333 I-0.0125 J0.0
G2 Y52.8438 Z-0.7667 I0.0063 J0.0108
G2 X9.8065 Y52.8329 Z-0.8 I0.0062 J-0.0108
G2 X9.7877 Y52.8221 Z-0.8333 I-0.0125 J0.0
G2 Y52.8438 Z-0.8667 I0.0063 J0.0108
G2 X9.8065 Y52.8329 Z-0.9 I0.0062 J-0.0108
G2 X9.7877 Y52.8221 Z-0.9333 I-0.0125 J0.0
G2 Y52.8438 Z-0.9667 I0.0063 J0.0108
G2 X9.8065 Y52.8329 Z-1.0 I0.0062 J-0.0108
G2 X9.7877 Y52.8221 Z-1.0333 I-0.0125 J0.0
G2 Y52.8438 Z-1.0667 I0.0063 J0.0108
G2 X9.8065 Y52.8329 Z-1.1 I0.0062 J-0.0108
G2 X9.7877 Y52.8221 Z-1.1333 I-0.0125 J0.0
G2 Y52.8438 Z-1.1667 I0.0063 J0.0108
G2 X9.8065 Y52.8329 Z-1.2 I0.0062 J-0.0108
G2 X9.7877 Y52.8221 Z-1.2333 I-0.0125 J0.0
G2 Y52.8438 Z-1.2667 I0.0063 J0.0108
G2 X9.8065 Y52.8329 Z-1.3 I0.0062 J-0.0108
G2 X9.7877 Y52.8221 Z-1.3333 I-0.0125 J0.0
G2 Y52.8438 Z-1.3667 I0.0063 J0.0108
G2 X9.8065 Y52.8329 Z-1.4 I0.0062 J-0.0108
G2 X9.7877 Y52.8221 Z-1.4333 I-0.0125 J0.0
G2 Y52.8438 Z-1.4667 I0.0063 J0.0108
G2 X9.8065 Y52.8329 Z-1.5 I0.0062 J-0.0108
G2 X9.7877 Y52.8221 Z-1.5333 I-0.0125 J0.0
G2 Y52.8438 Z-1.5667 I0.0063 J0.0108
G2 X9.8065 Y52.8329 Z-1.6 I0.0062 J-0.0108
G2 X9.7877 Y52.8221 Z-1.6333 I-0.0125 J0.0
G2 Y52.8438 Z-1.6667 I0.0063 J0.0108
G2 X9.8065 Y52.8329 Z-1.7 I0.0062 J-0.0108
G2 X9.7877 Y52.8221 Z-1.7333 I-0.0125 J0.0
G2 Y52.8438 Z-1.7667 I0.0063 J0.0108
G2 X9.8065 Y52.8329 Z-1.8 I0.0062 J-0.0108
G2 X9.7877 Y52.8221 Z-1.8333 I-0.0125 J0.0
G2 Y52.8438 Z-1.8667 I0.0063 J0.0108
G2 X9.8065 Y52.8329 Z-1.9 I0.0062 J-0.0108
G2 X9.7877 Y52.8221 Z-1.9333 I-0.0125 J0.0
G2 Y52.8438 Z-1.9667 I0.0063 J0.0108
G2 X9.8065 Y52.8329 Z-2.0 I0.0062 J-0.0108
G2 X9.7877 Y52.8221 Z-2.0333 I-0.0125 J0.0
G2 Y52.8438 Z-2.0667 I0.0063 J0.0108
G2 X9.8065 Y52.8329 Z-2.1 I0.0062 J-0.0108
G2 X9.7877 Y52.8221 Z-2.1333 I-0.0125 J0.0
G2 Y52.8438 Z-2.1667 I0.0063 J0.0108
G2 X9.8065 Y52.8329 Z-2.2 I0.0062 J-0.0108
G2 X9.7877 Y52.8221 Z-2.2333 I-0.0125 J0.0
G2 Y52.8438 Z-2.2667 I0.0063 J0.0108
G2 X9.8065 Y52.8329 Z-2.3 I0.0062 J-0.0108
G2 X9.7877 Y52.8221 Z-2.3333 I-0.0125 J0.0
G2 Y52.8438 Z-2.3667 I0.0063 J0.0108
G2 X9.8065 Y52.8329 Z-2.4 I0.0062 J-0.0108
G2 X9.7877 Y52.8221 Z-2.4333 I-0.0125 J0.0
G2 Y52.8438 Z-2.4667 I0.0063 J0.0108
G2 X9.8065 Y52.8329 Z-2.5 I0.0062 J-0.0108
G2 X9.7877 Y52.8221 Z-2.5333 I-0.0125 J0.0
G2 Y52.8438 Z-2.5667 I0.0063 J0.0108
G2 X9.8065 Y52.8329 Z-2.6 I0.0062 J-0.0108
G2 X9.7877 Y52.8221 Z-2.6333 I-0.0125 J0.0
G2 Y52.8438 Z-2.6667 I0.0063 J0.0108
G2 X9.8065 Y52.8329 Z-2.7 I0.0062 J-0.0108
G2 X9.7877 Y52.8221 Z-2.7333 I-0.0125 J0.0
G2 Y52.8438 Z-2.7667 I0.0063 J0.0108
G2 X9.8065 Y52.8329 Z-2.8 I0.0062 J-0.0108
G2 X9.7877 Y52.8221 Z-2.8333 I-0.0125 J0.0
G2 Y52.8438 Z-2.8667 I0.0063 J0.0108
G2 X9.8065 Y52.8329 Z-2.9 I0.0062 J-0.0108
G2 X9.7877 Y52.8221 Z-2.9333 I-0.0125 J0.0
G2 Y52.8438 Z-2.9667 I0.0063 J0.0108
G2 X9.8065 Y52.8329 Z-3.0 I0.0062 J-0.0108
G2 X9.7877 Y52.8221 Z-3.0333 I-0.0125 J0.0
G2 Y52.8438 Z-3.0667 I0.0063 J0.0108
G2 X9.8065 Y52.8329 Z-3.1 I0.0062 J-0.0108
G2 X9.7877 Y52.8221 Z-3.1333 I-0.0125 J0.0
G2 Y52.8438 Z-3.1667 I0.0063 J0.0108
G2 X9.8065 Y52.8329 Z-3.2 I0.0062 J-0.0108
G2 X9.7877 Y52.8221 I-0.0125 J0.0
G2 Y52.8438 I0.0063 J0.0108
G2 X9.8065 Y52.8329 I0.0062 J-0.0108
G0 Z3.0
G0 X9.809 Y34.9318
G1 F1000.0 Z0.0
G2 F2000.0 X9.7903 Y34.921 Z-0.0333 I-0.0125 J0.0
G2 Y34.9427 Z-0.0667 I0.0063 J0.0108
G2 X9.809 Y34.9318 Z-0.1 I0.0062 J-0.0108
G2 X9.7903 Y34.921 Z-0.1333 I-0.0125 J0.0
G2 Y34.9427 Z-0.1667 I0.0063 J0.0108
G2 X9.809 Y34.9318 Z-0.2 I0.0062 J-0.0108
G2 X9.7903 Y34.921 Z-0.2333 I-0.0125 J0.0
G2 Y34.9427 Z-0.2667 I0.0063 J0.0108
G2 X9.809 Y34.9318 Z-0.3 I0.0062 J-0.0108
G2 X9.7903 Y34.921 Z-0.3333 I-0.0125 J0.0
G2 Y34.9427 Z-0.3667 I0.0063 J0.0108
G2 X9.809 Y34.9318 Z-0.4 I0.0062 J-0.0108
G2 X9.7903 Y34.921 Z-0.4333 I-0.0125 J0.0
G2 Y34.9427 Z-0.4667 I0.0063 J0.0108
G2 X9.809 Y34.9318 Z-0.5 I0.0062 J-0.0108
G2 X9.7903 Y34.921 Z-0.5333 I-0.0125 J0.0
G2 Y34.9427 Z-0.5667 I0.0063 J0.0108
G2 X9.809 Y34.9318 Z-0.6 I0.0062 J-0.0108
G2 X9.7903 Y34.921 Z-0.6333 I-0.0125 J0.0
G2 Y34.9427 Z-0.6667 I0.0063 J0.0108
G2 X9.809 Y34.9318 Z-0.7 I0.0062 J-0.0108
G2 X9.7903 Y34.921 Z-0.7333 I-0.0125 J0.0
G2 Y34.9427 Z-0.7667 I0.0063 J0.0108
G2 X9.809 Y34.9318 Z-0.8 I0.0062 J-0.0108
G2 X9.7903 Y34.921 Z-0.8333 I-0.0125 J0.0
G2 Y34.9427 Z-0.8667 I0.0063 J0.0108
G2 X9.809 Y34.9318 Z-0.9 I0.0062 J-0.0108
G2 X9.7903 Y34.921 Z-0.9333 I-0.0125 J0.0
G2 Y34.9427 Z-0.9667 I0.0063 J0.0108
G2 X9.809 Y34.9318 Z-1.0 I0.0062 J-0.0108
G2 X9.7903 Y34.921 Z-1.0333 I-0.0125 J0.0
G2 Y34.9427 Z-1.0667 I0.0063 J0.0108
G2 X9.809 Y34.9318 Z-1.1 I0.0062 J-0.0108
G2 X9.7903 Y34.921 Z-1.1333 I-0.0125 J0.0
G2 Y34.9427 Z-1.1667 I0.0063 J0.0108
G2 X9.809 Y34.9318 Z-1.2 I0.0062 J-0.0108
G2 X9.7903 Y34.921 Z-1.2333 I-0.0125 J0.0
G2 Y34.9427 Z-1.2667 I0.0063 J0.0108
G2 X9.809 Y34.9318 Z-1.3 I0.0062 J-0.0108
G2 X9.7903 Y34.921 Z-1.3333 I-0.0125 J0.0
G2 Y34.9427 Z-1.3667 I0.0063 J0.0108
G2 X9.809 Y34.9318 Z-1.4 I0.0062 J-0.0108
G2 X9.7903 Y34.921 Z-1.4333 I-0.0125 J0.0
G2 Y34.9427 Z-1.4667 I0.0063 J0.0108
G2 X9.809 Y34.9318 Z-1.5 I0.0062 J-0.0108
G2 X9.7903 Y34.921 Z-1.5333 I-0.0125 J0.0
G2 Y34.9427 Z-1.5667 I0.0063 J0.0108
G2 X9.809 Y34.9318 Z-1.6 I0.0062 J-0.0108
G2 X9.7903 Y34.921 Z-1.6333 I-0.0125 J0.0
G2 Y34.9427 Z-1.6667 I0.0063 J0.0108
G2 X9.809 Y34.9318 Z-1.7 I0.0062 J-0.0108
G2 X9.7903 Y34.921 Z-1.7333 I-0.0125 J0.0
G2 Y34.9427 Z-1.7667 I0.0063 J0.0108
G2 X9.809 Y34.9318 Z-1.8 I0.0062 J-0.0108
G2 X9.7903 Y34.921 Z-1.8333 I-0.0125 J0.0
G2 Y34.9427 Z-1.8667 I0.0063 J0.0108
G2 X9.809 Y34.9318 Z-1.9 I0.0062 J-0.0108
G2 X9.7903 Y34.921 Z-1.9333 I-0.0125 J0.0
G2 Y34.9427 Z-1.9667 I0.0063 J0.0108
G2 X9.809 Y34.9318 Z-2.0 I0.0062 J-0.0108
G2 X9.7903 Y34.921 Z-2.0333 I-0.0125 J0.0
G2 Y34.9427 Z-2.0667 I0.0063 J0.0108
G2 X9.809 Y34.9318 Z-2.1 I0.0062 J-0.0108
G2 X9.7903 Y34.921 Z-2.1333 I-0.0125 J0.0
G2 Y34.9427 Z-2.1667 I0.0063 J0.0108
G2 X9.809 Y34.9318 Z-2.2 I0.0062 J-0.0108
G2 X9.7903 Y34.921 Z-2.2333 I-0.0125 J0.0
G2 Y34.9427 Z-2.2667 I0.0063 J0.0108
G2 X9.809 Y34.9318 Z-2.3 I0.0062 J-0.0108
G2 X9.7903 Y34.921 Z-2.3333 I-0.0125 J0.0
G2 Y34.9427 Z-2.3667 I0.0063 J0.0108
G2 X9.809 Y34.9318 Z-2.4 I0.0062 J-0.0108
G2 X9.7903 Y34.921 Z-2.4333 I-0.0125 J0.0
G2 Y34.9427 Z-2.4667 I0.0063 J0.0108
G2 X9.809 Y34.9318 Z-2.5 I0.0062 J-0.0108
G2 X9.7903 Y34.921 Z-2.5333 I-0.0125 J0.0
G2 Y34.9427 Z-2.5667 I0.0063 J0.0108
G2 X9.809 Y34.9318 Z-2.6 I0.0062 J-0.0108
G2 X9.7903 Y34.921 Z-2.6333 I-0.0125 J0.0
G2 Y34.9427 Z-2.6667 I0.0063 J0.0108
G2 X9.809 Y34.9318 Z-2.7 I0.0062 J-0.0108
G2 X9.7903 Y34.921 Z-2.7333 I-0.0125 J0.0
G2 Y34.9427 Z-2.7667 I0.0063 J0.0108
G2 X9.809 Y34.9318 Z-2.8 I0.0062 J-0.0108
G2 X9.7903 Y34.921 Z-2.8333 I-0.0125 J0.0
G2 Y34.9427 Z-2.8667 I0.0063 J0.0108
G2 X9.809 Y34.9318 Z-2.9 I0.0062 J-0.0108
G2 X9.7903 Y34.921 Z-2.9333 I-0.0125 J0.0
G2 Y34.9427 Z-2.9667 I0.0063 J0.0108
G2 X9.809 Y34.9318 Z-3.0 I0.0062 J-0.0108
G2 X9.7903 Y34.921 Z-3.0333 I-0.0125 J0.0
G2 Y34.9427 Z-3.0667 I0.0063 J0.0108
G2 X9.809 Y34.9318 Z-3.1 I0.0062 J-0.0108
G2 X9.7903 Y34.921 Z-3.1333 I-0.0125 J0.0
G2 Y34.9427 Z-3.1667 I0.0063 J0.0108
G2 X9.809 Y34.9318 Z-3.2 I0.0062 J-0.0108
G2 X9.7903 Y34.921 I-0.0125 J0.0
G2 Y34.9427 I0.0063 J0.0108
G2 X9.809 Y34.9318 I0.0062 J-0.0108
G0 Z3.0
G0 X5.1775 Y3.0682
G1 F1000.0 Z0.0
G2 F2000.0 X5.1587 Y3.0574 Z-0.0333 I-0.0125 J0.0
G2 Y3.0791 Z-0.0667 I0.0062 J0.0108
G2 X5.1775 Y3.0682 Z-0.1 I0.0063 J-0.0108
G2 X5.1587 Y3.0574 Z-0.1333 I-0.0125 J0.0
G2 Y3.0791 Z-0.1667 I0.0062 J0.0108
G2 X5.1775 Y3.0682 Z-0.2 I0.0063 J-0.0108
G2 X5.1587 Y3.0574 Z-0.2333 I-0.0125 J0.0
G2 Y3.0791 Z-0.2667 I0.0062 J0.0108
G2 X5.1775 Y3.0682 Z-0.3 I0.0063 J-0.0108
G2 X5.1587 Y3.0574 Z-0.3333 I-0.0125 J0.0
G2 Y3.0791 Z-0.3667 I0.0063 J0.0108
G2 X5.1775 Y3.0682 Z-0.4 I0.0062 J-0.0108
G2 X5.1587 Y3.0574 Z-0.4333 I-0.0125 J0.0
G2 Y3.0791 Z-0.4667 I0.0063 J0.0108
G2 X5.1775 Y3.0682 Z-0.5 I0.0062 J-0.0108
G2 X5.1587 Y3.0574 Z-0.5333 I-0.0125 J0.0
G2 Y3.0791 Z-0.5667 I0.0063 J0.0108
G2 X5.1775 Y3.0682 Z-0.6 I0.0062 J-0.0108
G2 X5.1587 Y3.0574 Z-0.6333 I-0.0125 J0.0
G2 Y3.0791 Z-0.6667 I0.0062 J0.0108
G2 X5.1775 Y3.0682 Z-0.7 I0.0063 J-0.0108
G2 X5.1587 Y3.0574 Z-0.7333 I-0.0125 J0.0
G2 Y3.0791 Z-0.7667 I0.0062 J0.0108
G2 X5.1775 Y3.0682 Z-0.8 I0.0063 J-0.0108
G2 X5.1587 Y3.0574 Z-0.8333 I-0.0125 J0.0
G2 Y3.0791 Z-0.8667 I0.0062 J0.0108
G2 X5.1775 Y3.0682 Z-0.9 I0.0063 J-0.0108
G2 X5.1587 Y3.0574 Z-0.9333 I-0.0125 J0.0
G2 Y3.0791 Z-0.9667 I0.0062 J0.0108
G2 X5.1775 Y3.0682 Z-1.0 I0.0063 J-0.0108
G2 X5.1587 Y3.0574 Z-1.0333 I-0.0125 J0.0
G2 Y3.0791 Z-1.0667 I0.0062 J0.0108
G2 X5.1775 Y3.0682 Z-1.1 I0.0063 J-0.0108
G2 X5.1587 Y3.0574 Z-1.1333 I-0.0125 J0.0
G2 Y3.0791 Z-1.1667 I0.0062 J0.0108
G2 X5.1775 Y3.0682 Z-1.2 I0.0063 J-0.0108
G2 X5.1587 Y3.0574 Z-1.2333 I-0.0125 J0.0
G2 Y3.0791 Z-1.2667 I0.0062 J0.0108
G2 X5.1775 Y3.0682 Z-1.3 I0.0063 J-0.0108
G2 X5.1587 Y3.0574 Z-1.3333 I-0.0125 J0.0
G2 Y3.0791 Z-1.3667 I0.0062 J0.0108
G2 X5.1775 Y3.0682 Z-1.4 I0.0063 J-0.0108
G2 X5.1587 Y3.0574 Z-1.4333 I-0.0125 J0.0
G2 Y3.0791 Z-1.4667 I0.0062 J0.0108
G2 X5.1775 Y3.0682 Z-1.5 I0.0063 J-0.0108
G2 X5.1587 Y3.0574 Z-1.5333 I-0.0125 J0.0
G2 Y3.0791 Z-1.5667 I0.0062 J0.0108
G2 X5.1775 Y3.0682 Z-1.6 I0.0063 J-0.0108
G2 X5.1587 Y3.0574 Z-1.6333 I-0.0125 J0.0
G2 Y3.0791 Z-1.6667 I0.0062 J0.0108
G2 X5.1775 Y3.0682 Z-1.7 I0.0063 J-0.0108
G2 X5.1587 Y3.0574 Z-1.7333 I-0.0125 J0.0
G2 Y3.0791 Z-1.7667 I0.0062 J0.0108
G2 X5.1775 Y3.0682 Z-1.8 I0.0063 J-0.0108
G2 X5.1587 Y3.0574 Z-1.8333 I-0.0125 J0.0
G2 Y3.0791 Z-1.8667 I0.0062 J0.0108
G2 X5.1775 Y3.0682 Z-1.9 I0.0063 J-0.0108
G2 X5.1587 Y3.0574 Z-1.9333 I-0.0125 J0.0
G2 Y3.0791 Z-1.9667 I0.0062 J0.0108
G2 X5.1775 Y3.0682 Z-2.0 I0.0063 J-0.0108
G2 X5.1587 Y3.0574 Z-2.0333 I-0.0125 J0.0
G2 Y3.0791 Z-2.0667 I0.0062 J0.0108
G2 X5.1775 Y3.0682 Z-2.1 I0.0063 J-0.0108
G2 X5.1587 Y3.0574 Z-2.1333 I-0.0125 J0.0
G2 Y3.0791 Z-2.1667 I0.0062 J0.0108
G2 X5.1775 Y3.0682 Z-2.2 I0.0063 J-0.0108
G2 X5.1587 Y3.0574 Z-2.2333 I-0.0125 J0.0
G2 Y3.0791 Z-2.2667 I0.0062 J0.0108
G2 X5.1775 Y3.0682 Z-2.3 I0.0063 J-0.0108
G2 X5.1587 Y3.0574 Z-2.3333 I-0.0125 J0.0
G2 Y3.0791 Z-2.3667 I0.0063 J0.0108
G2 X5.1775 Y3.0682 Z-2.4 I0.0062 J-0.0108
G2 X5.1587 Y3.0574 Z-2.4333 I-0.0125 J0.0
G2 Y3.0791 Z-2.4667 I0.0063 J0.0108
G2 X5.1775 Y3.0682 Z-2.5 I0.0062 J-0.0108
G2 X5.1587 Y3.0574 Z-2.5333 I-0.0125 J0.0
G2 Y3.0791 Z-2.5667 I0.0063 J0.0108
G2 X5.1775 Y3.0682 Z-2.6 I0.0062 J-0.0108
G2 X5.1587 Y3.0574 Z-2.6333 I-0.0125 J0.0
G2 Y3.0791 Z-2.6667 I0.0063 J0.0108
G2 X5.1775 Y3.0682 Z-2.7 I0.0062 J-0.0108
G2 X5.1587 Y3.0574 Z-2.7333 I-0.0125 J0.0
G2 Y3.0791 Z-2.7667 I0.0063 J0.0108
G2 X5.1775 Y3.0682 Z-2.8 I0.0062 J-0.0108
G2 X5.1587 Y3.0574 Z-2.8333 I-0.0125 J0.0
G2 Y3.0791 Z-2.8667 I0.0063 J0.0108
G2 X5.1775 Y3.0682 Z-2.9 I0.0062 J-0.0108
G2 X5.1587 Y3.0574 Z-2.9333 I-0.0125 J0.0
G2 Y3.0791 Z-2.9667 I0.0063 J0.0108
G2 X5.1775 Y3.0682 Z-3.0 I0.0062 J-0.0108
G2 X5.1587 Y3.0574 Z-3.0333 I-0.0125 J0.0
G2 Y3.0791 Z-3.0667 I0.0063 J0.0108
G2 X5.1775 Y3.0682 Z-3.1 I0.0062 J-0.0108
G2 X5.1587 Y3.0574 Z-3.1333 I-0.0125 J0.0
G2 Y3.0791 Z-3.1667 I0.0063 J0.0108
G2 X5.1775 Y3.0682 Z-3.2 I0.0062 J-0.0108
G2 X5.1587 Y3.0574 I-0.0125 J0.0
G2 Y3.0791 I0.0063 J0.0108
G2 X5.1775 Y3.0682 I0.0062 J-0.0108
( cutout )
S1000
G0 Z3.0
G0 X0.0168 Y-1.5693
G1 F1000.0 Z-0.1
G1 F2000.0 X19.8883
G3 X21.4758 Y0.0182 I0.0 J1.5875
G1 Y128.449
G3 X19.8883 Y130.0365 I-1.5875 J0.0
G1 X0.0168
G3 X-1.5707 Y128.449 I0.0 J-1.5875
G1 Y0.0182
G3 X0.0168 Y-1.5693 I1.5875 J0.0
G1 F1000.0 Z-0.2
G1 F2000.0 X19.8883
G3 X21.4758 Y0.0182 I0.0 J1.5875
G1 Y128.449
G3 X19.8883 Y130.0365 I-1.5875 J0.0
G1 X0.0168
G3 X-1.5707 Y128.449 I0.0 J-1.5875
G1 Y0.0182
G3 X0.0168 Y-1.5693 I1.5875 J0.0
G1 F1000.0 Z-0.3
G1 F2000.0 X19.8883
G3 X21.4758 Y0.0182 I0.0 J1.5875
G1 Y14.8848
G1 Y17.2223 Z-0.2
G1 Y19.5598 Z-0.3
G1 Y89.0359
G1 Y91.3734 Z-0.2
G1 Y93.7109 Z-0.3
G1 Y128.449
G3 X19.8883 Y130.0365 I-1.5875 J0.0
G1 X0.0168
G3 X-1.5707 Y128.449 I0.0 J-1.5875
G1 Y113.5823
G1 Y111.2448 Z-0.2
G1 Y108.9073 Z-0.3
G1 Y39.4312
G1 Y37.0937 Z-0.2
G1 Y34.7562 Z-0.3
G1 Y0.0182
G3 X0.0168 Y-1.5693 I1.5875 J0.0
G1 F1000.0 Z-0.4
G1 F2000.0 X19.8883
G3 X21.4758 Y0.0182 I0.0 J1.5875
G1 Y14.8848
G1 Y17.2223 Z-0.2
G1 Y19.5598 Z-0.4
G1 Y89.0359
G1 Y91.3734 Z-0.2
G1 Y93.7109 Z-0.4
G1 Y128.449
G3 X19.8883 Y130.0365 I-1.5875 J0.0
G1 X0.0168
G3 X-1.5707 Y128.449 I0.0 J-1.5875
G1 Y113.5823
G1 Y111.2448 Z-0.2
G1 Y108.9073 Z-0.4
G1 Y39.4312
G1 Y37.0937 Z-0.2
G1 Y34.7562 Z-0.4
G1 Y0.0182
G3 X0.0168 Y-1.5693 I1.5875 J0.0
G1 F1000.0 Z-0.5
G1 F2000.0 X19.8883
G3 X21.4758 Y0.0182 I0.0 J1.5875
G1 Y14.8848
G1 Y17.2223 Z-0.2
G1 Y19.5598 Z-0.5
G1 Y89.0359
G1 Y91.3734 Z-0.2
G1 Y93.7109 Z-0.5
G1 Y128.449
G3 X19.8883 Y130.0365 I-1.5875 J0.0
G1 X0.0168
G3 X-1.5707 Y128.449 I0.0 J-1.5875
G1 Y113.5823
G1 Y111.2448 Z-0.2
G1 Y108.9073 Z-0.5
G1 Y39.4312
G1 Y37.0937 Z-0.2
G1 Y34.7562 Z-0.5
G1 Y0.0182
G3 X0.0168 Y-1.5693 I1.5875 J0.0
G1 F1000.0 Z-0.6
G1 F2000.0 X19.8883
G3 X21.4758 Y0.0182 I0.0 J1.5875
G1 Y14.8848
G1 Y17.2223 Z-0.2
G1 Y19.5598 Z-0.6
G1 Y89.0359
G1 Y91.3734 Z-0.2
G1 Y93.7109 Z-0.6
G1 Y128.449
G3 X19.8883 Y130.0365 I-1.5875 J0.0
G1 X0.0168
G3 X-1.5707 Y128.449 I0.0 J-1.5875
G1 Y113.5823
G1 Y111.2448 Z-0.2
G1 Y108.9073 Z-0.6
G1 Y39.4312
G1 Y37.0937 Z-0.2
G1 Y34.7562 Z-0.6
G1 Y0.0182
G3 X0.0168 Y-1.5693 I1.5875 J0.0
G1 F1000.0 Z-0.7
G1 F2000.0 X19.8883
G3 X21.4758 Y0.0182 I0.0 J1.5875
G1 Y14.8848
G1 Y17.2223 Z-0.2
G1 Y19.5598 Z-0.7
G1 Y89.0359
G1 Y91.3734 Z-0.2
G1 Y93.7109 Z-0.7
G1 Y128.449
G3 X19.8883 Y130.0365 I-1.5875 J0.0
G1 X0.0168
G3 X-1.5707 Y128.449 I0.0 J-1.5875
G1 Y113.5823
G1 Y111.2448 Z-0.2
G1 Y108.9073 Z-0.7
G1 Y39.4312
G1 Y37.0937 Z-0.2
G1 Y34.7562 Z-0.7
G1 Y0.0182
G3 X0.0168 Y-1.5693 I1.5875 J0.0
G1 F1000.0 Z-0.8
G1 F2000.0 X19.8883
G3 X21.4758 Y0.0182 I0.0 J1.5875
G1 Y14.8848
G1 Y17.2223 Z-0.2
G1 Y19.5598 Z-0.8
G1 Y89.0359
G1 Y91.3734 Z-0.2
G1 Y93.7109 Z-0.8
G1 Y128.449
G3 X19.8883 Y130.0365 I-1.5875 J0.0
G1 X0.0168
G3 X-1.5707 Y128.449 I0.0 J-1.5875
G1 Y113.5823
G1 Y111.2448 Z-0.2
G1 Y108.9073 Z-0.8
G1 Y39.4312
G1 Y37.0937 Z-0.2
G1 Y34.7562 Z-0.8
G1 Y0.0182
G3 X0.0168 Y-1.5693 I1.5875 J0.0
G1 F1000.0 Z-0.9
G1 F2000.0 X19.8883
G3 X21.4758 Y0.0182 I0.0 J1.5875
G1 Y14.8848
G1 Y17.2223 Z-0.2
G1 Y19.5598 Z-0.9
G1 Y89.0359
G1 Y91.3734 Z-0.2
G1 Y93.7109 Z-0.9
G1 Y128.449
G3 X19.8883 Y130.0365 I-1.5875 J0.0
G1 X0.0168
G3 X-1.5707 Y128.449 I0.0 J-1.5875
G1 Y113.5823
G1 Y111.2448 Z-0.2
G1 Y108.9073 Z-0.9
G1 Y39.4312
G1 Y37.0937 Z-0.2
G1 Y34.7562 Z-0.9
G1 Y0.0182
G3 X0.0168 Y-1.5693 I1.5875 J0.0
G1 F1000.0 Z-1.0
G1 F2000.0 X19.8883
G3 X21.4758 Y0.0182 I0.0 J1.5875
G1 Y14.8848
G1 Y17.2223 Z-0.2
G1 Y19.5598 Z-1.0
G1 Y89.0359
G1 Y91.3734 Z-0.2
G1 Y93.7109 Z-1.0
G1 Y128.449
G3 X19.8883 Y130.0365 I-1.5875 J0.0
G1 X0.0168
G3 X-1.5707 Y128.449 I0.0 J-1.5875
G1 Y113.5823
G1 Y111.2448 Z-0.2
G1 Y108.9073 Z-1.0
G1 Y39.4312
G1 Y37.0937 Z-0.2
G1 Y34.7562 Z-1.0
G1 Y0.0182
G3 X0.0168 Y-1.5693 I1.5875 J0.0
G1 F1000.0 Z-1.1
G1 F2000.0 X19.8883
G3 X21.4758 Y0.0182 I0.0 J1.5875
G1 Y14.8848
G1 Y17.2223 Z-0.2
G1 Y19.5598 Z-1.1
G1 Y89.0359
G1 Y91.3734 Z-0.2
G1 Y93.7109 Z-1.1
G1 Y128.449
G3 X19.8883 Y130.0365 I-1.5875 J0.0
G1 X0.0168
G3 X-1.5707 Y128.449 I0.0 J-1.5875
G1 Y113.5823
G1 Y111.2448 Z-0.2
G1 Y108.9073 Z-1.1
G1 Y39.4312
G1 Y37.0937 Z-0.2
G1 Y34.7562 Z-1.1
G1 Y0.0182
G3 X0.0168 Y-1.5693 I1.5875 J0.0
G1 F1000.0 Z-1.2
G1 F2000.0 X19.8883
G3 X21.4758 Y0.0182 I0.0 J1.5875
G1 Y14.8848
G1 Y17.2223 Z-0.2
G1 Y19.5598 Z-1.2
G1 Y89.0359
G1 Y91.3734 Z-0.2
G1 Y93.7109 Z-1.2
G1 Y128.449
G3 X19.8883 Y130.0365 I-1.5875 J0.0
G1 X0.0168
G3 X-1.5707 Y128.449 I0.0 J-1.5875
G1 Y113.5823
G1 Y111.2448 Z-0.2
G1 Y108.9073 Z-1.2
G1 Y39.4312
G1 Y37.0937 Z-0.2
G1 Y34.7562 Z-1.2
G1 Y0.0182
G3 X0.0168 Y-1.5693 I1.5875 J0.0
G1 F1000.0 Z-1.3
G1 F2000.0 X19.8883
G3 X21.4758 Y0.0182 I0.0 J1.5875
G1 Y14.8848
G1 Y17.2223 Z-0.2
G1 Y19.5598 Z-1.3
G1 Y89.0359
G1 Y91.3734 Z-0.2
G1 Y93.7109 Z-1.3
G1 Y128.449
G3 X19.8883 Y130.0365 I-1.5875 J0.0
G1 X0.0168
G3 X-1.5707 Y128.449 I0.0 J-1.5875
G1 Y113.5823
G1 Y111.2448 Z-0.2
G1 Y108.9073 Z-1.3
G1 Y39.4312
G1 Y37.0937 Z-0.2
G1 Y34.7562 Z-1.3
G1 Y0.0182
G3 X0.0168 Y-1.5693 I1.5875 J0.0
G1 F1000.0 Z-1.4
G1 F2000.0 X19.8883
G3 X21.4758 Y0.0182 I0.0 J1.5875
G1 Y14.8848
G1 Y17.2223 Z-0.2
G1 Y19.5598 Z-1.4
G1 Y89.0359
G1 Y91.3734 Z-0.2
G1 Y93.7109 Z-1.4
G1 Y128.449
G3 X19.8883 Y130.0365 I-1.5875 J0.0
G1 X0.0168
G3 X-1.5707 Y128.449 I0.0 J-1.5875
G1 Y113.5823
G1 Y111.2448 Z-0.2
G1 Y108.9073 Z-1.4
G1 Y39.4312
G1 Y37.0937 Z-0.2
G1 Y34.7562 Z-1.4
G1 Y0.0182
G3 X0.0168 Y-1.5693 I1.5875 J0.0
G1 F1000.0 Z-1.5
G1 F2000.0 X19.8883
G3 X21.4758 Y0.0182 I0.0 J1.5875
G1 Y14.8848
G1 Y17.2223 Z-0.2
G1 Y19.5598 Z-1.5
G1 Y89.0359
G1 Y91.3734 Z-0.2
G1 Y93.7109 Z-1.5
G1 Y128.449
G3 X19.8883 Y130.0365 I-1.5875 J0.0
G1 X0.0168
G3 X-1.5707 Y128.449 I0.0 J-1.5875
G1 Y113.5823
G1 Y111.2448 Z-0.2
G1 Y108.9073 Z-1.5
G1 Y39.4312
G1 Y37.0937 Z-0.2
G1 Y34.7562 Z-1.5
G1 Y0.0182
G3 X0.0168 Y-1.5693 I1.5875 J0.0
G1 F1000.0 Z-1.6
G1 F2000.0 X19.8883
G3 X21.4758 Y0.0182 I0.0 J1.5875
G1 Y14.8848
G1 Y17.2223 Z-0.2
G1 Y19.5598 Z-1.6
G1 Y89.0359
G1 Y91.3734 Z-0.2
G1 Y93.7109 Z-1.6
G1 Y128.449
G3 X19.8883 Y130.0365 I-1.5875 J0.0
G1 X0.0168
G3 X-1.5707 Y128.449 I0.0 J-1.5875
G1 Y113.5823
G1 Y111.2448 Z-0.2
G1 Y108.9073 Z-1.6
G1 Y39.4312
G1 Y37.0937 Z-0.2
G1 Y34.7562 Z-1.6
G1 Y0.0182
G3 X0.0168 Y-1.5693 I1.5875 J0.0
G1 F1000.0 Z-1.7
G1 F2000.0 X19.8883
G3 X21.4758 Y0.0182 I0.0 J1.5875
G1 Y14.8848
G1 Y17.2223 Z-0.2
G1 Y19.5598 Z-1.7
G1 Y89.0359
G1 Y91.3734 Z-0.2
G1 Y93.7109 Z-1.7
G1 Y128.449
G3 X19.8883 Y130.0365 I-1.5875 J0.0
G1 X0.0168
G3 X-1.5707 Y128.449 I0.0 J-1.5875
G1 Y113.5823
G1 Y111.2448 Z-0.2
G1 Y108.9073 Z-1.7
G1 Y39.4312
G1 Y37.0937 Z-0.2
G1 Y34.7562 Z-1.7
G1 Y0.0182
G3 X0.0168 Y-1.5693 I1.5875 J0.0
G1 F1000.0 Z-1.8
G1 F2000.0 X19.8883
G3 X21.4758 Y0.0182 I0.0 J1.5875
G1 Y14.8848
G1 Y17.2223 Z-0.2
G1 Y19.5598 Z-1.8
G1 Y89.0359
G1 Y91.3734 Z-0.2
G1 Y93.7109 Z-1.8
G1 Y128.449
G3 X19.8883 Y130.0365 I-1.5875 J0.0
G1 X0.0168
G3 X-1.5707 Y128.449 I0.0 J-1.5875
G1 Y113.5823
G1 Y111.2448 Z-0.2
G1 Y108.9073 Z-1.8
G1 Y39.4312
G1 Y37.0937 Z-0.2
G1 Y34.7562 Z-1.8
G1 Y0.0182
G3 X0.0168 Y-1.5693 I1.5875 J0.0
G1 F1000.0 Z-1.9
G1 F2000.0 X19.8883
G3 X21.4758 Y0.0182 I0.0 J1.5875
G1 Y14.8848
G1 Y17.2223 Z-0.2
G1 Y19.5598 Z-1.9
G1 Y89.0359
G1 Y91.3734 Z-0.2
G1 Y93.7109 Z-1.9
G1 Y128.449
G3 X19.8883 Y130.0365 I-1.5875 J0.0
G1 X0.0168
G3 X-1.5707 Y128.449 I0.0 J-1.5875
G1 Y113.5823
G1 Y111.2448 Z-0.2
G1 Y108.9073 Z-1.9
G1 Y39.4312
G1 Y37.0937 Z-0.2
G1 Y34.7562 Z-1.9
G1 Y0.0182
G3 X0.0168 Y-1.5693 I1.5875 J0.0
G1 F1000.0 Z-2.0
G1 F2000.0 X19.8883
G3 X21.4758 Y0.0182 I0.0 J1.5875
G1 Y14.8848
G1 Y17.2223 Z-0.2
G1 Y19.5598 Z-2.0
G1 Y89.0359
G1 Y91.3734 Z-0.2
G1 Y93.7109 Z-2.0
G1 Y128.449
G3 X19.8883 Y130.0365 I-1.5875 J0.0
G1 X0.0168
G3 X-1.5707 Y128.449 I0.0 J-1.5875
G1 Y113.5823
G1 Y111.2448 Z-0.2
G1 Y108.9073 Z-2.0
G1 Y39.4312
G1 Y37.0937 Z-0.2
G1 Y34.7562 Z-2.0
G1 Y0.0182
G3 X0.0168 Y-1.5693 I1.5875 J0.0
G1 F1000.0 Z-2.1
G1 F2000.0 X19.8883
G3 X21.4758 Y0.0182 I0.0 J1.5875
G1 Y14.8848
G1 Y17.2223 Z-0.2
G1 Y19.5598 Z-2.1
G1 Y89.0359
G1 Y91.3734 Z-0.2
G1 Y93.7109 Z-2.1
G1 Y128.449
G3 X19.8883 Y130.0365 I-1.5875 J0.0
G1 X0.0168
G3 X-1.5707 Y128.449 I0.0 J-1.5875
G1 Y113.5823
G1 Y111.2448 Z-0.2
G1 Y108.9073 Z-2.1
G1 Y39.4312
G1 Y37.0937 Z-0.2
G1 Y34.7562 Z-2.1
G1 Y0.0182
G3 X0.0168 Y-1.5693 I1.5875 J0.0
G1 F1000.0 Z-2.2
G1 F2000.0 X19.8883
G3 X21.4758 Y0.0182 I0.0 J1.5875
G1 Y14.8848
G1 Y17.2223 Z-0.2
G1 Y19.5598 Z-2.2
G1 Y89.0359
G1 Y91.3734 Z-0.2
G1 Y93.7109 Z-2.2
G1 Y128.449
G3 X19.8883 Y130.0365 I-1.5875 J0.0
G1 X0.0168
G3 X-1.5707 Y128.449 I0.0 J-1.5875
G1 Y113.5823
G1 Y111.2448 Z-0.2
G1 Y108.9073 Z-2.2
G1 Y39.4312
G1 Y37.0937 Z-0.2
G1 Y34.7562 Z-2.2
G1 Y0.0182
G3 X0.0168 Y-1.5693 I1.5875 J0.0
G1 F1000.0 Z-2.3
G1 F2000.0 X19.8883
G3 X21.4758 Y0.0182 I0.0 J1.5875
G1 Y14.8848
G1 Y17.2223 Z-0.2
G1 Y19.5598 Z-2.3
G1 Y89.0359
G1 Y91.3734 Z-0.2
G1 Y93.7109 Z-2.3
G1 Y128.449
G3 X19.8883 Y130.0365 I-1.5875 J0.0
G1 X0.0168
G3 X-1.5707 Y128.449 I0.0 J-1.5875
G1 Y113.5823
G1 Y111.2448 Z-0.2
G1 Y108.9073 Z-2.3
G1 Y39.4312
G1 Y37.0937 Z-0.2
G1 Y34.7562 Z-2.3
G1 Y0.0182
G3 X0.0168 Y-1.5693 I1.5875 J0.0
G1 F1000.0 Z-2.4
G1 F2000.0 X19.8883
G3 X21.4758 Y0.0182 I0.0 J1.5875
G1 Y14.8848
G1 Y17.2223 Z-0.2
G1 Y19.5598 Z-2.4
G1 Y89.0359
G1 Y91.3734 Z-0.2
G1 Y93.7109 Z-2.4
G1 Y128.449
G3 X19.8883 Y130.0365 I-1.5875 J0.0
G1 X0.0168
G3 X-1.5707 Y128.449 I0.0 J-1.5875
G1 Y113.5823
G1 Y111.2448 Z-0.2
G1 Y108.9073 Z-2.4
G1 Y39.4312
G1 Y37.0937 Z-0.2
G1 Y34.7562 Z-2.4
G1 Y0.0182
G3 X0.0168 Y-1.5693 I1.5875 J0.0
G1 F1000.0 Z-2.5
G1 F2000.0 X19.8883
G3 X21.4758 Y0.0182 I0.0 J1.5875
G1 Y14.8848
G1 Y17.2223 Z-0.2
G1 Y19.5598 Z-2.5
G1 Y89.0359
G1 Y91.3734 Z-0.2
G1 Y93.7109 Z-2.5
G1 Y128.449
G3 X19.8883 Y130.0365 I-1.5875 J0.0
G1 X0.0168
G3 X-1.5707 Y128.449 I0.0 J-1.5875
G1 Y113.5823
G1 Y111.2448 Z-0.2
G1 Y108.9073 Z-2.5
G1 Y39.4312
G1 Y37.0937 Z-0.2
G1 Y34.7562 Z-2.5
G1 Y0.0182
G3 X0.0168 Y-1.5693 I1.5875 J0.0
G1 F1000.0 Z-2.6
G1 F2000.0 X19.8883
G3 X21.4758 Y0.0182 I0.0 J1.5875
G1 Y14.8848
G1 Y17.2223 Z-0.2
G1 Y19.5598 Z-2.6
G1 Y89.0359
G1 Y91.3734 Z-0.2
G1 Y93.7109 Z-2.6
G1 Y128.449
G3 X19.8883 Y130.0365 I-1.5875 J0.0
G1 X0.0168
G3 X-1.5707 Y128.449 I0.0 J-1.5875
G1 Y113.5823
G1 Y111.2448 Z-0.2
G1 Y108.9073 Z-2.6
G1 Y39.4312
G1 Y37.0937 Z-0.2
G1 Y34.7562 Z-2.6
G1 Y0.0182
G3 X0.0168 Y-1.5693 I1.5875 J0.0
G1 F1000.0 Z-2.7
G1 F2000.0 X19.8883
G3 X21.4758 Y0.0182 I0.0 J1.5875
G1 Y14.8848
G1 Y17.2223 Z-0.2
G1 Y19.5598 Z-2.7
G1 Y89.0359
G1 Y91.3734 Z-0.2
G1 Y93.7109 Z-2.7
G1 Y128.449
G3 X19.8883 Y130.0365 I-1.5875 J0.0
G1 X0.0168
G3 X-1.5707 Y128.449 I0.0 J-1.5875
G1 Y113.5823
G1 Y111.2448 Z-0.2
G1 Y108.9073 Z-2.7
G1 Y39.4312
G1 Y37.0937 Z-0.2
G1 Y34.7562 Z-2.7
G1 Y0.0182
G3 X0.0168 Y-1.5693 I1.5875 J0.0
G1 F1000.0 Z-2.8
G1 F2000.0 X19.8883
G3 X21.4758 Y0.0182 I0.0 J1.5875
G1 Y14.8848
G1 Y17.2223 Z-0.2
G1 Y19.5598 Z-2.8
G1 Y89.0359
G1 Y91.3734 Z-0.2
G1 Y93.7109 Z-2.8
G1 Y128.449
G3 X19.8883 Y130.0365 I-1.5875 J0.0
G1 X0.0168
G3 X-1.5707 Y128.449 I0.0 J-1.5875
G1 Y113.5823
G1 Y111.2448 Z-0.2
G1 Y108.9073 Z-2.8
G1 Y39.4312
G1 Y37.0937 Z-0.2
G1 Y34.7562 Z-2.8
G1 Y0.0182
G3 X0.0168 Y-1.5693 I1.5875 J0.0
G1 F1000.0 Z-2.9
G1 F2000.0 X19.8883
G3 X21.4758 Y0.0182 I0.0 J1.5875
G1 Y14.8848
G1 Y17.2223 Z-0.2
G1 Y19.5598 Z-2.9
G1 Y89.0359
G1 Y91.3734 Z-0.2
G1 Y93.7109 Z-2.9
G1 Y128.449
G3 X19.8883 Y130.0365 I-1.5875 J0.0
G1 X0.0168
G3 X-1.5707 Y128.449 I0.0 J-1.5875
G1 Y113.5823
G1 Y111.2448 Z-0.2
G1 Y108.9073 Z-2.9
G1 Y39.4312
G1 Y37.0937 Z-0.2
G1 Y34.7562 Z-2.9
G1 Y0.0182
G3 X0.0168 Y-1.5693 I1.5875 J0.0
G1 F1000.0 Z-3.0
G1 F2000.0 X19.8883
G3 X21.4758 Y0.0182 I0.0 J1.5875
G1 Y14.8848
G1 Y17.2223 Z-0.2
G1 Y19.5598 Z-3.0
G1 Y89.0359
G1 Y91.3734 Z-0.2
G1 Y93.7109 Z-3.0
G1 Y128.449
G3 X19.8883 Y130.0365 I-1.5875 J0.0
G1 X0.0168
G3 X-1.5707 Y128.449 I0.0 J-1.5875
G1 Y113.5823
G1 Y111.2448 Z-0.2
G1 Y108.9073 Z-3.0
G1 Y39.4312
G1 Y37.0937 Z-0.2
G1 Y34.7562 Z-3.0
G1 Y0.0182
G3 X0.0168 Y-1.5693 I1.5875 J0.0
G1 F1000.0 Z-3.1
G1 F2000.0 X19.8883
G3 X21.4758 Y0.0182 I0.0 J1.5875
G1 Y14.8848
G1 Y17.2223 Z-0.2
G1 Y19.5598 Z-3.1
G1 Y89.0359
G1 Y91.3734 Z-0.2
G1 Y93.7109 Z-3.1
G1 Y128.449
G3 X19.8883 Y130.0365 I-1.5875 J0.0
G1 X0.0168
G3 X-1.5707 Y128.449 I0.0 J-1.5875
G1 Y113.5823
G1 Y111.2448 Z-0.2
G1 Y108.9073 Z-3.1
G1 Y39.4312
G1 Y37.0937 Z-0.2
G1 Y34.7562 Z-3.1
G1 Y0.0182
G3 X0.0168 Y-1.5693 I1.5875 J0.0
G1 F1000.0 Z-3.2
G1 F2000.0 X19.8883
G3 X21.4758 Y0.0182 I0.0 J1.5875
G1 Y14.8848
G1 Y17.2223 Z-0.2
G1 Y19.5598 Z-3.2
G1 Y89.0359
G1 Y91.3734 Z-0.2
G1 Y93.7109 Z-3.2
G1 Y128.449
G3 X19.8883 Y130.0365 I-1.5875 J0.0
G1 X0.0168
G3 X-1.5707 Y128.449 I0.0 J-1.5875
G1 Y113.5823
G1 Y111.2448 Z-0.2
G1 Y108.9073 Z-3.2
G1 Y39.4312
G1 Y37.0937 Z-0.2
G1 Y34.7562 Z-3.2
G1 Y0.0182
G3 X0.0168 Y-1.5693 I1.5875 J0.0
G0 Z3.0
M5
M30
