(/Applications/pcbgcode.repo/pcb-gcode.ulp)
(Copyright 2005 - 2012 by John Johnson)
(See readme.txt for licensing terms.)
(This file generated from the board:)
(.../attiny_midi_cv/eagle/attiny_midi_cv.brd)
(Current profile is .../pcbgcode.repo/profiles/mach.pp  )
(This file generated 6/29/16 12:22 AM)
(Settings from pcb-machine.h)
(spindle on time = 0.0000)
(spindle speed = 20000.0000)
(tool change at 0.0000  0.0000  1.5000  )
(feed rate xy = F0     )
(feed rate z  = F20    )
(Z Axis Settings)
(  High     Up        Down     Drill)
(0.2500  	0.0500  	-0.0035 	-0.0750 )
(Settings from pcb-defaults.h)
(isolate min = 0.0050)
(isolate max = 0.0200)
(isolate step = 0.0010)
(Generated bottom outlines, bottom drill, )
(Unit of measure: inch)
( Tool|       Size       |  Min Sub |  Max Sub |   Count )
( T01 | 0.800mm 0.0315in | 0.0000in | 0.0000in |       0 )
( T02 | 0.813mm 0.0320in | 0.0000in | 0.0000in |       0 )
( T03 | 0.900mm 0.0354in | 0.0000in | 0.0000in |       0 )
( T04 | 0.991mm 0.0390in | 0.0000in | 0.0000in |       0 )
( T05 | 1.000mm 0.0394in | 0.0000in | 0.0000in |       0 )
( T06 | 1.016mm 0.0400in | 0.0000in | 0.0000in |       0 )
( T07 | 1.300mm 0.0512in | 0.0000in | 0.0000in |       0 )
(Inch Mode)
G20
(Absolute Coordinates)
G90
S20000
G00 Z0.2500  
G00 X0.0000  Y0.0000  
M03
G04 P0.000000
M05
G00 Z1.5000  
M06 T01  ; 0.0315  
G01 Z0.0000  F20    
M06 
G00 Z0.0500  
M03
G04 P0.000000
G82 X-2.5180 Y1.3446  Z-0.0750 F20    R0.0500  P0.020000
G82 X-2.5180 Y1.5414  
M05
G00 Z1.5000  
G00 X0.0000  Y0.0000  
M06 T02  ; 0.0320  
G01 Z0.0000  F20    
M06 
G00 Z0.0500  
M03
G04 P0.000000
G82 X-0.1000 Y0.9500  Z-0.0750 F20    R0.0500  P0.020000
G82 X-0.2000 Y0.9000  
G82 X-0.2000 Y1.0000  
G82 X-0.2000 Y1.1000  
G82 X-0.2000 Y1.2000  
G82 X-0.1000 Y1.2500  
G82 X-0.2470 Y1.3340  
G82 X-0.4470 Y1.3340  
G82 X-0.5000 Y1.2000  
G82 X-0.5000 Y1.1000  
G82 X-0.5780 Y1.0660  
G82 X-0.5000 Y1.0000  
G82 X-0.5000 Y0.9000  
G82 X-0.5780 Y0.7660  
G82 X-0.5300 Y0.6840  
G82 X-0.7500 Y0.8760  
G82 X-0.8300 Y0.6840  
G82 X-1.0530 Y0.7700  
G82 X-1.2500 Y0.8750  
G82 X-1.2500 Y0.9750  
G82 X-1.2500 Y1.0750  
G82 X-1.2500 Y1.1750  
G82 X-1.3230 Y1.2940  
G82 X-1.3900 Y1.4020  
G82 X-1.3150 Y1.4520  
G82 X-1.3900 Y1.5020  
G82 X-1.5660 Y1.5120  
G82 X-1.8660 Y1.5120  
G82 X-1.8500 Y1.2000  
G82 X-1.8500 Y1.1000  
G82 X-1.8500 Y1.0000  
G82 X-1.8500 Y0.9000  
G82 X-1.6790 Y0.8130  
G82 X-1.5500 Y0.8750  
G82 X-1.5500 Y0.9750  
G82 X-1.5500 Y1.0750  
G82 X-1.5500 Y1.1750  
G82 X-1.6790 Y1.2130  
G82 X-2.1500 Y1.2000  
G82 X-2.1500 Y1.1000  
G82 X-2.1500 Y1.0000  
G82 X-2.1500 Y0.9000  
G82 X-2.0680 Y0.7280  
G82 X-2.0680 Y0.4280  
G82 X-1.3650 Y0.3590  
G82 X-1.3650 Y0.6590  
G82 X-1.3530 Y0.7700  
G82 X-1.0230 Y1.2940  
G82 X-1.1210 Y1.5250  
G82 X-0.8210 Y1.5250  
G82 X-0.7000 Y1.4000  
G82 X-0.6000 Y1.3000  
G82 X-0.7500 Y1.1760  
G82 X-0.6000 Y1.5000  
G82 X-0.4000 Y1.4750  
G82 X-0.1000 Y1.4750  
G82 X-2.2280 Y1.3480  
G82 X-2.2750 Y1.5080  
G82 X-2.3750 Y1.5080  
G82 X-2.4280 Y1.3480  
M05
G00 Z1.5000  
G00 X0.0000  Y0.0000  
M06 T03  ; 0.0354  
G01 Z0.0000  F20    
M06 
G00 Z0.0500  
M03
G04 P0.000000
G82 X-1.5750 Y1.4170  Z-0.0750 F20    R0.0500  P0.020000
G82 X-1.8750 Y1.4170  
M05
G00 Z1.5000  
G00 X0.0000  Y0.0000  
M06 T04  ; 0.0390  
G01 Z0.0000  F20    
M06 
G00 Z0.0500  
M03
G04 P0.000000
G82 X-0.8750 Y0.8750  Z-0.0750 F20    R0.0500  P0.020000
G82 X-0.8750 Y0.9750  
G82 X-0.8750 Y1.0750  
G82 X-0.8750 Y1.1750  
G82 X-1.1750 Y1.1750  
G82 X-1.1750 Y1.0750  
G82 X-1.1750 Y0.9750  
G82 X-1.1750 Y0.8750  
M05
G00 Z1.5000  
G00 X0.0000  Y0.0000  
M06 T05  ; 0.0394  
G01 Z0.0000  F20    
M06 
G00 Z0.0500  
M03
G04 P0.000000
G82 X-2.0320 Y0.1080  Z-0.0750 F20    R0.0500  P0.020000
G82 X-2.0320 Y0.2080  
G82 X-2.0320 Y0.3080  
G82 X-2.0510 Y1.4240  
G82 X-2.0510 Y1.5240  
M05
G00 Z1.5000  
G00 X0.0000  Y0.0000  
M06 T06  ; 0.0400  
G01 Z0.0000  F20    
M06 
G00 Z0.0500  
M03
G04 P0.000000
G82 X-2.3670 Y0.2660  Z-0.0750 F20    R0.0500  P0.020000
G82 X-2.3670 Y0.3660  
G82 X-2.3670 Y0.4660  
G82 X-2.3670 Y0.5660  
G82 X-2.3670 Y0.6660  
G82 X-2.3670 Y0.7660  
G82 X-2.3670 Y0.8660  
G82 X-2.3670 Y0.9660  
G82 X-2.4670 Y0.9660  
G82 X-2.4670 Y0.8660  
G82 X-2.4670 Y0.7660  
G82 X-2.4670 Y0.6660  
G82 X-2.4670 Y0.5660  
G82 X-2.4670 Y0.4660  
G82 X-2.4670 Y0.3660  
G82 X-2.4670 Y0.2660  
M05
G00 Z1.5000  
G00 X0.0000  Y0.0000  
M06 T07  ; 0.0512  
G01 Z0.0000  F20    
M06 
G00 Z0.0500  
M03
G04 P0.000000
G82 X-0.2200 Y0.0980  Z-0.0750 F20    R0.0500  P0.020000
G82 X-0.2531 Y0.0984  
G82 X-0.2870 Y0.0980  
G82 X-0.4580 Y0.4980  
G82 X-0.4579 Y0.5315  
G82 X-0.4580 Y0.5650  
G82 X-0.2860 Y0.6180  
G82 X-0.2531 Y0.6181  
G82 X-0.2200 Y0.6180  
G82 X-0.9200 Y0.6180  
G82 X-0.9531 Y0.6181  
G82 X-0.9860 Y0.6180  
G82 X-1.1580 Y0.5650  
G82 X-1.1579 Y0.5315  
G82 X-1.1580 Y0.4980  
G82 X-0.9870 Y0.0980  
G82 X-0.9531 Y0.0984  
G82 X-0.9200 Y0.0980  
G82 X-1.6200 Y0.0980  
G82 X-1.6531 Y0.0984  
G82 X-1.6870 Y0.0980  
G82 X-1.8580 Y0.4980  
G82 X-1.8579 Y0.5315  
G82 X-1.8580 Y0.5650  
G82 X-1.6860 Y0.6180  
G82 X-1.6531 Y0.6181  
G82 X-1.6200 Y0.6180  
T01 
G00 Z0.2500  
M05
M02
