(/Applications/pcbgcode.repo/pcb-gcode.ulp)
(Copyright 2005 - 2012 by John Johnson)
(See readme.txt for licensing terms.)
(This file generated from the board:)
(.../attiny_midi_cv/eagle/attiny_midi_cv.brd)
(Current profile is .../pcbgcode.repo/profiles/mach.pp  )
(This file generated 6/29/16 12:18 AM)
(Settings from pcb-machine.h)
(spindle on time = 0.0000)
(  Tool Size)
(0.0030  )
(spindle speed = 30000.0000)
(tool change at 0.0000  0.0000  1.5000  )
(feed rate xy = F20    )
(feed rate z  = F10    )
(Z Axis Settings)
(  High     Up        Down     Drill)
(0.2500  	0.0500  	-0.0035 	-0.0750 )
(Settings from pcb-defaults.h)
(isolate min = 0.0050)
(isolate max = 0.0200)
(isolate step = 0.0010)
(Generated bottom outlines, bottom drill, )
(Unit of measure: inch)
(Inch Mode)
G20
(Absolute Coordinates)
G90
S30000
G00 Z0.2500  
G00 X0.0000  Y0.0000  
M03
G04 P0.000000
G00 Z0.0500  
G00 X-0.1601 Y0.0616  
G01 Z-0.0035 F10    
G01 X-0.1548 Y0.0688  F20    
G01 X-0.1508 Y0.0767  
G01 X-0.1480 Y0.0852  
G01 X-0.1466 Y0.0940  
G01 X-0.1466 Y0.1029  
G01 X-0.1480 Y0.1117  
G01 X-0.1508 Y0.1201  
G01 X-0.1548 Y0.1280  
G01 X-0.1601 Y0.1352  
G01 X-0.1663 Y0.1415  
G01 X-0.1735 Y0.1467  
G01 X-0.1815 Y0.1508  
G01 X-0.1899 Y0.1535  
G01 X-0.1987 Y0.1549  
G01 X-0.3076 Y0.1549  
G01 X-0.3164 Y0.1535  
G01 X-0.3248 Y0.1508  
G01 X-0.3328 Y0.1467  
G01 X-0.3400 Y0.1415  
G01 X-0.3462 Y0.1352  
G01 X-0.3515 Y0.1280  
G01 X-0.3531 Y0.1249  
G01 X-0.7135 Y0.1249  
G01 X-0.7135 Y0.7467  
G01 X-0.7135 Y0.7469  
G01 X-0.7135 Y0.7493  
G01 X-0.7135 Y0.7516  
G01 X-0.7136 Y0.7519  
G01 X-0.7136 Y0.7522  
G01 X-0.7141 Y0.7544  
G01 X-0.7145 Y0.7567  
G01 X-0.7146 Y0.7570  
G01 X-0.7147 Y0.7572  
G01 X-0.7156 Y0.7594  
G01 X-0.7165 Y0.7616  
G01 X-0.7167 Y0.7618  
G01 X-0.7168 Y0.7620  
G01 X-0.7181 Y0.7639  
G01 X-0.7194 Y0.7659  
G01 X-0.7196 Y0.7661  
G01 X-0.7198 Y0.7663  
G01 X-0.7215 Y0.7679  
G01 X-0.7231 Y0.7696  
G01 X-0.7233 Y0.7697  
G01 X-0.7465 Y0.7919  
G01 X-0.7481 Y0.7936  
G01 X-0.7483 Y0.7937  
G01 X-0.7485 Y0.7939  
G01 X-0.7505 Y0.7952  
G01 X-0.7524 Y0.7965  
G01 X-0.7527 Y0.7966  
G01 X-0.7529 Y0.7967  
G01 X-0.7551 Y0.7976  
G01 X-0.7573 Y0.7985  
G01 X-0.7575 Y0.7985  
G01 X-0.7578 Y0.7986  
G01 X-0.7601 Y0.7990  
G01 X-0.7624 Y0.7995  
G01 X-0.7627 Y0.7995  
G01 X-0.7629 Y0.7995  
G01 X-0.7653 Y0.7995  
G01 X-0.9180 Y0.7995  
G01 X-0.9435 Y0.8250  
G01 X-0.9435 Y0.9250  
G01 X-0.9220 Y0.9465  
G01 X-0.8971 Y0.9465  
G01 X-0.8921 Y0.9431  
G01 X-0.8855 Y0.9404  
G01 X-0.8785 Y0.9390  
G01 X-0.8715 Y0.9390  
G01 X-0.8645 Y0.9404  
G01 X-0.8579 Y0.9431  
G01 X-0.8521 Y0.9470  
G01 X-0.8470 Y0.9521  
G01 X-0.8431 Y0.9579  
G01 X-0.8404 Y0.9645  
G01 X-0.8390 Y0.9715  
G01 X-0.8390 Y0.9785  
G01 X-0.8404 Y0.9855  
G01 X-0.8431 Y0.9921  
G01 X-0.8470 Y0.9979  
G01 X-0.8521 Y1.0030  
G01 X-0.8579 Y1.0069  
G01 X-0.8645 Y1.0096  
G01 X-0.8715 Y1.0110  
G01 X-0.8785 Y1.0110  
G01 X-0.8855 Y1.0096  
G01 X-0.8921 Y1.0069  
G01 X-0.8979 Y1.0030  
G01 X-0.9014 Y0.9995  
G01 X-0.9220 Y0.9995  
G01 X-0.9735 Y1.0510  
G01 X-0.9735 Y1.1390  
G01 X-0.9640 Y1.1485  
G01 X-0.8994 Y1.1485  
G01 X-0.8979 Y1.1470  
G01 X-0.8921 Y1.1431  
G01 X-0.8855 Y1.1404  
G01 X-0.8785 Y1.1390  
G01 X-0.8715 Y1.1390  
G01 X-0.8645 Y1.1404  
G01 X-0.8579 Y1.1431  
G01 X-0.8521 Y1.1470  
G01 X-0.8470 Y1.1521  
G01 X-0.8431 Y1.1579  
G01 X-0.8404 Y1.1645  
G01 X-0.8390 Y1.1715  
G01 X-0.8390 Y1.1785  
G01 X-0.8404 Y1.1855  
G01 X-0.8431 Y1.1921  
G01 X-0.8470 Y1.1979  
G01 X-0.8521 Y1.2030  
G01 X-0.8566 Y1.2060  
G01 X-0.7890 Y1.2735  
G01 X-0.6325 Y1.2735  
G01 X-0.6325 Y1.2708  
G01 X-0.6313 Y1.2645  
G01 X-0.6288 Y1.2586  
G01 X-0.6252 Y1.2533  
G01 X-0.6207 Y1.2488  
G01 X-0.6154 Y1.2452  
G01 X-0.6095 Y1.2427  
G01 X-0.6032 Y1.2415  
G01 X-0.5968 Y1.2415  
G01 X-0.5905 Y1.2427  
G01 X-0.5846 Y1.2452  
G01 X-0.5834 Y1.2460  
G01 X-0.5321 Y1.1946  
G01 X-0.5313 Y1.1905  
G01 X-0.5288 Y1.1846  
G01 X-0.5252 Y1.1793  
G01 X-0.5207 Y1.1748  
G01 X-0.5154 Y1.1712  
G01 X-0.5095 Y1.1687  
G01 X-0.5032 Y1.1675  
G01 X-0.4968 Y1.1675  
G01 X-0.4905 Y1.1687  
G01 X-0.4846 Y1.1712  
G01 X-0.4793 Y1.1748  
G01 X-0.4748 Y1.1793  
G01 X-0.4712 Y1.1846  
G01 X-0.4687 Y1.1905  
G01 X-0.4675 Y1.1968  
G01 X-0.4675 Y1.2032  
G01 X-0.4675 Y1.2033  
G01 X-0.4279 Y1.2723  
G01 X-0.4274 Y1.2730  
G01 X-0.4266 Y1.2745  
G01 X-0.4257 Y1.2761  
G01 X-0.4254 Y1.2769  
G01 X-0.4251 Y1.2777  
G01 X-0.4246 Y1.2794  
G01 X-0.4241 Y1.2810  
G01 X-0.4239 Y1.2819  
G01 X-0.4237 Y1.2827  
G01 X-0.4236 Y1.2844  
G01 X-0.4234 Y1.2862  
G01 X-0.4234 Y1.2870  
G01 X-0.4218 Y1.3133  
G01 X-0.4145 Y1.3205  
G01 X-0.4145 Y1.3475  
G01 X-0.4152 Y1.3482  
G01 X-0.3911 Y1.4298  
G01 X-0.3846 Y1.4445  
G01 X-0.3675 Y1.4615  
G01 X-0.3675 Y1.4885  
G01 X-0.3865 Y1.5075  
G01 X-0.4135 Y1.5075  
G01 X-0.4325 Y1.4885  
G01 X-0.4325 Y1.4671  
G01 X-0.4399 Y1.4506  
G01 X-0.4407 Y1.4490  
G01 X-0.4409 Y1.4482  
G01 X-0.4413 Y1.4474  
G01 X-0.4417 Y1.4457  
G01 X-0.4670 Y1.3600  
G01 X-0.4795 Y1.3475  
G01 X-0.4795 Y1.3205  
G01 X-0.4747 Y1.3158  
G01 X-0.4761 Y1.2949  
G01 X-0.5057 Y1.2432  
G01 X-0.5675 Y1.3050  
G01 X-0.5675 Y1.3292  
G01 X-0.5687 Y1.3355  
G01 X-0.5712 Y1.3414  
G01 X-0.5748 Y1.3467  
G01 X-0.5793 Y1.3512  
G01 X-0.5846 Y1.3548  
G01 X-0.5905 Y1.3573  
G01 X-0.5968 Y1.3585  
G01 X-0.6032 Y1.3585  
G01 X-0.6095 Y1.3573  
G01 X-0.6154 Y1.3548  
G01 X-0.6207 Y1.3512  
G01 X-0.6252 Y1.3467  
G01 X-0.6288 Y1.3414  
G01 X-0.6313 Y1.3355  
G01 X-0.6325 Y1.3292  
G01 X-0.6325 Y1.3265  
G01 X-0.8026 Y1.3265  
G01 X-0.8077 Y1.3255  
G01 X-0.8126 Y1.3235  
G01 X-0.8169 Y1.3206  
G01 X-0.9169 Y1.2206  
G01 X-0.9206 Y1.2169  
G01 X-0.9235 Y1.2126  
G01 X-0.9255 Y1.2077  
G01 X-0.9265 Y1.2026  
G01 X-0.9265 Y1.2015  
G01 X-0.9776 Y1.2015  
G01 X-0.9827 Y1.2005  
G01 X-0.9876 Y1.1985  
G01 X-0.9919 Y1.1956  
G01 X-1.0014 Y1.1861  
G01 X-1.2241 Y1.3777  
G01 X-1.2244 Y1.3780  
G01 X-1.2261 Y1.3794  
G01 X-1.2277 Y1.3808  
G01 X-1.2281 Y1.3810  
G01 X-1.2284 Y1.3813  
G01 X-1.2304 Y1.3823  
G01 X-1.2322 Y1.3834  
G01 X-1.2327 Y1.3835  
G01 X-1.2331 Y1.3837  
G01 X-1.2351 Y1.3843  
G01 X-1.2372 Y1.3850  
G01 X-1.2376 Y1.3850  
G01 X-1.3641 Y1.4220  
G01 X-1.3765 Y1.4345  
G01 X-1.4035 Y1.4345  
G01 X-1.4225 Y1.4155  
G01 X-1.4225 Y1.3886  
G01 X-1.4400 Y1.3367  
G01 X-1.5117 Y1.2278  
G01 X-1.5331 Y1.2154  
G01 X-1.5332 Y1.2155  
G01 X-1.5668 Y1.2155  
G01 X-1.5905 Y1.1918  
G01 X-1.5905 Y1.1837  
G01 X-1.6215 Y1.1675  
G01 X-1.6920 Y1.1675  
G01 X-1.7655 Y1.2165  
G01 X-1.7703 Y1.2185  
G01 X-1.7714 Y1.2187  
G01 X-1.7728 Y1.2207  
G01 X-1.7773 Y1.2252  
G01 X-1.7826 Y1.2288  
G01 X-1.7885 Y1.2313  
G01 X-1.7948 Y1.2325  
G01 X-1.8532 Y1.2325  
G01 X-1.8595 Y1.2313  
G01 X-1.8654 Y1.2288  
G01 X-1.8707 Y1.2252  
G01 X-1.8710 Y1.2250  
G01 X-1.8723 Y1.2255  
G01 X-1.8774 Y1.2265  
G01 X-1.8826 Y1.2265  
G01 X-1.8877 Y1.2255  
G01 X-1.8926 Y1.2235  
G01 X-1.8969 Y1.2206  
G01 X-1.9545 Y1.1630  
G01 X-1.9561 Y1.1615  
G01 X-1.9563 Y1.1612  
G01 X-1.9566 Y1.1609  
G01 X-1.9578 Y1.1590  
G01 X-1.9591 Y1.1572  
G01 X-1.9593 Y1.1569  
G01 X-1.9595 Y1.1566  
G01 X-1.9603 Y1.1545  
G01 X-1.9613 Y1.1524  
G01 X-1.9613 Y1.1521  
G01 X-1.9615 Y1.1517  
G01 X-1.9619 Y1.1495  
G01 X-1.9624 Y1.1473  
G01 X-1.9624 Y1.1470  
G01 X-1.9625 Y1.1466  
G01 X-1.9625 Y1.1444  
G01 X-1.9662 Y1.0110  
G01 X-2.1334 Y0.8383  
G01 X-2.2252 Y0.8367  
G01 X-2.2565 Y0.8680  
G01 X-2.2515 Y0.8923  
G01 X-2.2515 Y0.8925  
G01 X-2.2510 Y0.8948  
G01 X-2.2505 Y0.8972  
G01 X-2.2505 Y0.8974  
G01 X-2.2505 Y0.8976  
G01 X-2.2505 Y0.9000  
G01 X-2.2505 Y0.9024  
G01 X-2.2505 Y0.9026  
G01 X-2.2515 Y1.0231  
G01 X-2.2515 Y1.0256  
G01 X-2.2515 Y1.0257  
G01 X-2.2515 Y1.0258  
G01 X-2.2520 Y1.0283  
G01 X-2.2525 Y1.0307  
G01 X-2.2526 Y1.0308  
G01 X-2.2526 Y1.0309  
G01 X-2.2536 Y1.0332  
G01 X-2.2545 Y1.0356  
G01 X-2.2546 Y1.0357  
G01 X-2.2560 Y1.0378  
G01 X-2.2574 Y1.0399  
G01 X-2.2576 Y1.0401  
G01 X-2.2593 Y1.0418  
G01 X-2.3475 Y1.1300  
G01 X-2.3475 Y1.2384  
G01 X-2.2885 Y1.3195  
G01 X-2.2482 Y1.3195  
G01 X-2.2468 Y1.3194  
G01 X-2.2456 Y1.3195  
G01 X-2.2455 Y1.3195  
G01 X-2.2415 Y1.3155  
G01 X-2.2145 Y1.3155  
G01 X-2.1955 Y1.3345  
G01 X-2.1955 Y1.3615  
G01 X-2.2001 Y1.3661  
G01 X-2.1987 Y1.3866  
G01 X-2.1985 Y1.3876  
G01 X-2.1985 Y1.3892  
G01 X-2.1984 Y1.3907  
G01 X-2.1985 Y1.3918  
G01 X-2.1985 Y1.3928  
G01 X-2.1988 Y1.3943  
G01 X-2.1990 Y1.3959  
G01 X-2.1994 Y1.3969  
G01 X-2.1996 Y1.3979  
G01 X-2.2002 Y1.3994  
G01 X-2.2007 Y1.4008  
G01 X-2.2012 Y1.4018  
G01 X-2.2388 Y1.4905  
G01 X-2.2370 Y1.4923  
G01 X-2.2370 Y1.5237  
G01 X-2.2593 Y1.5460  
G01 X-2.2907 Y1.5460  
G01 X-2.3130 Y1.5237  
G01 X-2.3130 Y1.4923  
G01 X-2.2907 Y1.4700  
G01 X-2.2877 Y1.4700  
G01 X-2.2519 Y1.3855  
G01 X-2.2528 Y1.3725  
G01 X-2.3015 Y1.3725  
G01 X-2.3036 Y1.3726  
G01 X-2.3041 Y1.3725  
G01 X-2.3046 Y1.3725  
G01 X-2.3067 Y1.3721  
G01 X-2.3087 Y1.3718  
G01 X-2.3092 Y1.3716  
G01 X-2.3097 Y1.3715  
G01 X-2.3117 Y1.3707  
G01 X-2.3136 Y1.3700  
G01 X-2.3141 Y1.3697  
G01 X-2.3146 Y1.3695  
G01 X-2.3163 Y1.3683  
G01 X-2.3181 Y1.3672  
G01 X-2.3185 Y1.3669  
G01 X-2.3189 Y1.3666  
G01 X-2.3204 Y1.3651  
G01 X-2.3219 Y1.3637  
G01 X-2.3222 Y1.3633  
G01 X-2.3226 Y1.3629  
G01 X-2.3237 Y1.3612  
G01 X-2.3942 Y1.2643  
G01 X-2.3946 Y1.2639  
G01 X-2.3957 Y1.2622  
G01 X-2.3970 Y1.2605  
G01 X-2.3972 Y1.2600  
G01 X-2.3975 Y1.2596  
G01 X-2.3983 Y1.2576  
G01 X-2.3992 Y1.2557  
G01 X-2.3993 Y1.2552  
G01 X-2.3995 Y1.2547  
G01 X-2.3999 Y1.2527  
G01 X-2.4004 Y1.2507  
G01 X-2.4004 Y1.2501  
G01 X-2.4005 Y1.2496  
G01 X-2.4005 Y1.2475  
G01 X-2.4006 Y1.2454  
G01 X-2.4005 Y1.2449  
G01 X-2.4005 Y1.1164  
G01 X-2.3995 Y1.1113  
G01 X-2.3975 Y1.1064  
G01 X-2.3946 Y1.1021  
G01 X-2.3909 Y1.0984  
G01 X-2.3044 Y1.0119  
G01 X-2.3035 Y0.9026  
G01 X-2.3056 Y0.8925  
G01 X-2.3320 Y0.8925  
G01 X-2.3490 Y0.9095  
G01 X-2.3850 Y0.9095  
G01 X-2.3990 Y0.8955  
G01 X-2.4350 Y0.8955  
G01 X-2.4490 Y0.9095  
G01 X-2.4850 Y0.9095  
G01 X-2.5105 Y0.8840  
G01 X-2.5105 Y0.8480  
G01 X-2.4985 Y0.8360  
G01 X-2.4985 Y0.7960  
G01 X-2.5105 Y0.7840  
G01 X-2.5105 Y0.7480  
G01 X-2.4985 Y0.7360  
G01 X-2.4985 Y0.6960  
G01 X-2.5105 Y0.6840  
G01 X-2.5105 Y0.6480  
G01 X-2.4850 Y0.6225  
G01 X-2.4490 Y0.6225  
G01 X-2.4380 Y0.6335  
G01 X-2.3960 Y0.6335  
G01 X-2.3850 Y0.6225  
G01 X-2.3490 Y0.6225  
G01 X-2.3235 Y0.6480  
G01 X-2.3235 Y0.6840  
G01 X-2.3365 Y0.6970  
G01 X-2.3365 Y0.7350  
G01 X-2.3235 Y0.7480  
G01 X-2.3235 Y0.7840  
G01 X-2.3365 Y0.7970  
G01 X-2.3365 Y0.8350  
G01 X-2.3320 Y0.8395  
G01 X-2.3030 Y0.8395  
G01 X-2.2564 Y0.7929  
G01 X-2.2563 Y0.7927  
G01 X-2.2546 Y0.7911  
G01 X-2.2529 Y0.7894  
G01 X-2.2527 Y0.7893  
G01 X-2.2525 Y0.7891  
G01 X-2.2505 Y0.7878  
G01 X-2.2486 Y0.7865  
G01 X-2.2483 Y0.7864  
G01 X-2.2481 Y0.7863  
G01 X-2.2459 Y0.7854  
G01 X-2.2437 Y0.7845  
G01 X-2.2435 Y0.7845  
G01 X-2.2433 Y0.7844  
G01 X-2.2409 Y0.7840  
G01 X-2.2386 Y0.7835  
G01 X-2.2384 Y0.7835  
G01 X-2.2381 Y0.7835  
G01 X-2.2358 Y0.7835  
G01 X-2.2334 Y0.7835  
G01 X-2.2332 Y0.7835  
G01 X-2.1216 Y0.7855  
G01 X-2.1190 Y0.7855  
G01 X-2.1164 Y0.7861  
G01 X-2.1139 Y0.7866  
G01 X-2.1114 Y0.7877  
G01 X-2.1091 Y0.7887  
G01 X-2.1069 Y0.7902  
G01 X-2.1048 Y0.7917  
G01 X-2.1029 Y0.7936  
G01 X-1.9214 Y0.9811  
G01 X-1.9199 Y0.9825  
G01 X-1.9196 Y0.9830  
G01 X-1.9191 Y0.9834  
G01 X-1.9180 Y0.9851  
G01 X-1.9169 Y0.9868  
G01 X-1.9166 Y0.9873  
G01 X-1.9163 Y0.9878  
G01 X-1.9156 Y0.9897  
G01 X-1.9147 Y0.9916  
G01 X-1.9146 Y0.9921  
G01 X-1.9144 Y0.9927  
G01 X-1.9140 Y0.9947  
G01 X-1.9136 Y0.9967  
G01 X-1.9136 Y0.9972  
G01 X-1.9135 Y0.9978  
G01 X-1.9135 Y0.9998  
G01 X-1.9098 Y1.1327  
G01 X-1.8689 Y1.1736  
G01 X-1.8654 Y1.1712  
G01 X-1.8595 Y1.1687  
G01 X-1.8532 Y1.1675  
G01 X-1.7948 Y1.1675  
G01 X-1.7892 Y1.1686  
G01 X-1.7147 Y1.1189  
G01 X-1.7126 Y1.1175  
G01 X-1.7101 Y1.1165  
G01 X-1.7077 Y1.1155  
G01 X-1.7052 Y1.1150  
G01 X-1.7026 Y1.1145  
G01 X-1.7000 Y1.1145  
G01 X-1.6164 Y1.1145  
G01 X-1.6152 Y1.1144  
G01 X-1.6138 Y1.1145  
G01 X-1.6124 Y1.1145  
G01 X-1.6112 Y1.1147  
G01 X-1.6100 Y1.1148  
G01 X-1.6087 Y1.1152  
G01 X-1.6073 Y1.1155  
G01 X-1.6062 Y1.1160  
G01 X-1.6050 Y1.1163  
G01 X-1.6038 Y1.1170  
G01 X-1.6024 Y1.1175  
G01 X-1.6015 Y1.1182  
G01 X-1.5680 Y1.1357  
G01 X-1.5668 Y1.1345  
G01 X-1.5332 Y1.1345  
G01 X-1.5095 Y1.1582  
G01 X-1.5095 Y1.1678  
G01 X-1.4812 Y1.1842  
G01 X-1.4803 Y1.1846  
G01 X-1.4789 Y1.1855  
G01 X-1.4775 Y1.1864  
G01 X-1.4768 Y1.1870  
G01 X-1.4760 Y1.1875  
G01 X-1.4748 Y1.1887  
G01 X-1.4735 Y1.1898  
G01 X-1.4730 Y1.1906  
G01 X-1.4723 Y1.1913  
G01 X-1.4714 Y1.1926  
G01 X-1.4704 Y1.1940  
G01 X-1.4700 Y1.1948  
G01 X-1.3949 Y1.3089  
G01 X-1.3943 Y1.3095  
G01 X-1.3934 Y1.3111  
G01 X-1.3924 Y1.3126  
G01 X-1.3921 Y1.3134  
G01 X-1.3917 Y1.3140  
G01 X-1.3911 Y1.3158  
G01 X-1.3905 Y1.3174  
G01 X-1.3903 Y1.3182  
G01 X-1.3730 Y1.3694  
G01 X-1.2559 Y1.3352  
G01 X-1.0265 Y1.1378  
G01 X-1.0265 Y1.0374  
G01 X-1.0255 Y1.0323  
G01 X-1.0235 Y1.0274  
G01 X-1.0206 Y1.0231  
G01 X-0.9705 Y0.9730  
G01 X-0.9906 Y0.9529  
G01 X-0.9935 Y0.9486  
G01 X-0.9955 Y0.9437  
G01 X-0.9965 Y0.9386  
G01 X-0.9965 Y0.8114  
G01 X-0.9955 Y0.8063  
G01 X-0.9935 Y0.8014  
G01 X-0.9906 Y0.7971  
G01 X-0.9869 Y0.7934  
G01 X-0.9459 Y0.7524  
G01 X-0.9416 Y0.7495  
G01 X-0.9367 Y0.7475  
G01 X-0.9316 Y0.7465  
G01 X-0.7757 Y0.7465  
G01 X-0.7665 Y0.7377  
G01 X-0.7665 Y0.1235  
G01 X-0.8525 Y0.1235  
G01 X-0.8548 Y0.1280  
G01 X-0.8601 Y0.1352  
G01 X-0.8663 Y0.1415  
G01 X-0.8735 Y0.1467  
G01 X-0.8815 Y0.1508  
G01 X-0.8899 Y0.1535  
G01 X-0.8987 Y0.1549  
G01 X-1.0076 Y0.1549  
G01 X-1.0164 Y0.1535  
G01 X-1.0248 Y0.1508  
G01 X-1.0328 Y0.1467  
G01 X-1.0400 Y0.1415  
G01 X-1.0462 Y0.1352  
G01 X-1.0515 Y0.1280  
G01 X-1.0531 Y0.1249  
G01 X-1.5532 Y0.1249  
G01 X-1.5548 Y0.1280  
G01 X-1.5601 Y0.1352  
G01 X-1.5663 Y0.1415  
G01 X-1.5735 Y0.1467  
G01 X-1.5815 Y0.1508  
G01 X-1.5899 Y0.1535  
G01 X-1.5987 Y0.1549  
G01 X-1.7076 Y0.1549  
G01 X-1.7164 Y0.1535  
G01 X-1.7248 Y0.1508  
G01 X-1.7328 Y0.1467  
G01 X-1.7400 Y0.1415  
G01 X-1.7462 Y0.1352  
G01 X-1.7515 Y0.1280  
G01 X-1.7531 Y0.1249  
G01 X-1.9702 Y0.1249  
G01 X-1.9702 Y0.1251  
G01 X-1.9742 Y0.1311  
G01 X-1.9792 Y0.1361  
G01 X-1.9852 Y0.1401  
G01 X-1.9918 Y0.1428  
G01 X-1.9988 Y0.1442  
G01 X-2.0652 Y0.1442  
G01 X-2.0722 Y0.1428  
G01 X-2.0788 Y0.1401  
G01 X-2.0848 Y0.1361  
G01 X-2.0898 Y0.1311  
G01 X-2.0938 Y0.1251  
G01 X-2.0965 Y0.1186  
G01 X-2.0979 Y0.1116  
G01 X-2.0979 Y0.1044  
G01 X-2.0965 Y0.0974  
G01 X-2.0938 Y0.0909  
G01 X-2.0898 Y0.0849  
G01 X-2.0848 Y0.0799  
G01 X-2.0788 Y0.0759  
G01 X-2.0722 Y0.0732  
G01 X-2.0652 Y0.0718  
G01 X-1.9988 Y0.0718  
G01 X-1.9982 Y0.0719  
G01 X-1.7531 Y0.0719  
G01 X-1.7515 Y0.0688  
G01 X-1.7462 Y0.0616  
G01 X-1.7400 Y0.0553  
G01 X-1.7328 Y0.0501  
G01 X-1.7248 Y0.0461  
G01 X-1.7164 Y0.0433  
G01 X-1.7076 Y0.0419  
G01 X-1.5987 Y0.0419  
G01 X-1.5899 Y0.0433  
G01 X-1.5815 Y0.0461  
G01 X-1.5735 Y0.0501  
G01 X-1.5663 Y0.0553  
G01 X-1.5601 Y0.0616  
G01 X-1.5548 Y0.0688  
G01 X-1.5532 Y0.0719  
G01 X-1.0531 Y0.0719  
G01 X-1.0515 Y0.0688  
G01 X-1.0462 Y0.0616  
G01 X-1.0400 Y0.0553  
G01 X-1.0328 Y0.0501  
G01 X-1.0248 Y0.0461  
G01 X-1.0164 Y0.0433  
G01 X-1.0076 Y0.0419  
G01 X-0.8987 Y0.0419  
G01 X-0.8899 Y0.0433  
G01 X-0.8815 Y0.0461  
G01 X-0.8735 Y0.0501  
G01 X-0.8663 Y0.0553  
G01 X-0.8601 Y0.0616  
G01 X-0.8548 Y0.0688  
G01 X-0.8540 Y0.0705  
G01 X-0.7314 Y0.0705  
G01 X-0.7263 Y0.0715  
G01 X-0.7253 Y0.0719  
G01 X-0.3531 Y0.0719  
G01 X-0.3515 Y0.0688  
G01 X-0.3462 Y0.0616  
G01 X-0.3400 Y0.0553  
G01 X-0.3328 Y0.0501  
G01 X-0.3248 Y0.0461  
G01 X-0.3164 Y0.0433  
G01 X-0.3076 Y0.0419  
G01 X-0.1987 Y0.0419  
G01 X-0.1899 Y0.0433  
G01 X-0.1815 Y0.0461  
G01 X-0.1735 Y0.0501  
G01 X-0.1663 Y0.0553  
G01 X-0.1601 Y0.0616  
G00 Z0.0500  
G00 X-0.1505 Y0.3525  
G01 Z-0.0035 F10    
G01 X-0.1480 Y0.3524  F20    
G01 X-0.1475 Y0.3525  
G01 X-0.1470 Y0.3525  
G01 X-0.1446 Y0.3531  
G01 X-0.1422 Y0.3537  
G01 X-0.1418 Y0.3539  
G01 X-0.1413 Y0.3540  
G01 X-0.1391 Y0.3553  
G01 X-0.1369 Y0.3564  
G01 X-0.1366 Y0.3568  
G01 X-0.1362 Y0.3570  
G01 X-0.1344 Y0.3588  
G01 X-0.1326 Y0.3605  
G01 X-0.1323 Y0.3609  
G01 X-0.1320 Y0.3612  
G01 X-0.1307 Y0.3633  
G01 X-0.1294 Y0.3655  
G01 X-0.1293 Y0.3659  
G01 X-0.1290 Y0.3663  
G01 X-0.1284 Y0.3687  
G01 X-0.0043 Y0.7659  
G01 X-0.0040 Y0.7663  
G01 X-0.0034 Y0.7687  
G01 X-0.0026 Y0.7711  
G01 X-0.0026 Y0.7716  
G01 X-0.0025 Y0.7720  
G01 X-0.0025 Y0.7745  
G01 X-0.0024 Y0.7770  
G01 X-0.0025 Y0.7775  
G01 X-0.0025 Y1.5030  
G01 X-0.0040 Y1.5087  
G01 X-0.0070 Y1.5138  
G01 X-0.0112 Y1.5180  
G01 X-0.0612 Y1.5680  
G01 X-0.0663 Y1.5710  
G01 X-0.0720 Y1.5725  
G01 X-0.1280 Y1.5725  
G01 X-0.1337 Y1.5710  
G01 X-0.1388 Y1.5680  
G01 X-0.1430 Y1.5638  
G01 X-0.1930 Y1.5138  
G01 X-0.1960 Y1.5087  
G01 X-0.1975 Y1.5030  
G01 X-0.1975 Y1.4278  
G01 X-0.1975 Y1.4276  
G01 X-0.1975 Y1.4248  
G01 X-0.1975 Y1.4220  
G01 X-0.1975 Y1.4219  
G01 X-0.1965 Y1.3648  
G01 X-0.1965 Y1.3156  
G01 X-0.2202 Y1.2601  
G01 X-0.2210 Y1.2587  
G01 X-0.2213 Y1.2574  
G01 X-0.2219 Y1.2561  
G01 X-0.2221 Y1.2545  
G01 X-0.2225 Y1.2530  
G01 X-0.2225 Y1.2516  
G01 X-0.2227 Y1.2502  
G01 X-0.2225 Y1.2486  
G01 X-0.2225 Y1.2235  
G01 X-0.2252 Y1.2207  
G01 X-0.2288 Y1.2154  
G01 X-0.2313 Y1.2095  
G01 X-0.2325 Y1.2032  
G01 X-0.2325 Y1.1968  
G01 X-0.2313 Y1.1905  
G01 X-0.2288 Y1.1846  
G01 X-0.2252 Y1.1793  
G01 X-0.2207 Y1.1748  
G01 X-0.2154 Y1.1712  
G01 X-0.2095 Y1.1687  
G01 X-0.2032 Y1.1675  
G01 X-0.1968 Y1.1675  
G01 X-0.1905 Y1.1687  
G01 X-0.1846 Y1.1712  
G01 X-0.1793 Y1.1748  
G01 X-0.1748 Y1.1793  
G01 X-0.1712 Y1.1846  
G01 X-0.1687 Y1.1905  
G01 X-0.1675 Y1.1968  
G01 X-0.1675 Y1.2032  
G01 X-0.1687 Y1.2095  
G01 X-0.1712 Y1.2154  
G01 X-0.1748 Y1.2207  
G01 X-0.1775 Y1.2235  
G01 X-0.1775 Y1.2454  
G01 X-0.1538 Y1.3009  
G01 X-0.1530 Y1.3023  
G01 X-0.1527 Y1.3036  
G01 X-0.1521 Y1.3049  
G01 X-0.1519 Y1.3065  
G01 X-0.1515 Y1.3080  
G01 X-0.1515 Y1.3094  
G01 X-0.1513 Y1.3108  
G01 X-0.1515 Y1.3124  
G01 X-0.1515 Y1.3622  
G01 X-0.1515 Y1.3624  
G01 X-0.1515 Y1.3652  
G01 X-0.1515 Y1.3680  
G01 X-0.1515 Y1.3681  
G01 X-0.1525 Y1.4252  
G01 X-0.1525 Y1.4907  
G01 X-0.1157 Y1.5275  
G01 X-0.0843 Y1.5275  
G01 X-0.0475 Y1.4907  
G01 X-0.0475 Y0.7784  
G01 X-0.1665 Y0.3975  
G01 X-0.5907 Y0.3975  
G01 X-0.6295 Y0.4363  
G01 X-0.6295 Y1.0382  
G01 X-0.6293 Y1.0394  
G01 X-0.6295 Y1.0412  
G01 X-0.6295 Y1.0430  
G01 X-0.6298 Y1.0441  
G01 X-0.6299 Y1.0453  
G01 X-0.6306 Y1.0470  
G01 X-0.6310 Y1.0487  
G01 X-0.6316 Y1.0497  
G01 X-0.6321 Y1.0509  
G01 X-0.6331 Y1.0523  
G01 X-0.6340 Y1.0538  
G01 X-0.6348 Y1.0547  
G01 X-0.6356 Y1.0556  
G01 X-0.6369 Y1.0568  
G01 X-0.6382 Y1.0580  
G01 X-0.6392 Y1.0586  
G01 X-0.6402 Y1.0594  
G01 X-0.6418 Y1.0601  
G01 X-0.6433 Y1.0610  
G01 X-0.6445 Y1.0613  
G01 X-0.6456 Y1.0618  
G01 X-0.6473 Y1.0620  
G01 X-0.6490 Y1.0625  
G01 X-0.6502 Y1.0625  
G01 X-0.8436 Y1.0929  
G01 X-0.8470 Y1.0979  
G01 X-0.8521 Y1.1030  
G01 X-0.8579 Y1.1069  
G01 X-0.8645 Y1.1096  
G01 X-0.8715 Y1.1110  
G01 X-0.8785 Y1.1110  
G01 X-0.8855 Y1.1096  
G01 X-0.8921 Y1.1069  
G01 X-0.8979 Y1.1030  
G01 X-0.9030 Y1.0979  
G01 X-0.9069 Y1.0921  
G01 X-0.9096 Y1.0855  
G01 X-0.9110 Y1.0785  
G01 X-0.9110 Y1.0715  
G01 X-0.9096 Y1.0645  
G01 X-0.9069 Y1.0579  
G01 X-0.9030 Y1.0521  
G01 X-0.8979 Y1.0470  
G01 X-0.8921 Y1.0431  
G01 X-0.8855 Y1.0404  
G01 X-0.8785 Y1.0390  
G01 X-0.8715 Y1.0390  
G01 X-0.8645 Y1.0404  
G01 X-0.8579 Y1.0431  
G01 X-0.8521 Y1.0470  
G01 X-0.8507 Y1.0484  
G01 X-0.6745 Y1.0208  
G01 X-0.6745 Y0.4240  
G01 X-0.6730 Y0.4183  
G01 X-0.6700 Y0.4132  
G01 X-0.6658 Y0.4090  
G01 X-0.6138 Y0.3570  
G01 X-0.6087 Y0.3540  
G01 X-0.6030 Y0.3525  
G01 X-0.1505 Y0.3525  
G00 Z0.0500  
G00 X-0.1601 Y0.5813  
G01 Z-0.0035 F10    
G01 X-0.1548 Y0.5885  F20    
G01 X-0.1508 Y0.5964  
G01 X-0.1480 Y0.6049  
G01 X-0.1466 Y0.6137  
G01 X-0.1466 Y0.6226  
G01 X-0.1480 Y0.6313  
G01 X-0.1508 Y0.6398  
G01 X-0.1548 Y0.6477  
G01 X-0.1601 Y0.6549  
G01 X-0.1663 Y0.6612  
G01 X-0.1735 Y0.6664  
G01 X-0.1815 Y0.6705  
G01 X-0.1859 Y0.6719  
G01 X-0.0779 Y0.8353  
G01 X-0.0765 Y0.8374  
G01 X-0.0764 Y0.8376  
G01 X-0.0755 Y0.8399  
G01 X-0.0745 Y0.8423  
G01 X-0.0745 Y0.8424  
G01 X-0.0740 Y0.8449  
G01 X-0.0735 Y0.8474  
G01 X-0.0735 Y0.8475  
G01 X-0.0735 Y0.8501  
G01 X-0.0735 Y0.9305  
G01 X-0.0675 Y0.9365  
G01 X-0.0675 Y0.9635  
G01 X-0.0865 Y0.9825  
G01 X-0.0977 Y0.9825  
G01 X-0.1180 Y0.9993  
G01 X-0.1198 Y1.0009  
G01 X-0.1200 Y1.0010  
G01 X-0.1201 Y1.0011  
G01 X-0.1222 Y1.0022  
G01 X-0.1244 Y1.0034  
G01 X-0.1245 Y1.0035  
G01 X-0.1247 Y1.0036  
G01 X-0.1270 Y1.0043  
G01 X-0.1739 Y1.0194  
G01 X-0.1748 Y1.0207  
G01 X-0.1793 Y1.0252  
G01 X-0.1846 Y1.0288  
G01 X-0.1905 Y1.0313  
G01 X-0.1968 Y1.0325  
G01 X-0.2032 Y1.0325  
G01 X-0.2095 Y1.0313  
G01 X-0.2154 Y1.0288  
G01 X-0.2207 Y1.0252  
G01 X-0.2252 Y1.0207  
G01 X-0.2288 Y1.0154  
G01 X-0.2313 Y1.0095  
G01 X-0.2325 Y1.0032  
G01 X-0.2325 Y0.9968  
G01 X-0.2313 Y0.9905  
G01 X-0.2288 Y0.9846  
G01 X-0.2252 Y0.9793  
G01 X-0.2207 Y0.9748  
G01 X-0.2154 Y0.9712  
G01 X-0.2095 Y0.9687  
G01 X-0.2032 Y0.9675  
G01 X-0.1968 Y0.9675  
G01 X-0.1905 Y0.9687  
G01 X-0.1901 Y0.9689  
G01 X-0.1480 Y0.9553  
G01 X-0.1325 Y0.9425  
G01 X-0.1325 Y0.9365  
G01 X-0.1265 Y0.9305  
G01 X-0.1265 Y0.8580  
G01 X-0.2476 Y0.6746  
G01 X-0.3076 Y0.6746  
G01 X-0.3164 Y0.6732  
G01 X-0.3248 Y0.6705  
G01 X-0.3328 Y0.6664  
G01 X-0.3400 Y0.6612  
G01 X-0.3462 Y0.6549  
G01 X-0.3515 Y0.6477  
G01 X-0.3555 Y0.6398  
G01 X-0.3583 Y0.6313  
G01 X-0.3596 Y0.6226  
G01 X-0.3596 Y0.6137  
G01 X-0.3583 Y0.6049  
G01 X-0.3555 Y0.5964  
G01 X-0.3515 Y0.5885  
G01 X-0.3462 Y0.5813  
G01 X-0.3400 Y0.5750  
G01 X-0.3328 Y0.5698  
G01 X-0.3248 Y0.5657  
G01 X-0.3164 Y0.5630  
G01 X-0.3076 Y0.5616  
G01 X-0.1987 Y0.5616  
G01 X-0.1899 Y0.5630  
G01 X-0.1815 Y0.5657  
G01 X-0.1735 Y0.5698  
G01 X-0.1663 Y0.5750  
G01 X-0.1601 Y0.5813  
G00 Z0.0500  
G00 X-0.4014 Y0.5859  
G01 Z-0.0035 F10    
G01 X-0.4028 Y0.5947  F20    
G01 X-0.4055 Y0.6032  
G01 X-0.4096 Y0.6111  
G01 X-0.4148 Y0.6183  
G01 X-0.4211 Y0.6246  
G01 X-0.4283 Y0.6298  
G01 X-0.4362 Y0.6339  
G01 X-0.4446 Y0.6366  
G01 X-0.4534 Y0.6380  
G01 X-0.4623 Y0.6380  
G01 X-0.4711 Y0.6366  
G01 X-0.4796 Y0.6339  
G01 X-0.4875 Y0.6298  
G01 X-0.4947 Y0.6246  
G01 X-0.5010 Y0.6183  
G01 X-0.5062 Y0.6111  
G01 X-0.5102 Y0.6032  
G01 X-0.5130 Y0.5947  
G01 X-0.5144 Y0.5859  
G01 X-0.5144 Y0.4770  
G01 X-0.5130 Y0.4683  
G01 X-0.5102 Y0.4598  
G01 X-0.5062 Y0.4519  
G01 X-0.5010 Y0.4447  
G01 X-0.4947 Y0.4384  
G01 X-0.4875 Y0.4332  
G01 X-0.4796 Y0.4291  
G01 X-0.4711 Y0.4264  
G01 X-0.4623 Y0.4250  
G01 X-0.4534 Y0.4250  
G01 X-0.4446 Y0.4264  
G01 X-0.4362 Y0.4291  
G01 X-0.4283 Y0.4332  
G01 X-0.4211 Y0.4384  
G01 X-0.4148 Y0.4447  
G01 X-0.4096 Y0.4519  
G01 X-0.4055 Y0.4598  
G01 X-0.4028 Y0.4683  
G01 X-0.4014 Y0.4770  
G01 X-0.4014 Y0.5859  
G00 Z0.0500  
G00 X-0.4975 Y0.6705  
G01 Z-0.0035 F10    
G01 X-0.4975 Y0.6975  F20    
G01 X-0.5165 Y0.7165  
G01 X-0.5183 Y0.7165  
G01 X-0.5452 Y0.7624  
G01 X-0.4809 Y0.8316  
G01 X-0.4794 Y0.8331  
G01 X-0.4791 Y0.8335  
G01 X-0.4788 Y0.8339  
G01 X-0.4777 Y0.8357  
G01 X-0.4765 Y0.8374  
G01 X-0.4763 Y0.8379  
G01 X-0.4761 Y0.8383  
G01 X-0.4753 Y0.8403  
G01 X-0.4745 Y0.8423  
G01 X-0.4744 Y0.8428  
G01 X-0.4742 Y0.8432  
G01 X-0.4739 Y0.8453  
G01 X-0.4735 Y0.8474  
G01 X-0.4735 Y0.8479  
G01 X-0.4734 Y0.8484  
G01 X-0.4735 Y0.8505  
G01 X-0.4735 Y0.8812  
G01 X-0.4712 Y0.8846  
G01 X-0.4687 Y0.8905  
G01 X-0.4675 Y0.8968  
G01 X-0.4675 Y0.9032  
G01 X-0.4687 Y0.9095  
G01 X-0.4712 Y0.9154  
G01 X-0.4748 Y0.9207  
G01 X-0.4793 Y0.9252  
G01 X-0.4846 Y0.9288  
G01 X-0.4905 Y0.9313  
G01 X-0.4968 Y0.9325  
G01 X-0.5032 Y0.9325  
G01 X-0.5095 Y0.9313  
G01 X-0.5154 Y0.9288  
G01 X-0.5207 Y0.9252  
G01 X-0.5252 Y0.9207  
G01 X-0.5288 Y0.9154  
G01 X-0.5313 Y0.9095  
G01 X-0.5325 Y0.9032  
G01 X-0.5325 Y0.8968  
G01 X-0.5313 Y0.8905  
G01 X-0.5288 Y0.8846  
G01 X-0.5265 Y0.8812  
G01 X-0.5265 Y0.8604  
G01 X-0.5840 Y0.7985  
G01 X-0.5915 Y0.7985  
G01 X-0.6105 Y0.7795  
G01 X-0.6105 Y0.7525  
G01 X-0.5915 Y0.7335  
G01 X-0.5897 Y0.7335  
G01 X-0.5625 Y0.6871  
G01 X-0.5625 Y0.6705  
G01 X-0.5435 Y0.6515  
G01 X-0.5165 Y0.6515  
G01 X-0.4975 Y0.6705  
G00 Z0.0500  
G00 X-0.4968 Y0.9675  
G01 Z-0.0035 F10    
G01 X-0.4905 Y0.9687  F20    
G01 X-0.4846 Y0.9712  
G01 X-0.4793 Y0.9748  
G01 X-0.4748 Y0.9793  
G01 X-0.4723 Y0.9830  
G01 X-0.3293 Y1.0436  
G01 X-0.3249 Y1.0466  
G01 X-0.3213 Y1.0503  
G01 X-0.3184 Y1.0546  
G01 X-0.3165 Y1.0595  
G01 X-0.3155 Y1.0646  
G01 X-0.3155 Y1.0698  
G01 X-0.3166 Y1.0749  
G01 X-0.3186 Y1.0797  
G01 X-0.3190 Y1.0802  
G01 X-0.3026 Y1.4980  
G01 X-0.3023 Y1.4998  
G01 X-0.3024 Y1.5009  
G01 X-0.3024 Y1.5021  
G01 X-0.3028 Y1.5038  
G01 X-0.3030 Y1.5056  
G01 X-0.3035 Y1.5067  
G01 X-0.3037 Y1.5079  
G01 X-0.3045 Y1.5095  
G01 X-0.3052 Y1.5111  
G01 X-0.3059 Y1.5121  
G01 X-0.3065 Y1.5131  
G01 X-0.3077 Y1.5144  
G01 X-0.3392 Y1.5564  
G01 X-0.3400 Y1.5578  
G01 X-0.3410 Y1.5588  
G01 X-0.3418 Y1.5599  
G01 X-0.3430 Y1.5609  
G01 X-0.3442 Y1.5620  
G01 X-0.3454 Y1.5627  
G01 X-0.3464 Y1.5635  
G01 X-0.3479 Y1.5642  
G01 X-0.3493 Y1.5650  
G01 X-0.3506 Y1.5653  
G01 X-0.3519 Y1.5659  
G01 X-0.3535 Y1.5661  
G01 X-0.3550 Y1.5665  
G01 X-0.3564 Y1.5665  
G01 X-0.3578 Y1.5667  
G01 X-0.3594 Y1.5665  
G01 X-0.5533 Y1.5665  
G01 X-0.5556 Y1.5666  
G01 X-0.5563 Y1.5665  
G01 X-0.5570 Y1.5665  
G01 X-0.5591 Y1.5659  
G01 X-0.5614 Y1.5655  
G01 X-0.5620 Y1.5652  
G01 X-0.5627 Y1.5650  
G01 X-0.5646 Y1.5638  
G01 X-0.5667 Y1.5628  
G01 X-0.5672 Y1.5624  
G01 X-0.5678 Y1.5620  
G01 X-0.5694 Y1.5604  
G01 X-0.5796 Y1.5514  
G01 X-0.5846 Y1.5548  
G01 X-0.5905 Y1.5573  
G01 X-0.5968 Y1.5585  
G01 X-0.6032 Y1.5585  
G01 X-0.6095 Y1.5573  
G01 X-0.6154 Y1.5548  
G01 X-0.6207 Y1.5512  
G01 X-0.6252 Y1.5467  
G01 X-0.6288 Y1.5414  
G01 X-0.6313 Y1.5355  
G01 X-0.6325 Y1.5292  
G01 X-0.6325 Y1.5050  
G01 X-0.6834 Y1.4540  
G01 X-0.6846 Y1.4548  
G01 X-0.6905 Y1.4573  
G01 X-0.6968 Y1.4585  
G01 X-0.7032 Y1.4585  
G01 X-0.7095 Y1.4573  
G01 X-0.7154 Y1.4548  
G01 X-0.7207 Y1.4512  
G01 X-0.7252 Y1.4467  
G01 X-0.7288 Y1.4414  
G01 X-0.7313 Y1.4355  
G01 X-0.7325 Y1.4292  
G01 X-0.7325 Y1.3708  
G01 X-0.7313 Y1.3645  
G01 X-0.7288 Y1.3586  
G01 X-0.7252 Y1.3533  
G01 X-0.7207 Y1.3488  
G01 X-0.7154 Y1.3452  
G01 X-0.7095 Y1.3427  
G01 X-0.7032 Y1.3415  
G01 X-0.6968 Y1.3415  
G01 X-0.6905 Y1.3427  
G01 X-0.6846 Y1.3452  
G01 X-0.6793 Y1.3488  
G01 X-0.6748 Y1.3533  
G01 X-0.6712 Y1.3586  
G01 X-0.6687 Y1.3645  
G01 X-0.6675 Y1.3708  
G01 X-0.6675 Y1.3950  
G01 X-0.6166 Y1.4460  
G01 X-0.6154 Y1.4452  
G01 X-0.6095 Y1.4427  
G01 X-0.6032 Y1.4415  
G01 X-0.5968 Y1.4415  
G01 X-0.5905 Y1.4427  
G01 X-0.5846 Y1.4452  
G01 X-0.5793 Y1.4488  
G01 X-0.5748 Y1.4533  
G01 X-0.5712 Y1.4586  
G01 X-0.5687 Y1.4645  
G01 X-0.5675 Y1.4708  
G01 X-0.5675 Y1.5007  
G01 X-0.5556 Y1.5126  
G01 X-0.5455 Y1.5215  
G01 X-0.3692 Y1.5215  
G01 X-0.3478 Y1.4929  
G01 X-0.3637 Y1.0866  
G01 X-0.4930 Y1.0317  
G01 X-0.4968 Y1.0325  
G01 X-0.4974 Y1.0325  
G01 X-0.5455 Y1.0732  
G01 X-0.5455 Y1.0795  
G01 X-0.5645 Y1.0985  
G01 X-0.5915 Y1.0985  
G01 X-0.6105 Y1.0795  
G01 X-0.6105 Y1.0525  
G01 X-0.5915 Y1.0335  
G01 X-0.5806 Y1.0335  
G01 X-0.5315 Y0.9920  
G01 X-0.5313 Y0.9905  
G01 X-0.5288 Y0.9846  
G01 X-0.5252 Y0.9793  
G01 X-0.5207 Y0.9748  
G01 X-0.5154 Y0.9712  
G01 X-0.5095 Y0.9687  
G01 X-0.5032 Y0.9675  
G01 X-0.4968 Y0.9675  
G00 Z0.0500  
G00 X-0.4968 Y1.0675  
G01 Z-0.0035 F10    
G01 X-0.4905 Y1.0687  F20    
G01 X-0.4846 Y1.0712  
G01 X-0.4793 Y1.0748  
G01 X-0.4748 Y1.0793  
G01 X-0.4712 Y1.0846  
G01 X-0.4687 Y1.0905  
G01 X-0.4675 Y1.0968  
G01 X-0.4675 Y1.1032  
G01 X-0.4687 Y1.1095  
G01 X-0.4712 Y1.1154  
G01 X-0.4748 Y1.1207  
G01 X-0.4793 Y1.1252  
G01 X-0.4846 Y1.1288  
G01 X-0.4905 Y1.1313  
G01 X-0.4968 Y1.1325  
G01 X-0.5032 Y1.1325  
G01 X-0.5038 Y1.1324  
G01 X-0.5727 Y1.1895  
G01 X-0.5739 Y1.1908  
G01 X-0.5750 Y1.1914  
G01 X-0.5759 Y1.1922  
G01 X-0.5775 Y1.1929  
G01 X-0.5790 Y1.1938  
G01 X-0.5802 Y1.1942  
G01 X-0.5813 Y1.1947  
G01 X-0.5830 Y1.1950  
G01 X-0.5847 Y1.1955  
G01 X-0.5859 Y1.1955  
G01 X-0.5871 Y1.1957  
G01 X-0.5889 Y1.1955  
G01 X-0.6576 Y1.1965  
G01 X-0.7260 Y1.1980  
G01 X-0.7365 Y1.2085  
G01 X-0.7635 Y1.2085  
G01 X-0.7825 Y1.1895  
G01 X-0.7825 Y1.1625  
G01 X-0.7635 Y1.1435  
G01 X-0.7365 Y1.1435  
G01 X-0.7270 Y1.1530  
G01 X-0.6614 Y1.1516  
G01 X-0.6584 Y1.1515  
G01 X-0.6555 Y1.1514  
G01 X-0.5963 Y1.1506  
G01 X-0.5325 Y1.0977  
G01 X-0.5325 Y1.0968  
G01 X-0.5313 Y1.0905  
G01 X-0.5288 Y1.0846  
G01 X-0.5252 Y1.0793  
G01 X-0.5207 Y1.0748  
G01 X-0.5154 Y1.0712  
G01 X-0.5095 Y1.0687  
G01 X-0.5032 Y1.0675  
G01 X-0.4968 Y1.0675  
G00 Z0.0500  
G00 X-0.2207 Y1.0748  
G01 Z-0.0035 F10    
G01 X-0.2154 Y1.0712  F20    
G01 X-0.2095 Y1.0687  
G01 X-0.2032 Y1.0675  
G01 X-0.1968 Y1.0675  
G01 X-0.1905 Y1.0687  
G01 X-0.1846 Y1.0712  
G01 X-0.1793 Y1.0748  
G01 X-0.1748 Y1.0793  
G01 X-0.1742 Y1.0801  
G01 X-0.1142 Y1.0984  
G01 X-0.1125 Y1.0988  
G01 X-0.1117 Y1.0991  
G01 X-0.1108 Y1.0994  
G01 X-0.1093 Y1.1002  
G01 X-0.1077 Y1.1009  
G01 X-0.1070 Y1.1014  
G01 X-0.1062 Y1.1019  
G01 X-0.1049 Y1.1030  
G01 X-0.1035 Y1.1040  
G01 X-0.1029 Y1.1046  
G01 X-0.1022 Y1.1052  
G01 X-0.1011 Y1.1065  
G01 X-0.0999 Y1.1078  
G01 X-0.0994 Y1.1085  
G01 X-0.0989 Y1.1092  
G01 X-0.0980 Y1.1107  
G01 X-0.0971 Y1.1122  
G01 X-0.0968 Y1.1130  
G01 X-0.0964 Y1.1138  
G01 X-0.0959 Y1.1155  
G01 X-0.0953 Y1.1171  
G01 X-0.0951 Y1.1180  
G01 X-0.0949 Y1.1188  
G01 X-0.0947 Y1.1205  
G01 X-0.0770 Y1.2271  
G01 X-0.0675 Y1.2365  
G01 X-0.0675 Y1.2635  
G01 X-0.0803 Y1.2762  
G01 X-0.0805 Y1.2782  
G01 X-0.0805 Y1.4485  
G01 X-0.0675 Y1.4615  
G01 X-0.0675 Y1.4885  
G01 X-0.0865 Y1.5075  
G01 X-0.1135 Y1.5075  
G01 X-0.1325 Y1.4885  
G01 X-0.1325 Y1.4615  
G01 X-0.1255 Y1.4545  
G01 X-0.1255 Y1.4535  
G01 X-0.1257 Y1.4520  
G01 X-0.1255 Y1.4505  
G01 X-0.1255 Y1.2787  
G01 X-0.1257 Y1.2775  
G01 X-0.1255 Y1.2758  
G01 X-0.1255 Y1.2740  
G01 X-0.1252 Y1.2728  
G01 X-0.1250 Y1.2710  
G01 X-0.1325 Y1.2635  
G01 X-0.1325 Y1.2365  
G01 X-0.1296 Y1.2336  
G01 X-0.1444 Y1.1446  
G01 X-0.1896 Y1.1309  
G01 X-0.1905 Y1.1313  
G01 X-0.1968 Y1.1325  
G01 X-0.2032 Y1.1325  
G01 X-0.2095 Y1.1313  
G01 X-0.2154 Y1.1288  
G01 X-0.2207 Y1.1252  
G01 X-0.2252 Y1.1207  
G01 X-0.2288 Y1.1154  
G01 X-0.2313 Y1.1095  
G01 X-0.2325 Y1.1032  
G01 X-0.2325 Y1.0968  
G01 X-0.2313 Y1.0905  
G01 X-0.2288 Y1.0846  
G01 X-0.2252 Y1.0793  
G01 X-0.2207 Y1.0748  
G00 Z0.0500  
G00 X-0.2525 Y0.9673  
G01 Z-0.0035 F10    
G01 X-0.2525 Y1.2716  F20    
G01 X-0.2432 Y1.3015  
G01 X-0.2335 Y1.3015  
G01 X-0.2145 Y1.3205  
G01 X-0.2145 Y1.3475  
G01 X-0.2285 Y1.3615  
G01 X-0.2285 Y1.5241  
G01 X-0.2285 Y1.5271  
G01 X-0.2285 Y1.5300  
G01 X-0.2285 Y1.5301  
G01 X-0.2293 Y1.5329  
G01 X-0.2300 Y1.5357  
G01 X-0.2301 Y1.5358  
G01 X-0.2315 Y1.5383  
G01 X-0.2330 Y1.5408  
G01 X-0.2331 Y1.5409  
G01 X-0.2351 Y1.5430  
G01 X-0.2372 Y1.5450  
G01 X-0.2992 Y1.6062  
G01 X-0.2995 Y1.6077  
G01 X-0.3015 Y1.6126  
G01 X-0.3044 Y1.6169  
G01 X-0.3081 Y1.6206  
G01 X-0.3124 Y1.6235  
G01 X-0.3173 Y1.6255  
G01 X-0.3224 Y1.6265  
G01 X-0.8231 Y1.6265  
G01 X-0.8238 Y1.6266  
G01 X-0.8257 Y1.6265  
G01 X-2.3270 Y1.6285  
G01 X-2.3287 Y1.6286  
G01 X-2.3296 Y1.6285  
G01 X-2.3306 Y1.6285  
G01 X-2.3322 Y1.6282  
G01 X-2.3339 Y1.6280  
G01 X-2.3348 Y1.6277  
G01 X-2.3357 Y1.6275  
G01 X-2.3373 Y1.6268  
G01 X-2.3389 Y1.6263  
G01 X-2.3397 Y1.6259  
G01 X-2.3405 Y1.6255  
G01 X-2.3419 Y1.6246  
G01 X-2.3434 Y1.6237  
G01 X-2.3441 Y1.6231  
G01 X-2.3449 Y1.6226  
G01 X-2.3461 Y1.6214  
G01 X-2.3473 Y1.6203  
G01 X-2.3479 Y1.6196  
G01 X-2.3486 Y1.6189  
G01 X-2.3495 Y1.6175  
G01 X-2.3505 Y1.6162  
G01 X-2.3509 Y1.6154  
G01 X-2.3515 Y1.6146  
G01 X-2.3521 Y1.6130  
G01 X-2.3823 Y1.5527  
G01 X-2.3915 Y1.5620  
G01 X-2.3959 Y1.5649  
G01 X-2.4007 Y1.5669  
G01 X-2.4058 Y1.5679  
G01 X-2.4822 Y1.5679  
G01 X-2.4841 Y1.5704  
G01 X-2.4890 Y1.5754  
G01 X-2.4947 Y1.5795  
G01 X-2.5009 Y1.5827  
G01 X-2.5076 Y1.5848  
G01 X-2.5145 Y1.5859  
G01 X-2.5215 Y1.5859  
G01 X-2.5284 Y1.5848  
G01 X-2.5351 Y1.5827  
G01 X-2.5413 Y1.5795  
G01 X-2.5470 Y1.5754  
G01 X-2.5519 Y1.5704  
G01 X-2.5561 Y1.5647  
G01 X-2.5592 Y1.5585  
G01 X-2.5614 Y1.5518  
G01 X-2.5625 Y1.5449  
G01 X-2.5625 Y1.5379  
G01 X-2.5614 Y1.5310  
G01 X-2.5592 Y1.5243  
G01 X-2.5561 Y1.5181  
G01 X-2.5519 Y1.5124  
G01 X-2.5470 Y1.5075  
G01 X-2.5413 Y1.5034  
G01 X-2.5351 Y1.5002  
G01 X-2.5284 Y1.4980  
G01 X-2.5215 Y1.4969  
G01 X-2.5145 Y1.4969  
G01 X-2.5076 Y1.4980  
G01 X-2.5009 Y1.5002  
G01 X-2.4947 Y1.5034  
G01 X-2.4890 Y1.5075  
G01 X-2.4841 Y1.5124  
G01 X-2.4822 Y1.5149  
G01 X-2.4194 Y1.5149  
G01 X-2.4130 Y1.5085  
G01 X-2.4130 Y1.5043  
G01 X-2.4115 Y1.4969  
G01 X-2.4088 Y1.4903  
G01 X-2.4470 Y1.3750  
G01 X-2.4605 Y1.3615  
G01 X-2.4605 Y1.3345  
G01 X-2.4415 Y1.3155  
G01 X-2.4145 Y1.3155  
G01 X-2.3955 Y1.3345  
G01 X-2.3955 Y1.3615  
G01 X-2.3584 Y1.4737  
G01 X-2.3570 Y1.4743  
G01 X-2.3508 Y1.4785  
G01 X-2.3455 Y1.4838  
G01 X-2.3413 Y1.4900  
G01 X-2.3385 Y1.4969  
G01 X-2.3370 Y1.5043  
G01 X-2.3370 Y1.5117  
G01 X-2.3385 Y1.5191  
G01 X-2.3391 Y1.5206  
G01 X-2.3116 Y1.5755  
G01 X-0.8501 Y1.5735  
G01 X-0.8485 Y1.5434  
G01 X-0.8535 Y1.5385  
G01 X-0.8535 Y1.5115  
G01 X-0.8345 Y1.4925  
G01 X-0.8075 Y1.4925  
G01 X-0.7885 Y1.5115  
G01 X-0.7885 Y1.5385  
G01 X-0.7956 Y1.5455  
G01 X-0.7970 Y1.5735  
G01 X-0.3302 Y1.5735  
G01 X-0.2735 Y1.5176  
G01 X-0.2735 Y1.3554  
G01 X-0.2744 Y1.3526  
G01 X-0.2795 Y1.3475  
G01 X-0.2795 Y1.3362  
G01 X-0.2957 Y1.2841  
G01 X-0.2960 Y1.2837  
G01 X-0.2966 Y1.2813  
G01 X-0.2974 Y1.2789  
G01 X-0.2974 Y1.2784  
G01 X-0.2975 Y1.2780  
G01 X-0.2975 Y1.2755  
G01 X-0.2976 Y1.2729  
G01 X-0.2975 Y1.2725  
G01 X-0.2975 Y0.9573  
G01 X-0.2977 Y0.9557  
G01 X-0.2975 Y0.9544  
G01 X-0.2975 Y0.9530  
G01 X-0.2971 Y0.9515  
G01 X-0.2968 Y0.9498  
G01 X-0.2963 Y0.9486  
G01 X-0.2960 Y0.9473  
G01 X-0.2951 Y0.9459  
G01 X-0.2945 Y0.9444  
G01 X-0.2937 Y0.9433  
G01 X-0.2930 Y0.9422  
G01 X-0.2918 Y0.9410  
G01 X-0.2908 Y0.9397  
G01 X-0.2898 Y0.9389  
G01 X-0.2888 Y0.9380  
G01 X-0.2874 Y0.9372  
G01 X-0.2324 Y0.8961  
G01 X-0.2313 Y0.8905  
G01 X-0.2288 Y0.8846  
G01 X-0.2252 Y0.8793  
G01 X-0.2207 Y0.8748  
G01 X-0.2154 Y0.8712  
G01 X-0.2095 Y0.8687  
G01 X-0.2032 Y0.8675  
G01 X-0.1968 Y0.8675  
G01 X-0.1905 Y0.8687  
G01 X-0.1846 Y0.8712  
G01 X-0.1793 Y0.8748  
G01 X-0.1748 Y0.8793  
G01 X-0.1712 Y0.8846  
G01 X-0.1687 Y0.8905  
G01 X-0.1675 Y0.8968  
G01 X-0.1675 Y0.9032  
G01 X-0.1687 Y0.9095  
G01 X-0.1712 Y0.9154  
G01 X-0.1748 Y0.9207  
G01 X-0.1793 Y0.9252  
G01 X-0.1846 Y0.9288  
G01 X-0.1905 Y0.9313  
G01 X-0.1968 Y0.9325  
G01 X-0.2032 Y0.9325  
G01 X-0.2053 Y0.9321  
G01 X-0.2525 Y0.9673  
G00 Z0.0500  
G00 X-0.7365 Y0.9085  
G01 Z-0.0035 F10    
G01 X-0.7635 Y0.9085  F20    
G01 X-0.7737 Y0.8983  
G01 X-0.8469 Y0.8977  
G01 X-0.8470 Y0.8979  
G01 X-0.8521 Y0.9030  
G01 X-0.8579 Y0.9069  
G01 X-0.8645 Y0.9096  
G01 X-0.8715 Y0.9110  
G01 X-0.8785 Y0.9110  
G01 X-0.8855 Y0.9096  
G01 X-0.8921 Y0.9069  
G01 X-0.8979 Y0.9030  
G01 X-0.9030 Y0.8979  
G01 X-0.9069 Y0.8921  
G01 X-0.9096 Y0.8855  
G01 X-0.9110 Y0.8785  
G01 X-0.9110 Y0.8715  
G01 X-0.9096 Y0.8645  
G01 X-0.9069 Y0.8579  
G01 X-0.9030 Y0.8521  
G01 X-0.8979 Y0.8470  
G01 X-0.8921 Y0.8431  
G01 X-0.8855 Y0.8404  
G01 X-0.8785 Y0.8390  
G01 X-0.8715 Y0.8390  
G01 X-0.8645 Y0.8404  
G01 X-0.8579 Y0.8431  
G01 X-0.8521 Y0.8470  
G01 X-0.8470 Y0.8521  
G01 X-0.8466 Y0.8527  
G01 X-0.7733 Y0.8533  
G01 X-0.7635 Y0.8435  
G01 X-0.7365 Y0.8435  
G01 X-0.7175 Y0.8625  
G01 X-0.7175 Y0.8895  
G01 X-0.7365 Y0.9085  
G00 Z0.0500  
G00 X-0.8165 Y0.7165  
G01 Z-0.0035 F10    
G01 X-0.8435 Y0.7165  F20    
G01 X-0.8625 Y0.6975  
G01 X-0.8625 Y0.6967  
G01 X-0.9037 Y0.6746  
G01 X-1.0076 Y0.6746  
G01 X-1.0164 Y0.6732  
G01 X-1.0248 Y0.6705  
G01 X-1.0328 Y0.6664  
G01 X-1.0400 Y0.6612  
G01 X-1.0462 Y0.6549  
G01 X-1.0515 Y0.6477  
G01 X-1.0555 Y0.6398  
G01 X-1.0583 Y0.6313  
G01 X-1.0596 Y0.6226  
G01 X-1.0596 Y0.6137  
G01 X-1.0583 Y0.6049  
G01 X-1.0555 Y0.5964  
G01 X-1.0515 Y0.5885  
G01 X-1.0462 Y0.5813  
G01 X-1.0400 Y0.5750  
G01 X-1.0328 Y0.5698  
G01 X-1.0248 Y0.5657  
G01 X-1.0164 Y0.5630  
G01 X-1.0076 Y0.5616  
G01 X-0.8987 Y0.5616  
G01 X-0.8899 Y0.5630  
G01 X-0.8815 Y0.5657  
G01 X-0.8735 Y0.5698  
G01 X-0.8663 Y0.5750  
G01 X-0.8601 Y0.5813  
G01 X-0.8548 Y0.5885  
G01 X-0.8508 Y0.5964  
G01 X-0.8480 Y0.6049  
G01 X-0.8466 Y0.6137  
G01 X-0.8466 Y0.6226  
G01 X-0.8480 Y0.6313  
G01 X-0.8508 Y0.6398  
G01 X-0.8520 Y0.6422  
G01 X-0.8346 Y0.6515  
G01 X-0.8165 Y0.6515  
G01 X-0.7975 Y0.6705  
G01 X-0.7975 Y0.6975  
G01 X-0.8165 Y0.7165  
G00 Z0.0500  
G00 X-1.0205 Y0.7565  
G01 Z-0.0035 F10    
G01 X-1.0205 Y0.7835  F20    
G01 X-1.0395 Y0.8025  
G01 X-1.0401 Y0.8025  
G01 X-1.0411 Y0.8046  
G01 X-1.1063 Y0.8932  
G01 X-1.1074 Y0.8949  
G01 X-1.1078 Y0.8953  
G01 X-1.1082 Y0.8958  
G01 X-1.1097 Y0.8972  
G01 X-1.1111 Y0.8986  
G01 X-1.1116 Y0.8989  
G01 X-1.1121 Y0.8993  
G01 X-1.1138 Y0.9004  
G01 X-1.1154 Y0.9015  
G01 X-1.1160 Y0.9017  
G01 X-1.1165 Y0.9020  
G01 X-1.1184 Y0.9027  
G01 X-1.1203 Y0.9035  
G01 X-1.1209 Y0.9036  
G01 X-1.1214 Y0.9038  
G01 X-1.1234 Y0.9041  
G01 X-1.1254 Y0.9045  
G01 X-1.1260 Y0.9045  
G01 X-1.1266 Y0.9046  
G01 X-1.1286 Y0.9045  
G01 X-1.1390 Y0.9045  
G01 X-1.1390 Y0.9058  
G01 X-1.1400 Y0.9082  
G01 X-1.1418 Y0.9100  
G01 X-1.1442 Y0.9110  
G01 X-1.2058 Y0.9110  
G01 X-1.2082 Y0.9100  
G01 X-1.2100 Y0.9082  
G01 X-1.2110 Y0.9058  
G01 X-1.2110 Y0.9015  
G01 X-1.2192 Y0.9015  
G01 X-1.2332 Y0.9155  
G01 X-1.2668 Y0.9155  
G01 X-1.2905 Y0.8918  
G01 X-1.2905 Y0.8582  
G01 X-1.2767 Y0.8444  
G01 X-1.3098 Y0.5885  
G01 X-1.4204 Y0.5885  
G01 X-1.5730 Y0.7732  
G01 X-1.6153 Y0.8970  
G01 X-1.6156 Y0.8987  
G01 X-1.6162 Y0.8998  
G01 X-1.6167 Y0.9011  
G01 X-1.6176 Y0.9025  
G01 X-1.6184 Y0.9039  
G01 X-1.6192 Y0.9049  
G01 X-1.6200 Y0.9060  
G01 X-1.6212 Y0.9071  
G01 X-1.6223 Y0.9083  
G01 X-1.6234 Y0.9090  
G01 X-1.6244 Y0.9099  
G01 X-1.6259 Y0.9106  
G01 X-1.6273 Y0.9115  
G01 X-1.6286 Y0.9119  
G01 X-1.6297 Y0.9125  
G01 X-1.6314 Y0.9128  
G01 X-1.6330 Y0.9133  
G01 X-1.6343 Y0.9134  
G01 X-1.6355 Y0.9136  
G01 X-1.6372 Y0.9135  
G01 X-1.7723 Y0.9200  
G01 X-1.7728 Y0.9207  
G01 X-1.7773 Y0.9252  
G01 X-1.7826 Y0.9288  
G01 X-1.7885 Y0.9313  
G01 X-1.7948 Y0.9325  
G01 X-1.8532 Y0.9325  
G01 X-1.8595 Y0.9313  
G01 X-1.8654 Y0.9288  
G01 X-1.8707 Y0.9252  
G01 X-1.8752 Y0.9207  
G01 X-1.8788 Y0.9154  
G01 X-1.8813 Y0.9095  
G01 X-1.8821 Y0.9054  
G01 X-2.0330 Y0.7545  
G01 X-2.0485 Y0.7545  
G01 X-2.0545 Y0.7605  
G01 X-2.0815 Y0.7605  
G01 X-2.1005 Y0.7415  
G01 X-2.1005 Y0.7325  
G01 X-2.2389 Y0.6341  
G01 X-2.2404 Y0.6333  
G01 X-2.2414 Y0.6324  
G01 X-2.2424 Y0.6316  
G01 X-2.2435 Y0.6304  
G01 X-2.2447 Y0.6292  
G01 X-2.2454 Y0.6281  
G01 X-2.2462 Y0.6271  
G01 X-2.2469 Y0.6256  
G01 X-2.3267 Y0.4947  
G01 X-2.3332 Y0.4937  
G01 X-2.3490 Y0.5095  
G01 X-2.3850 Y0.5095  
G01 X-2.4020 Y0.4925  
G01 X-2.4320 Y0.4925  
G01 X-2.4490 Y0.5095  
G01 X-2.4850 Y0.5095  
G01 X-2.5105 Y0.4840  
G01 X-2.5105 Y0.4790  
G01 X-2.5130 Y0.4747  
G01 X-2.5145 Y0.4690  
G01 X-2.5145 Y0.4630  
G01 X-2.5130 Y0.4573  
G01 X-2.5105 Y0.4530  
G01 X-2.5105 Y0.4480  
G01 X-2.4850 Y0.4225  
G01 X-2.4490 Y0.4225  
G01 X-2.4320 Y0.4395  
G01 X-2.4020 Y0.4395  
G01 X-2.3850 Y0.4225  
G01 X-2.3490 Y0.4225  
G01 X-2.3235 Y0.4480  
G01 X-2.3235 Y0.4497  
G01 X-2.3116 Y0.4515  
G01 X-2.3106 Y0.4514  
G01 X-2.3087 Y0.4519  
G01 X-2.3068 Y0.4522  
G01 X-2.3058 Y0.4526  
G01 X-2.3048 Y0.4528  
G01 X-2.3031 Y0.4538  
G01 X-2.3013 Y0.4545  
G01 X-2.3005 Y0.4552  
G01 X-2.2996 Y0.4557  
G01 X-2.2982 Y0.4570  
G01 X-2.2967 Y0.4582  
G01 X-2.2961 Y0.4590  
G01 X-2.2953 Y0.4598  
G01 X-2.2943 Y0.4614  
G01 X-2.2932 Y0.4630  
G01 X-2.2928 Y0.4639  
G01 X-2.2102 Y0.5993  
G01 X-2.0749 Y0.6955  
G01 X-2.0545 Y0.6955  
G01 X-2.0485 Y0.7015  
G01 X-2.0194 Y0.7015  
G01 X-2.0143 Y0.7025  
G01 X-2.0094 Y0.7045  
G01 X-2.0051 Y0.7074  
G01 X-1.8450 Y0.8675  
G01 X-1.7948 Y0.8675  
G01 X-1.7885 Y0.8687  
G01 X-1.7826 Y0.8712  
G01 X-1.7773 Y0.8748  
G01 X-1.7769 Y0.8752  
G01 X-1.6534 Y0.8693  
G01 X-1.6149 Y0.7565  
G01 X-1.6147 Y0.7553  
G01 X-1.6139 Y0.7537  
G01 X-1.6133 Y0.7519  
G01 X-1.6127 Y0.7510  
G01 X-1.6122 Y0.7499  
G01 X-1.6111 Y0.7485  
G01 X-1.6100 Y0.7470  
G01 X-1.6092 Y0.7463  
G01 X-1.4495 Y0.5531  
G01 X-1.4490 Y0.5522  
G01 X-1.4477 Y0.5508  
G01 X-1.4465 Y0.5494  
G01 X-1.4456 Y0.5488  
G01 X-1.4448 Y0.5480  
G01 X-1.4432 Y0.5470  
G01 X-1.4416 Y0.5459  
G01 X-1.4406 Y0.5456  
G01 X-1.4397 Y0.5450  
G01 X-1.4379 Y0.5445  
G01 X-1.4361 Y0.5439  
G01 X-1.4350 Y0.5438  
G01 X-1.4340 Y0.5435  
G01 X-1.4321 Y0.5435  
G01 X-1.4302 Y0.5433  
G01 X-1.4291 Y0.5435  
G01 X-1.2915 Y0.5435  
G01 X-1.2900 Y0.5433  
G01 X-1.2885 Y0.5435  
G01 X-1.2870 Y0.5435  
G01 X-1.2856 Y0.5439  
G01 X-1.2841 Y0.5441  
G01 X-1.2827 Y0.5447  
G01 X-1.2813 Y0.5450  
G01 X-1.2800 Y0.5458  
G01 X-1.2786 Y0.5464  
G01 X-1.2775 Y0.5473  
G01 X-1.2762 Y0.5480  
G01 X-1.2751 Y0.5491  
G01 X-1.2739 Y0.5500  
G01 X-1.2730 Y0.5512  
G01 X-1.2720 Y0.5522  
G01 X-1.2712 Y0.5535  
G01 X-1.2703 Y0.5547  
G01 X-1.2698 Y0.5560  
G01 X-1.2690 Y0.5573  
G01 X-1.2686 Y0.5588  
G01 X-1.2681 Y0.5602  
G01 X-1.2679 Y0.5616  
G01 X-1.2675 Y0.5630  
G01 X-1.2675 Y0.5645  
G01 X-1.2325 Y0.8353  
G01 X-1.2192 Y0.8485  
G01 X-1.2110 Y0.8485  
G01 X-1.2110 Y0.8442  
G01 X-1.2100 Y0.8418  
G01 X-1.2082 Y0.8400  
G01 X-1.2058 Y0.8390  
G01 X-1.1442 Y0.8390  
G01 X-1.1418 Y0.8400  
G01 X-1.1400 Y0.8418  
G01 X-1.1390 Y0.8442  
G01 X-1.1390 Y0.8482  
G01 X-1.0855 Y0.7755  
G01 X-1.0855 Y0.7565  
G01 X-1.0665 Y0.7375  
G01 X-1.0395 Y0.7375  
G01 X-1.0205 Y0.7565  
G00 Z0.0500  
G00 X-1.1211 Y0.6246  
G01 Z-0.0035 F10    
G01 X-1.1283 Y0.6298  F20    
G01 X-1.1362 Y0.6339  
G01 X-1.1446 Y0.6366  
G01 X-1.1534 Y0.6380  
G01 X-1.1623 Y0.6380  
G01 X-1.1711 Y0.6366  
G01 X-1.1796 Y0.6339  
G01 X-1.1875 Y0.6298  
G01 X-1.1947 Y0.6246  
G01 X-1.2010 Y0.6183  
G01 X-1.2062 Y0.6111  
G01 X-1.2102 Y0.6032  
G01 X-1.2130 Y0.5947  
G01 X-1.2144 Y0.5859  
G01 X-1.2144 Y0.5174  
G01 X-1.2593 Y0.4725  
G01 X-1.7030 Y0.4725  
G01 X-1.7087 Y0.4710  
G01 X-1.7138 Y0.4680  
G01 X-1.8091 Y0.3727  
G01 X-1.8715 Y0.3743  
G01 X-2.0134 Y0.5162  
G01 X-2.0136 Y0.5166  
G01 X-2.0154 Y0.5183  
G01 X-2.0172 Y0.5200  
G01 X-2.0176 Y0.5203  
G01 X-2.0180 Y0.5206  
G01 X-2.0202 Y0.5217  
G01 X-2.0223 Y0.5230  
G01 X-2.0228 Y0.5231  
G01 X-2.0233 Y0.5233  
G01 X-2.0257 Y0.5239  
G01 X-2.0280 Y0.5245  
G01 X-2.0286 Y0.5245  
G01 X-2.0291 Y0.5246  
G01 X-2.0315 Y0.5245  
G01 X-2.0340 Y0.5245  
G01 X-2.0345 Y0.5244  
G01 X-2.1204 Y0.5205  
G01 X-2.1227 Y0.5205  
G01 X-2.1233 Y0.5204  
G01 X-2.1240 Y0.5203  
G01 X-2.1262 Y0.5196  
G01 X-2.1285 Y0.5191  
G01 X-2.1290 Y0.5187  
G01 X-2.1296 Y0.5186  
G01 X-2.1316 Y0.5173  
G01 X-2.1336 Y0.5161  
G01 X-2.1341 Y0.5157  
G01 X-2.1346 Y0.5154  
G01 X-2.1362 Y0.5136  
G01 X-2.1379 Y0.5120  
G01 X-2.1382 Y0.5115  
G01 X-2.1386 Y0.5110  
G01 X-2.1397 Y0.5089  
G01 X-2.1811 Y0.4389  
G01 X-2.1825 Y0.4368  
G01 X-2.1826 Y0.4363  
G01 X-2.1829 Y0.4359  
G01 X-2.1835 Y0.4335  
G01 X-2.2471 Y0.2390  
G01 X-2.3421 Y0.1706  
G01 X-2.4906 Y0.1724  
G01 X-2.5275 Y0.2093  
G01 X-2.5275 Y0.3297  
G01 X-2.5147 Y0.3425  
G01 X-2.5050 Y0.3425  
G01 X-2.4850 Y0.3225  
G01 X-2.4490 Y0.3225  
G01 X-2.4320 Y0.3395  
G01 X-2.4020 Y0.3395  
G01 X-2.3850 Y0.3225  
G01 X-2.3490 Y0.3225  
G01 X-2.3235 Y0.3480  
G01 X-2.3235 Y0.3530  
G01 X-2.3210 Y0.3573  
G01 X-2.3195 Y0.3630  
G01 X-2.3195 Y0.3690  
G01 X-2.3210 Y0.3747  
G01 X-2.3235 Y0.3790  
G01 X-2.3235 Y0.3840  
G01 X-2.3490 Y0.4095  
G01 X-2.3850 Y0.4095  
G01 X-2.4020 Y0.3925  
G01 X-2.4320 Y0.3925  
G01 X-2.4490 Y0.4095  
G01 X-2.4850 Y0.4095  
G01 X-2.5070 Y0.3875  
G01 X-2.5270 Y0.3875  
G01 X-2.5327 Y0.3860  
G01 X-2.5378 Y0.3830  
G01 X-2.5420 Y0.3788  
G01 X-2.5680 Y0.3528  
G01 X-2.5710 Y0.3477  
G01 X-2.5725 Y0.3420  
G01 X-2.5725 Y0.1970  
G01 X-2.5710 Y0.1913  
G01 X-2.5680 Y0.1862  
G01 X-2.5638 Y0.1820  
G01 X-2.5160 Y0.1342  
G01 X-2.5140 Y0.1322  
G01 X-2.5139 Y0.1321  
G01 X-2.5114 Y0.1306  
G01 X-2.5089 Y0.1291  
G01 X-2.5088 Y0.1291  
G01 X-2.5087 Y0.1290  
G01 X-2.5060 Y0.1283  
G01 X-2.5032 Y0.1275  
G01 X-2.5031 Y0.1275  
G01 X-2.5030 Y0.1275  
G01 X-2.5001 Y0.1275  
G01 X-2.3370 Y0.1255  
G01 X-2.3357 Y0.1253  
G01 X-2.3340 Y0.1255  
G01 X-2.3323 Y0.1255  
G01 X-2.3311 Y0.1258  
G01 X-2.3298 Y0.1259  
G01 X-2.3282 Y0.1265  
G01 X-2.3266 Y0.1269  
G01 X-2.3255 Y0.1276  
G01 X-2.3243 Y0.1280  
G01 X-2.3229 Y0.1290  
G01 X-2.3214 Y0.1298  
G01 X-2.3205 Y0.1307  
G01 X-2.2163 Y0.2057  
G01 X-2.2152 Y0.2063  
G01 X-2.2139 Y0.2074  
G01 X-2.2125 Y0.2085  
G01 X-2.2117 Y0.2094  
G01 X-2.2108 Y0.2102  
G01 X-2.2098 Y0.2117  
G01 X-2.2087 Y0.2131  
G01 X-2.2082 Y0.2142  
G01 X-2.2075 Y0.2152  
G01 X-2.2070 Y0.2169  
G01 X-2.2063 Y0.2185  
G01 X-2.2061 Y0.2197  
G01 X-2.1414 Y0.4177  
G01 X-2.1068 Y0.4761  
G01 X-2.0399 Y0.4791  
G01 X-1.8971 Y0.3363  
G01 X-1.8953 Y0.3343  
G01 X-1.8950 Y0.3342  
G01 X-1.8948 Y0.3340  
G01 X-1.8925 Y0.3327  
G01 X-1.8902 Y0.3313  
G01 X-1.8899 Y0.3312  
G01 X-1.8897 Y0.3310  
G01 X-1.8871 Y0.3303  
G01 X-1.8845 Y0.3296  
G01 X-1.8842 Y0.3296  
G01 X-1.8840 Y0.3295  
G01 X-1.8813 Y0.3295  
G01 X-1.8032 Y0.3276  
G01 X-1.8030 Y0.3275  
G01 X-1.8003 Y0.3275  
G01 X-1.7976 Y0.3274  
G01 X-1.7973 Y0.3275  
G01 X-1.7970 Y0.3275  
G01 X-1.7944 Y0.3282  
G01 X-1.7918 Y0.3288  
G01 X-1.7916 Y0.3290  
G01 X-1.7913 Y0.3290  
G01 X-1.7890 Y0.3304  
G01 X-1.7866 Y0.3317  
G01 X-1.7864 Y0.3319  
G01 X-1.7862 Y0.3320  
G01 X-1.7843 Y0.3339  
G01 X-1.7823 Y0.3357  
G01 X-1.7822 Y0.3360  
G01 X-1.6907 Y0.4275  
G01 X-1.2470 Y0.4275  
G01 X-1.2413 Y0.4290  
G01 X-1.2362 Y0.4320  
G01 X-1.2320 Y0.4362  
G01 X-1.2096 Y0.4586  
G01 X-1.2062 Y0.4519  
G01 X-1.2010 Y0.4447  
G01 X-1.1947 Y0.4384  
G01 X-1.1875 Y0.4332  
G01 X-1.1796 Y0.4291  
G01 X-1.1711 Y0.4264  
G01 X-1.1623 Y0.4250  
G01 X-1.1534 Y0.4250  
G01 X-1.1446 Y0.4264  
G01 X-1.1362 Y0.4291  
G01 X-1.1283 Y0.4332  
G01 X-1.1211 Y0.4384  
G01 X-1.1148 Y0.4447  
G01 X-1.1096 Y0.4519  
G01 X-1.1055 Y0.4598  
G01 X-1.1028 Y0.4683  
G01 X-1.1014 Y0.4770  
G01 X-1.1014 Y0.5859  
G01 X-1.1028 Y0.5947  
G01 X-1.1055 Y0.6032  
G01 X-1.1096 Y0.6111  
G01 X-1.1148 Y0.6183  
G01 X-1.1211 Y0.6246  
G00 Z0.0500  
G00 X-1.3325 Y0.6455  
G01 Z-0.0035 F10    
G01 X-1.3325 Y0.6725  F20    
G01 X-1.3515 Y0.6915  
G01 X-1.3595 Y0.6915  
G01 X-1.5031 Y0.8405  
G01 X-1.5112 Y0.8566  
G01 X-1.5095 Y0.8582  
G01 X-1.5095 Y0.8918  
G01 X-1.5332 Y0.9155  
G01 X-1.5668 Y0.9155  
G01 X-1.5905 Y0.8918  
G01 X-1.5905 Y0.8582  
G01 X-1.5668 Y0.8345  
G01 X-1.5594 Y0.8345  
G01 X-1.5492 Y0.8142  
G01 X-1.5487 Y0.8129  
G01 X-1.5481 Y0.8119  
G01 X-1.5475 Y0.8108  
G01 X-1.5467 Y0.8097  
G01 X-1.5459 Y0.8085  
G01 X-1.5451 Y0.8076  
G01 X-1.5443 Y0.8067  
G01 X-1.5433 Y0.8058  
G01 X-1.3975 Y0.6545  
G01 X-1.3975 Y0.6455  
G01 X-1.3785 Y0.6265  
G01 X-1.3515 Y0.6265  
G01 X-1.3325 Y0.6455  
G00 Z0.0500  
G00 X-1.3395 Y0.7375  
G01 Z-0.0035 F10    
G01 X-1.3205 Y0.7565  F20    
G01 X-1.3205 Y0.7835  
G01 X-1.3294 Y0.7924  
G01 X-1.3294 Y0.7926  
G01 X-1.3298 Y0.7978  
G01 X-1.3475 Y0.8596  
G01 X-1.3474 Y0.8609  
G01 X-1.3475 Y0.8618  
G01 X-1.3475 Y0.8626  
G01 X-1.3478 Y0.8643  
G01 X-1.3481 Y0.8661  
G01 X-1.3484 Y0.8669  
G01 X-1.3485 Y0.8677  
G01 X-1.3492 Y0.8694  
G01 X-1.3498 Y0.8710  
G01 X-1.3502 Y0.8718  
G01 X-1.3505 Y0.8726  
G01 X-1.3515 Y0.8740  
G01 X-1.4192 Y0.9908  
G01 X-1.4195 Y0.9916  
G01 X-1.4205 Y0.9930  
G01 X-1.4214 Y0.9946  
G01 X-1.4219 Y0.9952  
G01 X-1.4224 Y0.9959  
G01 X-1.4237 Y0.9971  
G01 X-1.4248 Y0.9985  
G01 X-1.4255 Y0.9990  
G01 X-1.4261 Y0.9996  
G01 X-1.4276 Y1.0006  
G01 X-1.4290 Y1.0016  
G01 X-1.4297 Y1.0020  
G01 X-1.4304 Y1.0025  
G01 X-1.4321 Y1.0032  
G01 X-1.4337 Y1.0039  
G01 X-1.4345 Y1.0042  
G01 X-1.4353 Y1.0045  
G01 X-1.4370 Y1.0048  
G01 X-1.4387 Y1.0053  
G01 X-1.4396 Y1.0053  
G01 X-1.4404 Y1.0055  
G01 X-1.4422 Y1.0055  
G01 X-1.4439 Y1.0056  
G01 X-1.4448 Y1.0055  
G01 X-1.5232 Y1.0055  
G01 X-1.5332 Y1.0155  
G01 X-1.5668 Y1.0155  
G01 X-1.5719 Y1.0104  
G01 X-1.7130 Y1.0579  
G01 X-1.7640 Y1.1147  
G01 X-1.7682 Y1.1178  
G01 X-1.7720 Y1.1196  
G01 X-1.7728 Y1.1207  
G01 X-1.7773 Y1.1252  
G01 X-1.7826 Y1.1288  
G01 X-1.7885 Y1.1313  
G01 X-1.7948 Y1.1325  
G01 X-1.8532 Y1.1325  
G01 X-1.8595 Y1.1313  
G01 X-1.8654 Y1.1288  
G01 X-1.8707 Y1.1252  
G01 X-1.8752 Y1.1207  
G01 X-1.8788 Y1.1154  
G01 X-1.8813 Y1.1095  
G01 X-1.8825 Y1.1032  
G01 X-1.8825 Y1.0968  
G01 X-1.8813 Y1.0905  
G01 X-1.8788 Y1.0846  
G01 X-1.8752 Y1.0793  
G01 X-1.8707 Y1.0748  
G01 X-1.8654 Y1.0712  
G01 X-1.8595 Y1.0687  
G01 X-1.8532 Y1.0675  
G01 X-1.7948 Y1.0675  
G01 X-1.7932 Y1.0678  
G01 X-1.7484 Y1.0180  
G01 X-1.7474 Y1.0168  
G01 X-1.7466 Y1.0161  
G01 X-1.7460 Y1.0153  
G01 X-1.7447 Y1.0144  
G01 X-1.7435 Y1.0133  
G01 X-1.7426 Y1.0128  
G01 X-1.7418 Y1.0122  
G01 X-1.7403 Y1.0115  
G01 X-1.7389 Y1.0107  
G01 X-1.7380 Y1.0104  
G01 X-1.7371 Y1.0100  
G01 X-1.7355 Y1.0096  
G01 X-1.5905 Y0.9607  
G01 X-1.5905 Y0.9582  
G01 X-1.5668 Y0.9345  
G01 X-1.5332 Y0.9345  
G01 X-1.5152 Y0.9525  
G01 X-1.4583 Y0.9525  
G01 X-1.4003 Y0.8526  
G01 X-1.4003 Y0.8523  
G01 X-1.4002 Y0.8512  
G01 X-1.3998 Y0.8498  
G01 X-1.3995 Y0.8483  
G01 X-1.3991 Y0.8473  
G01 X-1.3819 Y0.7871  
G01 X-1.3855 Y0.7835  
G01 X-1.3855 Y0.7565  
G01 X-1.3665 Y0.7375  
G01 X-1.3395 Y0.7375  
G00 Z0.0500  
G00 X-1.2668 Y0.9345  
G01 Z-0.0035 F10    
G01 X-1.2332 Y0.9345  F20    
G01 X-1.2192 Y0.9485  
G01 X-1.1994 Y0.9485  
G01 X-1.1979 Y0.9470  
G01 X-1.1921 Y0.9431  
G01 X-1.1855 Y0.9404  
G01 X-1.1785 Y0.9390  
G01 X-1.1715 Y0.9390  
G01 X-1.1645 Y0.9404  
G01 X-1.1579 Y0.9431  
G01 X-1.1521 Y0.9470  
G01 X-1.1470 Y0.9521  
G01 X-1.1431 Y0.9579  
G01 X-1.1404 Y0.9645  
G01 X-1.1390 Y0.9715  
G01 X-1.1390 Y0.9785  
G01 X-1.1404 Y0.9855  
G01 X-1.1431 Y0.9921  
G01 X-1.1470 Y0.9979  
G01 X-1.1521 Y1.0030  
G01 X-1.1579 Y1.0069  
G01 X-1.1645 Y1.0096  
G01 X-1.1715 Y1.0110  
G01 X-1.1785 Y1.0110  
G01 X-1.1855 Y1.0096  
G01 X-1.1921 Y1.0069  
G01 X-1.1979 Y1.0030  
G01 X-1.1994 Y1.0015  
G01 X-1.2192 Y1.0015  
G01 X-1.2332 Y1.0155  
G01 X-1.2668 Y1.0155  
G01 X-1.2905 Y0.9918  
G01 X-1.2905 Y0.9582  
G01 X-1.2668 Y0.9345  
G00 Z0.0500  
G00 X-1.2668 Y1.0345  
G01 Z-0.0035 F10    
G01 X-1.2332 Y1.0345  F20    
G01 X-1.2192 Y1.0485  
G01 X-1.1994 Y1.0485  
G01 X-1.1979 Y1.0470  
G01 X-1.1921 Y1.0431  
G01 X-1.1855 Y1.0404  
G01 X-1.1785 Y1.0390  
G01 X-1.1715 Y1.0390  
G01 X-1.1645 Y1.0404  
G01 X-1.1579 Y1.0431  
G01 X-1.1521 Y1.0470  
G01 X-1.1470 Y1.0521  
G01 X-1.1431 Y1.0579  
G01 X-1.1404 Y1.0645  
G01 X-1.1390 Y1.0715  
G01 X-1.1390 Y1.0785  
G01 X-1.1404 Y1.0855  
G01 X-1.1431 Y1.0921  
G01 X-1.1470 Y1.0979  
G01 X-1.1521 Y1.1030  
G01 X-1.1579 Y1.1069  
G01 X-1.1645 Y1.1096  
G01 X-1.1715 Y1.1110  
G01 X-1.1785 Y1.1110  
G01 X-1.1855 Y1.1096  
G01 X-1.1921 Y1.1069  
G01 X-1.1979 Y1.1030  
G01 X-1.1994 Y1.1015  
G01 X-1.2192 Y1.1015  
G01 X-1.2332 Y1.1155  
G01 X-1.2668 Y1.1155  
G01 X-1.2905 Y1.0918  
G01 X-1.2905 Y1.0582  
G01 X-1.2668 Y1.0345  
G00 Z0.0500  
G00 X-1.2668 Y1.1345  
G01 Z-0.0035 F10    
G01 X-1.2332 Y1.1345  F20    
G01 X-1.2192 Y1.1485  
G01 X-1.1994 Y1.1485  
G01 X-1.1979 Y1.1470  
G01 X-1.1921 Y1.1431  
G01 X-1.1855 Y1.1404  
G01 X-1.1785 Y1.1390  
G01 X-1.1715 Y1.1390  
G01 X-1.1645 Y1.1404  
G01 X-1.1579 Y1.1431  
G01 X-1.1521 Y1.1470  
G01 X-1.1470 Y1.1521  
G01 X-1.1431 Y1.1579  
G01 X-1.1404 Y1.1645  
G01 X-1.1390 Y1.1715  
G01 X-1.1390 Y1.1785  
G01 X-1.1404 Y1.1855  
G01 X-1.1431 Y1.1921  
G01 X-1.1470 Y1.1979  
G01 X-1.1521 Y1.2030  
G01 X-1.1579 Y1.2069  
G01 X-1.1645 Y1.2096  
G01 X-1.1715 Y1.2110  
G01 X-1.1785 Y1.2110  
G01 X-1.1855 Y1.2096  
G01 X-1.1921 Y1.2069  
G01 X-1.1979 Y1.2030  
G01 X-1.1994 Y1.2015  
G01 X-1.2192 Y1.2015  
G01 X-1.2332 Y1.2155  
G01 X-1.2668 Y1.2155  
G01 X-1.2905 Y1.1918  
G01 X-1.2905 Y1.1582  
G01 X-1.2668 Y1.1345  
G00 Z0.0500  
G00 X-1.4014 Y1.1129  
G01 Z-0.0035 F10    
G01 X-1.3117 Y1.2615  F20    
G01 X-1.3095 Y1.2615  
G01 X-1.2905 Y1.2805  
G01 X-1.2905 Y1.3075  
G01 X-1.3095 Y1.3265  
G01 X-1.3365 Y1.3265  
G01 X-1.3555 Y1.3075  
G01 X-1.3555 Y1.2914  
G01 X-1.4431 Y1.1463  
G01 X-1.5295 Y1.1118  
G01 X-1.5332 Y1.1155  
G01 X-1.5668 Y1.1155  
G01 X-1.5905 Y1.0918  
G01 X-1.5905 Y1.0582  
G01 X-1.5668 Y1.0345  
G01 X-1.5332 Y1.0345  
G01 X-1.5095 Y1.0582  
G01 X-1.5095 Y1.0627  
G01 X-1.4169 Y1.0997  
G01 X-1.4161 Y1.0999  
G01 X-1.4144 Y1.1007  
G01 X-1.4127 Y1.1014  
G01 X-1.4121 Y1.1018  
G01 X-1.4114 Y1.1021  
G01 X-1.4099 Y1.1032  
G01 X-1.4084 Y1.1042  
G01 X-1.4078 Y1.1048  
G01 X-1.4072 Y1.1052  
G01 X-1.4059 Y1.1066  
G01 X-1.4046 Y1.1079  
G01 X-1.4042 Y1.1085  
G01 X-1.4037 Y1.1091  
G01 X-1.4027 Y1.1106  
G01 X-1.4017 Y1.1122  
G01 X-1.4014 Y1.1129  
G00 Z0.0500  
G00 X-1.5242 Y1.2997  
G01 Z-0.0035 F10    
G01 X-1.5232 Y1.3010  F20    
G01 X-1.4875 Y1.3367  
G01 X-1.4857 Y1.3384  
G01 X-1.4854 Y1.3388  
G01 X-1.4850 Y1.3392  
G01 X-1.4838 Y1.3413  
G01 X-1.4825 Y1.3433  
G01 X-1.4823 Y1.3439  
G01 X-1.4820 Y1.3443  
G01 X-1.4814 Y1.3467  
G01 X-1.4429 Y1.4676  
G01 X-1.4063 Y1.4724  
G01 X-1.4035 Y1.4695  
G01 X-1.3765 Y1.4695  
G01 X-1.3575 Y1.4885  
G01 X-1.3575 Y1.4931  
G01 X-1.3173 Y1.5132  
G01 X-1.1458 Y1.5038  
G01 X-1.1345 Y1.4925  
G01 X-1.1075 Y1.4925  
G01 X-1.0885 Y1.5115  
G01 X-1.0885 Y1.5385  
G01 X-1.1075 Y1.5575  
G01 X-1.1345 Y1.5575  
G01 X-1.1432 Y1.5487  
G01 X-1.3207 Y1.5585  
G01 X-1.3236 Y1.5586  
G01 X-1.3237 Y1.5586  
G01 X-1.3266 Y1.5580  
G01 X-1.3294 Y1.5574  
G01 X-1.3295 Y1.5574  
G01 X-1.3321 Y1.5561  
G01 X-1.3761 Y1.5341  
G01 X-1.3765 Y1.5345  
G01 X-1.4035 Y1.5345  
G01 X-1.4223 Y1.5157  
G01 X-1.4610 Y1.5106  
G01 X-1.4619 Y1.5106  
G01 X-1.4639 Y1.5102  
G01 X-1.4659 Y1.5099  
G01 X-1.4668 Y1.5096  
G01 X-1.4677 Y1.5093  
G01 X-1.4695 Y1.5084  
G01 X-1.4713 Y1.5077  
G01 X-1.4721 Y1.5071  
G01 X-1.4730 Y1.5066  
G01 X-1.4745 Y1.5053  
G01 X-1.4760 Y1.5040  
G01 X-1.4766 Y1.5033  
G01 X-1.4773 Y1.5026  
G01 X-1.4784 Y1.5009  
G01 X-1.4797 Y1.4993  
G01 X-1.4800 Y1.4985  
G01 X-1.4805 Y1.4977  
G01 X-1.4812 Y1.4957  
G01 X-1.4819 Y1.4939  
G01 X-1.4820 Y1.4929  
G01 X-1.5228 Y1.3650  
G01 X-1.5547 Y1.3331  
G01 X-1.6729 Y1.2455  
G01 X-1.6925 Y1.2455  
G01 X-1.7115 Y1.2265  
G01 X-1.7115 Y1.1995  
G01 X-1.6925 Y1.1805  
G01 X-1.6655 Y1.1805  
G01 X-1.6465 Y1.1995  
G01 X-1.6465 Y1.2091  
G01 X-1.5276 Y1.2972  
G01 X-1.5262 Y1.2980  
G01 X-1.5253 Y1.2989  
G01 X-1.5242 Y1.2997  
G00 Z0.0500  
G00 X-1.5418 Y1.3887  
G01 Z-0.0035 F10    
G01 X-1.5378 Y1.3942  F20    
G01 X-1.5347 Y1.4003  
G01 X-1.5326 Y1.4068  
G01 X-1.5315 Y1.4136  
G01 X-1.5315 Y1.4204  
G01 X-1.5326 Y1.4272  
G01 X-1.5347 Y1.4337  
G01 X-1.5378 Y1.4398  
G01 X-1.5418 Y1.4453  
G01 X-1.5467 Y1.4502  
G01 X-1.5469 Y1.4504  
G01 X-1.5420 Y1.4900  
G01 X-1.5335 Y1.4985  
G01 X-1.5335 Y1.5255  
G01 X-1.5525 Y1.5445  
G01 X-1.5795 Y1.5445  
G01 X-1.5985 Y1.5255  
G01 X-1.5985 Y1.4985  
G01 X-1.5948 Y1.4949  
G01 X-1.6000 Y1.4526  
G01 X-1.6033 Y1.4502  
G01 X-1.6082 Y1.4453  
G01 X-1.6122 Y1.4398  
G01 X-1.6153 Y1.4337  
G01 X-1.6174 Y1.4272  
G01 X-1.6185 Y1.4204  
G01 X-1.6185 Y1.4136  
G01 X-1.6183 Y1.4123  
G01 X-1.6956 Y1.3385  
G01 X-1.9705 Y1.3385  
G01 X-1.9716 Y1.3386  
G01 X-1.9731 Y1.3385  
G01 X-1.9746 Y1.3385  
G01 X-1.9757 Y1.3383  
G01 X-1.9768 Y1.3382  
G01 X-1.9782 Y1.3378  
G01 X-1.9797 Y1.3375  
G01 X-1.9807 Y1.3371  
G01 X-1.9818 Y1.3368  
G01 X-1.9832 Y1.3361  
G01 X-1.9846 Y1.3355  
G01 X-1.9855 Y1.3349  
G01 X-1.9864 Y1.3344  
G01 X-1.9876 Y1.3334  
G01 X-1.9889 Y1.3326  
G01 X-1.9897 Y1.3318  
G01 X-1.9905 Y1.3311  
G01 X-1.9915 Y1.3300  
G01 X-1.9926 Y1.3289  
G01 X-1.9932 Y1.3280  
G01 X-2.0525 Y1.2580  
G01 X-2.0536 Y1.2569  
G01 X-2.0542 Y1.2560  
G01 X-2.0549 Y1.2551  
G01 X-2.0556 Y1.2538  
G01 X-2.0565 Y1.2526  
G01 X-2.0569 Y1.2515  
G01 X-2.0574 Y1.2506  
G01 X-2.0579 Y1.2491  
G01 X-2.0585 Y1.2477  
G01 X-2.0587 Y1.2467  
G01 X-2.0590 Y1.2456  
G01 X-2.0592 Y1.2441  
G01 X-2.0595 Y1.2426  
G01 X-2.0595 Y1.2415  
G01 X-2.0596 Y1.2404  
G01 X-2.0595 Y1.2389  
G01 X-2.0595 Y1.0625  
G01 X-2.1087 Y1.0265  
G01 X-2.1312 Y1.0265  
G01 X-2.1346 Y1.0288  
G01 X-2.1405 Y1.0313  
G01 X-2.1468 Y1.0325  
G01 X-2.2052 Y1.0325  
G01 X-2.2115 Y1.0313  
G01 X-2.2174 Y1.0288  
G01 X-2.2227 Y1.0252  
G01 X-2.2272 Y1.0207  
G01 X-2.2308 Y1.0154  
G01 X-2.2333 Y1.0095  
G01 X-2.2345 Y1.0032  
G01 X-2.2345 Y0.9968  
G01 X-2.2333 Y0.9905  
G01 X-2.2308 Y0.9846  
G01 X-2.2272 Y0.9793  
G01 X-2.2227 Y0.9748  
G01 X-2.2174 Y0.9712  
G01 X-2.2115 Y0.9687  
G01 X-2.2052 Y0.9675  
G01 X-2.1468 Y0.9675  
G01 X-2.1405 Y0.9687  
G01 X-2.1346 Y0.9712  
G01 X-2.1312 Y0.9735  
G01 X-2.1020 Y0.9735  
G01 X-2.1015 Y0.9734  
G01 X-2.0994 Y0.9735  
G01 X-2.0974 Y0.9735  
G01 X-2.0968 Y0.9736  
G01 X-2.0963 Y0.9736  
G01 X-2.0943 Y0.9741  
G01 X-2.0923 Y0.9745  
G01 X-2.0917 Y0.9747  
G01 X-2.0912 Y0.9749  
G01 X-2.0893 Y0.9757  
G01 X-2.0874 Y0.9765  
G01 X-2.0870 Y0.9768  
G01 X-2.0865 Y0.9771  
G01 X-2.0848 Y0.9783  
G01 X-2.0831 Y0.9794  
G01 X-2.0827 Y0.9798  
G01 X-2.0178 Y1.0273  
G01 X-2.0161 Y1.0284  
G01 X-2.0157 Y1.0288  
G01 X-2.0152 Y1.0292  
G01 X-2.0139 Y1.0307  
G01 X-2.0124 Y1.0321  
G01 X-2.0121 Y1.0326  
G01 X-2.0117 Y1.0330  
G01 X-2.0107 Y1.0347  
G01 X-2.0095 Y1.0364  
G01 X-2.0093 Y1.0370  
G01 X-2.0090 Y1.0375  
G01 X-2.0083 Y1.0394  
G01 X-2.0075 Y1.0413  
G01 X-2.0074 Y1.0418  
G01 X-2.0072 Y1.0424  
G01 X-2.0069 Y1.0444  
G01 X-2.0065 Y1.0464  
G01 X-2.0065 Y1.0470  
G01 X-2.0064 Y1.0475  
G01 X-2.0065 Y1.0496  
G01 X-2.0065 Y1.2303  
G01 X-1.9597 Y1.2855  
G01 X-1.6853 Y1.2855  
G01 X-1.6830 Y1.2854  
G01 X-1.6827 Y1.2855  
G01 X-1.6824 Y1.2855  
G01 X-1.6801 Y1.2859  
G01 X-1.6779 Y1.2863  
G01 X-1.6776 Y1.2865  
G01 X-1.6773 Y1.2865  
G01 X-1.6751 Y1.2874  
G01 X-1.6730 Y1.2882  
G01 X-1.6727 Y1.2884  
G01 X-1.6724 Y1.2885  
G01 X-1.6705 Y1.2898  
G01 X-1.6686 Y1.2910  
G01 X-1.6684 Y1.2912  
G01 X-1.6681 Y1.2914  
G01 X-1.6665 Y1.2930  
G01 X-1.5817 Y1.3740  
G01 X-1.5784 Y1.3735  
G01 X-1.5716 Y1.3735  
G01 X-1.5648 Y1.3746  
G01 X-1.5583 Y1.3767  
G01 X-1.5522 Y1.3798  
G01 X-1.5467 Y1.3838  
G01 X-1.5418 Y1.3887  
G00 Z0.0500  
G00 X-1.3285 Y1.4195  
G01 Z-0.0035 F10    
G01 X-1.3015 Y1.4195  F20    
G01 X-1.2915 Y1.4295  
G01 X-1.2113 Y1.4295  
G01 X-1.1096 Y1.3278  
G01 X-1.1083 Y1.3263  
G01 X-1.1075 Y1.3257  
G01 X-1.1068 Y1.3250  
G01 X-1.1051 Y1.3240  
G01 X-1.0555 Y1.2893  
G01 X-1.0555 Y1.2805  
G01 X-1.0365 Y1.2615  
G01 X-1.0095 Y1.2615  
G01 X-0.9905 Y1.2805  
G01 X-0.9905 Y1.3075  
G01 X-1.0095 Y1.3265  
G01 X-1.0302 Y1.3265  
G01 X-1.0785 Y1.3603  
G01 X-1.1882 Y1.4700  
G01 X-1.1933 Y1.4730  
G01 X-1.1990 Y1.4745  
G01 X-1.2915 Y1.4745  
G01 X-1.3015 Y1.4845  
G01 X-1.3285 Y1.4845  
G01 X-1.3475 Y1.4655  
G01 X-1.3475 Y1.4385  
G01 X-1.3285 Y1.4195  
G00 Z0.0500  
G00 X-1.8315 Y1.4204  
G01 Z-0.0035 F10    
G01 X-1.8326 Y1.4272  F20    
G01 X-1.8347 Y1.4337  
G01 X-1.8378 Y1.4398  
G01 X-1.8418 Y1.4453  
G01 X-1.8467 Y1.4502  
G01 X-1.8522 Y1.4542  
G01 X-1.8583 Y1.4573  
G01 X-1.8648 Y1.4594  
G01 X-1.8716 Y1.4605  
G01 X-1.8784 Y1.4605  
G01 X-1.8852 Y1.4594  
G01 X-1.8917 Y1.4573  
G01 X-1.8978 Y1.4542  
G01 X-1.9033 Y1.4502  
G01 X-1.9082 Y1.4453  
G01 X-1.9095 Y1.4435  
G01 X-1.9908 Y1.4435  
G01 X-1.9932 Y1.4471  
G01 X-1.9982 Y1.4521  
G01 X-2.0042 Y1.4561  
G01 X-2.0108 Y1.4588  
G01 X-2.0178 Y1.4602  
G01 X-2.0842 Y1.4602  
G01 X-2.0912 Y1.4588  
G01 X-2.0978 Y1.4561  
G01 X-2.1038 Y1.4521  
G01 X-2.1088 Y1.4471  
G01 X-2.1128 Y1.4411  
G01 X-2.1155 Y1.4346  
G01 X-2.1169 Y1.4276  
G01 X-2.1169 Y1.4204  
G01 X-2.1155 Y1.4134  
G01 X-2.1128 Y1.4069  
G01 X-2.1088 Y1.4009  
G01 X-2.1038 Y1.3959  
G01 X-2.0978 Y1.3919  
G01 X-2.0912 Y1.3892  
G01 X-2.0872 Y1.3884  
G01 X-2.0936 Y1.3703  
G01 X-2.1499 Y1.3139  
G01 X-2.2811 Y1.2747  
G01 X-2.2835 Y1.2740  
G01 X-2.2839 Y1.2738  
G01 X-2.2843 Y1.2737  
G01 X-2.2865 Y1.2724  
G01 X-2.2887 Y1.2711  
G01 X-2.2890 Y1.2708  
G01 X-2.2893 Y1.2706  
G01 X-2.2911 Y1.2687  
G01 X-2.2929 Y1.2670  
G01 X-2.2931 Y1.2666  
G01 X-2.2934 Y1.2663  
G01 X-2.2946 Y1.2640  
G01 X-2.2959 Y1.2618  
G01 X-2.2960 Y1.2614  
G01 X-2.2962 Y1.2611  
G01 X-2.2968 Y1.2586  
G01 X-2.2975 Y1.2561  
G01 X-2.2975 Y1.2557  
G01 X-2.2976 Y1.2553  
G01 X-2.2975 Y1.2528  
G01 X-2.2985 Y1.1251  
G01 X-2.2987 Y1.1241  
G01 X-2.2985 Y1.1222  
G01 X-2.2985 Y1.1202  
G01 X-2.2983 Y1.1192  
G01 X-2.2982 Y1.1182  
G01 X-2.2975 Y1.1164  
G01 X-2.2970 Y1.1145  
G01 X-2.2965 Y1.1136  
G01 X-2.2962 Y1.1126  
G01 X-2.2951 Y1.1110  
G01 X-2.2941 Y1.1093  
G01 X-2.2934 Y1.1086  
G01 X-2.2928 Y1.1078  
G01 X-2.2913 Y1.1065  
G01 X-2.2900 Y1.1051  
G01 X-2.2891 Y1.1046  
G01 X-2.2883 Y1.1039  
G01 X-2.2865 Y1.1031  
G01 X-2.2848 Y1.1021  
G01 X-2.2839 Y1.1018  
G01 X-2.2830 Y1.1014  
G01 X-2.2810 Y1.1010  
G01 X-2.2791 Y1.1005  
G01 X-2.2781 Y1.1005  
G01 X-2.2336 Y1.0924  
G01 X-2.2333 Y1.0905  
G01 X-2.2308 Y1.0846  
G01 X-2.2272 Y1.0793  
G01 X-2.2227 Y1.0748  
G01 X-2.2174 Y1.0712  
G01 X-2.2115 Y1.0687  
G01 X-2.2052 Y1.0675  
G01 X-2.1468 Y1.0675  
G01 X-2.1405 Y1.0687  
G01 X-2.1346 Y1.0712  
G01 X-2.1293 Y1.0748  
G01 X-2.1248 Y1.0793  
G01 X-2.1212 Y1.0846  
G01 X-2.1187 Y1.0905  
G01 X-2.1175 Y1.0968  
G01 X-2.1175 Y1.1032  
G01 X-2.1187 Y1.1095  
G01 X-2.1212 Y1.1154  
G01 X-2.1248 Y1.1207  
G01 X-2.1293 Y1.1252  
G01 X-2.1346 Y1.1288  
G01 X-2.1405 Y1.1313  
G01 X-2.1468 Y1.1325  
G01 X-2.2027 Y1.1325  
G01 X-2.2534 Y1.1417  
G01 X-2.2526 Y1.2362  
G01 X-2.1319 Y1.2724  
G01 X-2.1293 Y1.2730  
G01 X-2.1290 Y1.2732  
G01 X-2.1287 Y1.2733  
G01 X-2.1265 Y1.2747  
G01 X-2.1242 Y1.2760  
G01 X-2.1240 Y1.2762  
G01 X-2.1237 Y1.2764  
G01 X-2.1219 Y1.2783  
G01 X-2.0587 Y1.3415  
G01 X-2.0571 Y1.3429  
G01 X-2.0566 Y1.3436  
G01 X-2.0560 Y1.3442  
G01 X-2.0549 Y1.3460  
G01 X-2.0537 Y1.3478  
G01 X-2.0535 Y1.3486  
G01 X-2.0530 Y1.3493  
G01 X-2.0525 Y1.3514  
G01 X-2.0398 Y1.3878  
G01 X-2.0178 Y1.3878  
G01 X-2.0108 Y1.3892  
G01 X-2.0076 Y1.3905  
G01 X-1.9095 Y1.3905  
G01 X-1.9082 Y1.3887  
G01 X-1.9033 Y1.3838  
G01 X-1.8978 Y1.3798  
G01 X-1.8917 Y1.3767  
G01 X-1.8852 Y1.3746  
G01 X-1.8784 Y1.3735  
G01 X-1.8716 Y1.3735  
G01 X-1.8648 Y1.3746  
G01 X-1.8583 Y1.3767  
G01 X-1.8522 Y1.3798  
G01 X-1.8467 Y1.3838  
G01 X-1.8418 Y1.3887  
G01 X-1.8378 Y1.3942  
G01 X-1.8347 Y1.4003  
G01 X-1.8326 Y1.4068  
G01 X-1.8315 Y1.4136  
G01 X-1.8315 Y1.4204  
G00 Z0.0500  
G00 X-1.8335 Y1.4985  
G01 Z-0.0035 F10    
G01 X-1.8335 Y1.5255  F20    
G01 X-1.8525 Y1.5445  
G01 X-1.8795 Y1.5445  
G01 X-1.8857 Y1.5383  
G01 X-1.9876 Y1.5372  
G01 X-1.9892 Y1.5411  
G01 X-1.9932 Y1.5471  
G01 X-1.9982 Y1.5521  
G01 X-2.0042 Y1.5561  
G01 X-2.0108 Y1.5588  
G01 X-2.0178 Y1.5602  
G01 X-2.0842 Y1.5602  
G01 X-2.0912 Y1.5588  
G01 X-2.0978 Y1.5561  
G01 X-2.1038 Y1.5521  
G01 X-2.1088 Y1.5471  
G01 X-2.1128 Y1.5411  
G01 X-2.1155 Y1.5346  
G01 X-2.1169 Y1.5276  
G01 X-2.1169 Y1.5204  
G01 X-2.1155 Y1.5134  
G01 X-2.1128 Y1.5069  
G01 X-2.1088 Y1.5009  
G01 X-2.1038 Y1.4959  
G01 X-2.0978 Y1.4919  
G01 X-2.0912 Y1.4892  
G01 X-2.0842 Y1.4878  
G01 X-2.0705 Y1.4878  
G01 X-2.0701 Y1.4875  
G01 X-2.0683 Y1.4864  
G01 X-2.0678 Y1.4862  
G01 X-2.0674 Y1.4859  
G01 X-2.0654 Y1.4852  
G01 X-2.0635 Y1.4844  
G01 X-2.0629 Y1.4843  
G01 X-2.0625 Y1.4842  
G01 X-2.0604 Y1.4839  
G01 X-2.0583 Y1.4835  
G01 X-2.0578 Y1.4835  
G01 X-2.0573 Y1.4834  
G01 X-2.0552 Y1.4835  
G01 X-1.8853 Y1.4853  
G01 X-1.8795 Y1.4795  
G01 X-1.8525 Y1.4795  
G01 X-1.8335 Y1.4985  
G00 Z0.0500  
G00 X-1.8532 Y1.0325  
G01 Z-0.0035 F10    
G01 X-1.8595 Y1.0313  F20    
G01 X-1.8654 Y1.0288  
G01 X-1.8707 Y1.0252  
G01 X-1.8752 Y1.0207  
G01 X-1.8788 Y1.0154  
G01 X-1.8813 Y1.0095  
G01 X-1.8825 Y1.0032  
G01 X-1.8825 Y0.9968  
G01 X-1.8813 Y0.9905  
G01 X-1.8788 Y0.9846  
G01 X-1.8752 Y0.9793  
G01 X-1.8707 Y0.9748  
G01 X-1.8654 Y0.9712  
G01 X-1.8595 Y0.9687  
G01 X-1.8532 Y0.9675  
G01 X-1.7948 Y0.9675  
G01 X-1.7885 Y0.9687  
G01 X-1.7826 Y0.9712  
G01 X-1.7773 Y0.9748  
G01 X-1.7728 Y0.9793  
G01 X-1.7692 Y0.9846  
G01 X-1.7667 Y0.9905  
G01 X-1.7655 Y0.9968  
G01 X-1.7655 Y1.0032  
G01 X-1.7667 Y1.0095  
G01 X-1.7692 Y1.0154  
G01 X-1.7728 Y1.0207  
G01 X-1.7773 Y1.0252  
G01 X-1.7826 Y1.0288  
G01 X-1.7885 Y1.0313  
G01 X-1.7948 Y1.0325  
G01 X-1.8532 Y1.0325  
G00 Z0.0500  
G00 X-1.7115 Y0.8265  
G01 Z-0.0035 F10    
G01 X-1.7115 Y0.7995  F20    
G01 X-1.7028 Y0.7908  
G01 X-1.6874 Y0.6746  
G01 X-1.7076 Y0.6746  
G01 X-1.7164 Y0.6732  
G01 X-1.7248 Y0.6705  
G01 X-1.7328 Y0.6664  
G01 X-1.7400 Y0.6612  
G01 X-1.7462 Y0.6549  
G01 X-1.7515 Y0.6477  
G01 X-1.7555 Y0.6398  
G01 X-1.7583 Y0.6313  
G01 X-1.7596 Y0.6226  
G01 X-1.7596 Y0.6137  
G01 X-1.7583 Y0.6049  
G01 X-1.7555 Y0.5964  
G01 X-1.7515 Y0.5885  
G01 X-1.7462 Y0.5813  
G01 X-1.7400 Y0.5750  
G01 X-1.7328 Y0.5698  
G01 X-1.7248 Y0.5657  
G01 X-1.7164 Y0.5630  
G01 X-1.7076 Y0.5616  
G01 X-1.5987 Y0.5616  
G01 X-1.5899 Y0.5630  
G01 X-1.5815 Y0.5657  
G01 X-1.5735 Y0.5698  
G01 X-1.5663 Y0.5750  
G01 X-1.5601 Y0.5813  
G01 X-1.5548 Y0.5885  
G01 X-1.5508 Y0.5964  
G01 X-1.5480 Y0.6049  
G01 X-1.5466 Y0.6137  
G01 X-1.5466 Y0.6226  
G01 X-1.5480 Y0.6313  
G01 X-1.5508 Y0.6398  
G01 X-1.5548 Y0.6477  
G01 X-1.5601 Y0.6549  
G01 X-1.5663 Y0.6612  
G01 X-1.5735 Y0.6664  
G01 X-1.5815 Y0.6705  
G01 X-1.5899 Y0.6732  
G01 X-1.5987 Y0.6746  
G01 X-1.6339 Y0.6746  
G01 X-1.6500 Y0.7960  
G01 X-1.6465 Y0.7995  
G01 X-1.6465 Y0.8265  
G01 X-1.6655 Y0.8455  
G01 X-1.6925 Y0.8455  
G01 X-1.7115 Y0.8265  
G00 Z0.0500  
G00 X-1.8211 Y0.6246  
G01 Z-0.0035 F10    
G01 X-1.8283 Y0.6298  F20    
G01 X-1.8362 Y0.6339  
G01 X-1.8446 Y0.6366  
G01 X-1.8534 Y0.6380  
G01 X-1.8623 Y0.6380  
G01 X-1.8711 Y0.6366  
G01 X-1.8796 Y0.6339  
G01 X-1.8875 Y0.6298  
G01 X-1.8947 Y0.6246  
G01 X-1.9010 Y0.6183  
G01 X-1.9026 Y0.6160  
G01 X-2.1481 Y0.6005  
G01 X-2.1498 Y0.6006  
G01 X-2.1511 Y0.6003  
G01 X-2.1524 Y0.6003  
G01 X-2.1540 Y0.5997  
G01 X-2.1556 Y0.5994  
G01 X-2.1568 Y0.5988  
G01 X-2.1580 Y0.5984  
G01 X-2.1594 Y0.5974  
G01 X-2.1609 Y0.5967  
G01 X-2.1619 Y0.5958  
G01 X-2.1629 Y0.5951  
G01 X-2.1640 Y0.5938  
G01 X-2.1653 Y0.5927  
G01 X-2.1660 Y0.5916  
G01 X-2.1668 Y0.5907  
G01 X-2.1676 Y0.5891  
G01 X-2.2395 Y0.4778  
G01 X-2.2409 Y0.4759  
G01 X-2.2412 Y0.4753  
G01 X-2.2415 Y0.4747  
G01 X-2.2422 Y0.4725  
G01 X-2.2895 Y0.3504  
G01 X-2.3217 Y0.2900  
G01 X-2.3293 Y0.2898  
G01 X-2.3490 Y0.3095  
G01 X-2.3850 Y0.3095  
G01 X-2.4020 Y0.2925  
G01 X-2.4320 Y0.2925  
G01 X-2.4490 Y0.3095  
G01 X-2.4850 Y0.3095  
G01 X-2.5105 Y0.2840  
G01 X-2.5105 Y0.2480  
G01 X-2.4850 Y0.2225  
G01 X-2.4490 Y0.2225  
G01 X-2.4320 Y0.2395  
G01 X-2.4020 Y0.2395  
G01 X-2.3850 Y0.2225  
G01 X-2.3490 Y0.2225  
G01 X-2.3266 Y0.2449  
G01 X-2.3073 Y0.2455  
G01 X-2.3043 Y0.2456  
G01 X-2.3015 Y0.2465  
G01 X-2.2986 Y0.2473  
G01 X-2.2961 Y0.2489  
G01 X-2.2936 Y0.2505  
G01 X-2.2916 Y0.2526  
G01 X-2.2896 Y0.2548  
G01 X-2.2881 Y0.2575  
G01 X-2.2499 Y0.3290  
G01 X-2.2491 Y0.3301  
G01 X-2.2485 Y0.3316  
G01 X-2.2478 Y0.3330  
G01 X-2.2474 Y0.3344  
G01 X-2.2008 Y0.4547  
G01 X-2.1353 Y0.5563  
G01 X-1.9144 Y0.5702  
G01 X-1.9144 Y0.4770  
G01 X-1.9130 Y0.4683  
G01 X-1.9102 Y0.4598  
G01 X-1.9062 Y0.4519  
G01 X-1.9010 Y0.4447  
G01 X-1.8947 Y0.4384  
G01 X-1.8875 Y0.4332  
G01 X-1.8796 Y0.4291  
G01 X-1.8711 Y0.4264  
G01 X-1.8623 Y0.4250  
G01 X-1.8534 Y0.4250  
G01 X-1.8446 Y0.4264  
G01 X-1.8362 Y0.4291  
G01 X-1.8283 Y0.4332  
G01 X-1.8211 Y0.4384  
G01 X-1.8148 Y0.4447  
G01 X-1.8096 Y0.4519  
G01 X-1.8055 Y0.4598  
G01 X-1.8028 Y0.4683  
G01 X-1.8014 Y0.4770  
G01 X-1.8014 Y0.5859  
G01 X-1.8028 Y0.5947  
G01 X-1.8055 Y0.6032  
G01 X-1.8096 Y0.6111  
G01 X-1.8148 Y0.6183  
G01 X-1.8211 Y0.6246  
G00 Z0.0500  
G00 X-2.0545 Y0.4605  
G01 Z-0.0035 F10    
G01 X-2.0815 Y0.4605  F20    
G01 X-2.1005 Y0.4415  
G01 X-2.1005 Y0.4145  
G01 X-2.0945 Y0.4085  
G01 X-2.0945 Y0.3414  
G01 X-2.0935 Y0.3363  
G01 X-2.0915 Y0.3314  
G01 X-2.0905 Y0.3300  
G01 X-2.0938 Y0.3251  
G01 X-2.0965 Y0.3186  
G01 X-2.0979 Y0.3116  
G01 X-2.0979 Y0.3044  
G01 X-2.0965 Y0.2974  
G01 X-2.0938 Y0.2909  
G01 X-2.0898 Y0.2849  
G01 X-2.0848 Y0.2799  
G01 X-2.0788 Y0.2759  
G01 X-2.0722 Y0.2732  
G01 X-2.0652 Y0.2718  
G01 X-1.9988 Y0.2718  
G01 X-1.9918 Y0.2732  
G01 X-1.9852 Y0.2759  
G01 X-1.9792 Y0.2799  
G01 X-1.9742 Y0.2849  
G01 X-1.9702 Y0.2909  
G01 X-1.9675 Y0.2974  
G01 X-1.9661 Y0.3044  
G01 X-1.9661 Y0.3116  
G01 X-1.9675 Y0.3186  
G01 X-1.9702 Y0.3251  
G01 X-1.9742 Y0.3311  
G01 X-1.9792 Y0.3361  
G01 X-1.9852 Y0.3401  
G01 X-1.9918 Y0.3428  
G01 X-1.9988 Y0.3442  
G01 X-2.0307 Y0.3442  
G01 X-2.0415 Y0.3550  
G01 X-2.0415 Y0.4085  
G01 X-2.0355 Y0.4145  
G01 X-2.0355 Y0.4415  
G01 X-2.0545 Y0.4605  
G00 Z0.0500  
G00 X-2.0652 Y0.2442  
G01 Z-0.0035 F10    
G01 X-2.0722 Y0.2428  F20    
G01 X-2.0788 Y0.2401  
G01 X-2.0848 Y0.2361  
G01 X-2.0898 Y0.2311  
G01 X-2.0938 Y0.2251  
G01 X-2.0965 Y0.2186  
G01 X-2.0979 Y0.2116  
G01 X-2.0979 Y0.2044  
G01 X-2.0965 Y0.1974  
G01 X-2.0938 Y0.1909  
G01 X-2.0898 Y0.1849  
G01 X-2.0848 Y0.1799  
G01 X-2.0788 Y0.1759  
G01 X-2.0722 Y0.1732  
G01 X-2.0652 Y0.1718  
G01 X-1.9988 Y0.1718  
G01 X-1.9918 Y0.1732  
G01 X-1.9852 Y0.1759  
G01 X-1.9792 Y0.1799  
G01 X-1.9771 Y0.1820  
G01 X-1.9226 Y0.1825  
G01 X-1.9218 Y0.1824  
G01 X-1.9200 Y0.1825  
G01 X-1.9182 Y0.1825  
G01 X-1.9174 Y0.1827  
G01 X-1.9166 Y0.1827  
G01 X-1.9148 Y0.1832  
G01 X-1.9130 Y0.1836  
G01 X-1.9123 Y0.1839  
G01 X-1.3796 Y0.3276  
G01 X-1.3785 Y0.3265  
G01 X-1.3515 Y0.3265  
G01 X-1.3325 Y0.3455  
G01 X-1.3325 Y0.3725  
G01 X-1.3515 Y0.3915  
G01 X-1.3785 Y0.3915  
G01 X-1.3904 Y0.3796  
G01 X-1.9246 Y0.2355  
G01 X-1.9781 Y0.2350  
G01 X-1.9792 Y0.2361  
G01 X-1.9852 Y0.2401  
G01 X-1.9918 Y0.2428  
G01 X-1.9988 Y0.2442  
G01 X-2.0652 Y0.2442  
G00 Z0.0500  
G00 X-2.3235 Y0.5480  
G01 Z-0.0035 F10    
G01 X-2.3235 Y0.5840  F20    
G01 X-2.3490 Y0.6095  
G01 X-2.3850 Y0.6095  
G01 X-2.4020 Y0.5925  
G01 X-2.4320 Y0.5925  
G01 X-2.4490 Y0.6095  
G01 X-2.4850 Y0.6095  
G01 X-2.4930 Y0.6016  
G01 X-2.5245 Y0.6283  
G01 X-2.5245 Y1.0026  
G01 X-2.5017 Y1.0193  
G01 X-2.5000 Y1.0205  
G01 X-2.4996 Y1.0209  
G01 X-2.4992 Y1.0212  
G01 X-2.4978 Y1.0227  
G01 X-2.4964 Y1.0242  
G01 X-2.4961 Y1.0246  
G01 X-2.4957 Y1.0250  
G01 X-2.4946 Y1.0268  
G01 X-2.4935 Y1.0285  
G01 X-2.4933 Y1.0290  
G01 X-2.4930 Y1.0295  
G01 X-2.4923 Y1.0315  
G01 X-2.4915 Y1.0334  
G01 X-2.4914 Y1.0339  
G01 X-2.4912 Y1.0344  
G01 X-2.4909 Y1.0365  
G01 X-2.4905 Y1.0385  
G01 X-2.4905 Y1.0390  
G01 X-2.4904 Y1.0396  
G01 X-2.4905 Y1.0416  
G01 X-2.4914 Y1.3089  
G01 X-2.4890 Y1.3106  
G01 X-2.4841 Y1.3156  
G01 X-2.4799 Y1.3213  
G01 X-2.4768 Y1.3275  
G01 X-2.4746 Y1.3342  
G01 X-2.4735 Y1.3411  
G01 X-2.4735 Y1.3481  
G01 X-2.4746 Y1.3550  
G01 X-2.4768 Y1.3617  
G01 X-2.4799 Y1.3679  
G01 X-2.4841 Y1.3736  
G01 X-2.4890 Y1.3785  
G01 X-2.4947 Y1.3826  
G01 X-2.5009 Y1.3858  
G01 X-2.5076 Y1.3880  
G01 X-2.5145 Y1.3891  
G01 X-2.5215 Y1.3891  
G01 X-2.5284 Y1.3880  
G01 X-2.5351 Y1.3858  
G01 X-2.5413 Y1.3826  
G01 X-2.5470 Y1.3785  
G01 X-2.5519 Y1.3736  
G01 X-2.5561 Y1.3679  
G01 X-2.5592 Y1.3617  
G01 X-2.5614 Y1.3550  
G01 X-2.5625 Y1.3481  
G01 X-2.5625 Y1.3411  
G01 X-2.5614 Y1.3342  
G01 X-2.5592 Y1.3275  
G01 X-2.5561 Y1.3213  
G01 X-2.5519 Y1.3156  
G01 X-2.5470 Y1.3106  
G01 X-2.5444 Y1.3087  
G01 X-2.5435 Y1.0544  
G01 X-2.5662 Y1.0377  
G01 X-2.5679 Y1.0366  
G01 X-2.5683 Y1.0362  
G01 X-2.5688 Y1.0358  
G01 X-2.5702 Y1.0343  
G01 X-2.5716 Y1.0329  
G01 X-2.5719 Y1.0324  
G01 X-2.5723 Y1.0320  
G01 X-2.5734 Y1.0302  
G01 X-2.5745 Y1.0286  
G01 X-2.5747 Y1.0280  
G01 X-2.5750 Y1.0275  
G01 X-2.5757 Y1.0256  
G01 X-2.5765 Y1.0237  
G01 X-2.5766 Y1.0231  
G01 X-2.5768 Y1.0226  
G01 X-2.5771 Y1.0206  
G01 X-2.5775 Y1.0186  
G01 X-2.5775 Y1.0180  
G01 X-2.5776 Y1.0174  
G01 X-2.5775 Y1.0154  
G01 X-2.5775 Y0.6175  
G01 X-2.5776 Y0.6164  
G01 X-2.5775 Y0.6149  
G01 X-2.5775 Y0.6134  
G01 X-2.5773 Y0.6123  
G01 X-2.5772 Y0.6112  
G01 X-2.5768 Y0.6098  
G01 X-2.5765 Y0.6083  
G01 X-2.5761 Y0.6073  
G01 X-2.5758 Y0.6062  
G01 X-2.5751 Y0.6049  
G01 X-2.5745 Y0.6034  
G01 X-2.5739 Y0.6025  
G01 X-2.5734 Y0.6016  
G01 X-2.5724 Y0.6004  
G01 X-2.5716 Y0.5991  
G01 X-2.5708 Y0.5983  
G01 X-2.5701 Y0.5975  
G01 X-2.5690 Y0.5965  
G01 X-2.5679 Y0.5954  
G01 X-2.5670 Y0.5948  
G01 X-2.5071 Y0.5441  
G01 X-2.5060 Y0.5434  
G01 X-2.4850 Y0.5225  
G01 X-2.4490 Y0.5225  
G01 X-2.4320 Y0.5395  
G01 X-2.4020 Y0.5395  
G01 X-2.3850 Y0.5225  
G01 X-2.3490 Y0.5225  
G01 X-2.3235 Y0.5480  
G00 Z0.0500  
G00 X-2.3235 Y0.9480  
G01 Z-0.0035 F10    
G01 X-2.3235 Y0.9840  F20    
G01 X-2.3490 Y1.0095  
G01 X-2.3850 Y1.0095  
G01 X-2.4105 Y0.9840  
G01 X-2.4105 Y0.9480  
G01 X-2.3850 Y0.9225  
G01 X-2.3490 Y0.9225  
G01 X-2.3235 Y0.9480  
G00 Z0.0500  
G00 X-2.4235 Y0.9480  
G01 Z-0.0035 F10    
G01 X-2.4235 Y0.9840  F20    
G01 X-2.4490 Y1.0095  
G01 X-2.4850 Y1.0095  
G01 X-2.5105 Y0.9840  
G01 X-2.5105 Y0.9480  
G01 X-2.4850 Y0.9225  
G01 X-2.4490 Y0.9225  
G01 X-2.4235 Y0.9480  
G00 Z0.0500  
G00 X-2.2272 Y0.9207  
G01 Z-0.0035 F10    
G01 X-2.2308 Y0.9154  F20    
G01 X-2.2333 Y0.9095  
G01 X-2.2345 Y0.9032  
G01 X-2.2345 Y0.8968  
G01 X-2.2333 Y0.8905  
G01 X-2.2308 Y0.8846  
G01 X-2.2272 Y0.8793  
G01 X-2.2227 Y0.8748  
G01 X-2.2174 Y0.8712  
G01 X-2.2115 Y0.8687  
G01 X-2.2052 Y0.8675  
G01 X-2.1468 Y0.8675  
G01 X-2.1405 Y0.8687  
G01 X-2.1346 Y0.8712  
G01 X-2.1293 Y0.8748  
G01 X-2.1248 Y0.8793  
G01 X-2.1212 Y0.8846  
G01 X-2.1187 Y0.8905  
G01 X-2.1175 Y0.8968  
G01 X-2.1175 Y0.9032  
G01 X-2.1187 Y0.9095  
G01 X-2.1212 Y0.9154  
G01 X-2.1248 Y0.9207  
G01 X-2.1293 Y0.9252  
G01 X-2.1346 Y0.9288  
G01 X-2.1405 Y0.9313  
G01 X-2.1468 Y0.9325  
G01 X-2.2052 Y0.9325  
G01 X-2.2115 Y0.9313  
G01 X-2.2174 Y0.9288  
G01 X-2.2227 Y0.9252  
G01 X-2.2272 Y0.9207  
G00 Z0.0500  
G00 X-2.2227 Y1.1748  
G01 Z-0.0035 F10    
G01 X-2.2174 Y1.1712  F20    
G01 X-2.2115 Y1.1687  
G01 X-2.2052 Y1.1675  
G01 X-2.1468 Y1.1675  
G01 X-2.1405 Y1.1687  
G01 X-2.1346 Y1.1712  
G01 X-2.1293 Y1.1748  
G01 X-2.1248 Y1.1793  
G01 X-2.1212 Y1.1846  
G01 X-2.1187 Y1.1905  
G01 X-2.1175 Y1.1968  
G01 X-2.1175 Y1.2032  
G01 X-2.1187 Y1.2095  
G01 X-2.1212 Y1.2154  
G01 X-2.1248 Y1.2207  
G01 X-2.1293 Y1.2252  
G01 X-2.1346 Y1.2288  
G01 X-2.1405 Y1.2313  
G01 X-2.1468 Y1.2325  
G01 X-2.2052 Y1.2325  
G01 X-2.2115 Y1.2313  
G01 X-2.2174 Y1.2288  
G01 X-2.2227 Y1.2252  
G01 X-2.2272 Y1.2207  
G01 X-2.2308 Y1.2154  
G01 X-2.2333 Y1.2095  
G01 X-2.2345 Y1.2032  
G01 X-2.2345 Y1.1968  
G01 X-2.2333 Y1.1905  
G01 X-2.2308 Y1.1846  
G01 X-2.2272 Y1.1793  
G01 X-2.2227 Y1.1748  
G00 Z0.0500  
G00 X-0.1593 Y0.0610  
G01 Z-0.0035 F10    
G01 X-0.1540 Y0.0683  F20    
G01 X-0.1499 Y0.0764  
G01 X-0.1471 Y0.0850  
G01 X-0.1456 Y0.0939  
G01 X-0.1456 Y0.1030  
G01 X-0.1471 Y0.1119  
G01 X-0.1499 Y0.1205  
G01 X-0.1540 Y0.1286  
G01 X-0.1593 Y0.1359  
G01 X-0.1657 Y0.1423  
G01 X-0.1730 Y0.1476  
G01 X-0.1811 Y0.1517  
G01 X-0.1897 Y0.1545  
G01 X-0.1986 Y0.1559  
G01 X-0.3077 Y0.1559  
G01 X-0.3166 Y0.1545  
G01 X-0.3252 Y0.1517  
G01 X-0.3333 Y0.1476  
G01 X-0.3406 Y0.1423  
G01 X-0.3470 Y0.1359  
G01 X-0.3523 Y0.1286  
G01 X-0.3537 Y0.1259  
G01 X-0.7125 Y0.1259  
G01 X-0.7125 Y0.7466  
G01 X-0.7125 Y0.7469  
G01 X-0.7125 Y0.7493  
G01 X-0.7125 Y0.7517  
G01 X-0.7126 Y0.7520  
G01 X-0.7126 Y0.7523  
G01 X-0.7131 Y0.7546  
G01 X-0.7136 Y0.7570  
G01 X-0.7137 Y0.7573  
G01 X-0.7137 Y0.7576  
G01 X-0.7147 Y0.7598  
G01 X-0.7156 Y0.7620  
G01 X-0.7158 Y0.7623  
G01 X-0.7159 Y0.7625  
G01 X-0.7173 Y0.7645  
G01 X-0.7186 Y0.7665  
G01 X-0.7188 Y0.7667  
G01 X-0.7190 Y0.7670  
G01 X-0.7208 Y0.7686  
G01 X-0.7225 Y0.7704  
G01 X-0.7227 Y0.7705  
G01 X-0.7458 Y0.7926  
G01 X-0.7475 Y0.7944  
G01 X-0.7477 Y0.7945  
G01 X-0.7479 Y0.7947  
G01 X-0.7500 Y0.7960  
G01 X-0.7520 Y0.7974  
G01 X-0.7522 Y0.7975  
G01 X-0.7525 Y0.7976  
G01 X-0.7547 Y0.7985  
G01 X-0.7570 Y0.7994  
G01 X-0.7573 Y0.7995  
G01 X-0.7575 Y0.7996  
G01 X-0.7599 Y0.8000  
G01 X-0.7623 Y0.8005  
G01 X-0.7626 Y0.8005  
G01 X-0.7629 Y0.8005  
G01 X-0.7653 Y0.8005  
G01 X-0.9176 Y0.8005  
G01 X-0.9425 Y0.8254  
G01 X-0.9425 Y0.9246  
G01 X-0.9216 Y0.9455  
G01 X-0.8974 Y0.9455  
G01 X-0.8925 Y0.9422  
G01 X-0.8858 Y0.9394  
G01 X-0.8786 Y0.9380  
G01 X-0.8714 Y0.9380  
G01 X-0.8642 Y0.9394  
G01 X-0.8575 Y0.9422  
G01 X-0.8514 Y0.9463  
G01 X-0.8463 Y0.9514  
G01 X-0.8422 Y0.9575  
G01 X-0.8394 Y0.9642  
G01 X-0.8380 Y0.9714  
G01 X-0.8380 Y0.9786  
G01 X-0.8394 Y0.9858  
G01 X-0.8422 Y0.9925  
G01 X-0.8463 Y0.9986  
G01 X-0.8514 Y1.0037  
G01 X-0.8575 Y1.0078  
G01 X-0.8642 Y1.0106  
G01 X-0.8714 Y1.0120  
G01 X-0.8786 Y1.0120  
G01 X-0.8858 Y1.0106  
G01 X-0.8925 Y1.0078  
G01 X-0.8986 Y1.0037  
G01 X-0.9018 Y1.0005  
G01 X-0.9216 Y1.0005  
G01 X-0.9725 Y1.0514  
G01 X-0.9725 Y1.1386  
G01 X-0.9636 Y1.1475  
G01 X-0.8998 Y1.1475  
G01 X-0.8986 Y1.1463  
G01 X-0.8925 Y1.1422  
G01 X-0.8858 Y1.1394  
G01 X-0.8786 Y1.1380  
G01 X-0.8714 Y1.1380  
G01 X-0.8642 Y1.1394  
G01 X-0.8575 Y1.1422  
G01 X-0.8514 Y1.1463  
G01 X-0.8463 Y1.1514  
G01 X-0.8422 Y1.1575  
G01 X-0.8394 Y1.1642  
G01 X-0.8380 Y1.1714  
G01 X-0.8380 Y1.1786  
G01 X-0.8394 Y1.1858  
G01 X-0.8422 Y1.1925  
G01 X-0.8463 Y1.1986  
G01 X-0.8514 Y1.2037  
G01 X-0.8550 Y1.2061  
G01 X-0.7886 Y1.2725  
G01 X-0.6335 Y1.2725  
G01 X-0.6335 Y1.2707  
G01 X-0.6322 Y1.2642  
G01 X-0.6297 Y1.2581  
G01 X-0.6260 Y1.2526  
G01 X-0.6214 Y1.2480  
G01 X-0.6159 Y1.2443  
G01 X-0.6098 Y1.2418  
G01 X-0.6033 Y1.2405  
G01 X-0.5967 Y1.2405  
G01 X-0.5902 Y1.2418  
G01 X-0.5841 Y1.2443  
G01 X-0.5836 Y1.2447  
G01 X-0.5330 Y1.1941  
G01 X-0.5322 Y1.1902  
G01 X-0.5297 Y1.1841  
G01 X-0.5260 Y1.1786  
G01 X-0.5214 Y1.1740  
G01 X-0.5159 Y1.1703  
G01 X-0.5098 Y1.1678  
G01 X-0.5033 Y1.1665  
G01 X-0.4967 Y1.1665  
G01 X-0.4902 Y1.1678  
G01 X-0.4841 Y1.1703  
G01 X-0.4786 Y1.1740  
G01 X-0.4740 Y1.1786  
G01 X-0.4703 Y1.1841  
G01 X-0.4678 Y1.1902  
G01 X-0.4665 Y1.1967  
G01 X-0.4665 Y1.2031  
G01 X-0.4271 Y1.2717  
G01 X-0.4265 Y1.2724  
G01 X-0.4257 Y1.2741  
G01 X-0.4248 Y1.2756  
G01 X-0.4245 Y1.2765  
G01 X-0.4241 Y1.2773  
G01 X-0.4237 Y1.2791  
G01 X-0.4231 Y1.2808  
G01 X-0.4230 Y1.2817  
G01 X-0.4227 Y1.2825  
G01 X-0.4226 Y1.2844  
G01 X-0.4224 Y1.2862  
G01 X-0.4224 Y1.2871  
G01 X-0.4208 Y1.3128  
G01 X-0.4135 Y1.3201  
G01 X-0.4135 Y1.3479  
G01 X-0.4141 Y1.3484  
G01 X-0.3901 Y1.4295  
G01 X-0.3837 Y1.4439  
G01 X-0.3665 Y1.4611  
G01 X-0.3665 Y1.4889  
G01 X-0.3861 Y1.5085  
G01 X-0.4139 Y1.5085  
G01 X-0.4335 Y1.4889  
G01 X-0.4335 Y1.4673  
G01 X-0.4408 Y1.4510  
G01 X-0.4416 Y1.4494  
G01 X-0.4419 Y1.4485  
G01 X-0.4422 Y1.4477  
G01 X-0.4426 Y1.4459  
G01 X-0.4678 Y1.3605  
G01 X-0.4805 Y1.3479  
G01 X-0.4805 Y1.3201  
G01 X-0.4757 Y1.3154  
G01 X-0.4770 Y1.2951  
G01 X-0.5059 Y1.2448  
G01 X-0.5665 Y1.3054  
G01 X-0.5665 Y1.3293  
G01 X-0.5678 Y1.3358  
G01 X-0.5703 Y1.3419  
G01 X-0.5740 Y1.3474  
G01 X-0.5786 Y1.3520  
G01 X-0.5841 Y1.3557  
G01 X-0.5902 Y1.3582  
G01 X-0.5967 Y1.3595  
G01 X-0.6033 Y1.3595  
G01 X-0.6098 Y1.3582  
G01 X-0.6159 Y1.3557  
G01 X-0.6214 Y1.3520  
G01 X-0.6260 Y1.3474  
G01 X-0.6297 Y1.3419  
G01 X-0.6322 Y1.3358  
G01 X-0.6335 Y1.3293  
G01 X-0.6335 Y1.3275  
G01 X-0.8027 Y1.3275  
G01 X-0.8080 Y1.3264  
G01 X-0.8130 Y1.3244  
G01 X-0.8175 Y1.3214  
G01 X-0.9175 Y1.2214  
G01 X-0.9214 Y1.2175  
G01 X-0.9244 Y1.2130  
G01 X-0.9264 Y1.2080  
G01 X-0.9275 Y1.2027  
G01 X-0.9275 Y1.2025  
G01 X-0.9777 Y1.2025  
G01 X-0.9830 Y1.2014  
G01 X-0.9880 Y1.1994  
G01 X-0.9925 Y1.1964  
G01 X-1.0014 Y1.1875  
G01 X-1.2234 Y1.3784  
G01 X-1.2237 Y1.3787  
G01 X-1.2254 Y1.3801  
G01 X-1.2271 Y1.3816  
G01 X-1.2275 Y1.3818  
G01 X-1.2279 Y1.3821  
G01 X-1.2299 Y1.3832  
G01 X-1.2318 Y1.3843  
G01 X-1.2323 Y1.3844  
G01 X-1.2327 Y1.3846  
G01 X-1.2348 Y1.3853  
G01 X-1.2370 Y1.3860  
G01 X-1.2374 Y1.3860  
G01 X-1.3635 Y1.4229  
G01 X-1.3761 Y1.4355  
G01 X-1.4039 Y1.4355  
G01 X-1.4235 Y1.4159  
G01 X-1.4235 Y1.3887  
G01 X-1.4409 Y1.3372  
G01 X-1.5124 Y1.2285  
G01 X-1.5332 Y1.2165  
G01 X-1.5672 Y1.2165  
G01 X-1.5915 Y1.1922  
G01 X-1.5915 Y1.1843  
G01 X-1.6218 Y1.1685  
G01 X-1.6917 Y1.1685  
G01 X-1.7650 Y1.2174  
G01 X-1.7700 Y1.2195  
G01 X-1.7708 Y1.2196  
G01 X-1.7720 Y1.2214  
G01 X-1.7766 Y1.2260  
G01 X-1.7821 Y1.2297  
G01 X-1.7882 Y1.2322  
G01 X-1.7947 Y1.2335  
G01 X-1.8533 Y1.2335  
G01 X-1.8598 Y1.2322  
G01 X-1.8659 Y1.2297  
G01 X-1.8712 Y1.2261  
G01 X-1.8720 Y1.2264  
G01 X-1.8773 Y1.2275  
G01 X-1.8827 Y1.2275  
G01 X-1.8880 Y1.2264  
G01 X-1.8930 Y1.2244  
G01 X-1.8975 Y1.2214  
G01 X-1.9552 Y1.1637  
G01 X-1.9569 Y1.1621  
G01 X-1.9571 Y1.1618  
G01 X-1.9574 Y1.1615  
G01 X-1.9587 Y1.1596  
G01 X-1.9600 Y1.1577  
G01 X-1.9602 Y1.1573  
G01 X-1.9604 Y1.1570  
G01 X-1.9613 Y1.1549  
G01 X-1.9622 Y1.1528  
G01 X-1.9623 Y1.1524  
G01 X-1.9624 Y1.1520  
G01 X-1.9629 Y1.1497  
G01 X-1.9634 Y1.1475  
G01 X-1.9634 Y1.1471  
G01 X-1.9635 Y1.1467  
G01 X-1.9635 Y1.1444  
G01 X-1.9672 Y1.0114  
G01 X-2.1339 Y0.8393  
G01 X-2.2248 Y0.8377  
G01 X-2.2554 Y0.8683  
G01 X-2.2506 Y0.8920  
G01 X-2.2505 Y0.8922  
G01 X-2.2500 Y0.8947  
G01 X-2.2495 Y0.8971  
G01 X-2.2495 Y0.8973  
G01 X-2.2495 Y0.8975  
G01 X-2.2495 Y0.9000  
G01 X-2.2495 Y0.9025  
G01 X-2.2495 Y0.9027  
G01 X-2.2505 Y1.0231  
G01 X-2.2505 Y1.0257  
G01 X-2.2505 Y1.0258  
G01 X-2.2505 Y1.0259  
G01 X-2.2511 Y1.0285  
G01 X-2.2516 Y1.0310  
G01 X-2.2516 Y1.0311  
G01 X-2.2516 Y1.0312  
G01 X-2.2526 Y1.0336  
G01 X-2.2536 Y1.0360  
G01 X-2.2537 Y1.0362  
G01 X-2.2552 Y1.0384  
G01 X-2.2566 Y1.0405  
G01 X-2.2568 Y1.0407  
G01 X-2.2586 Y1.0425  
G01 X-2.3465 Y1.1304  
G01 X-2.3465 Y1.2381  
G01 X-2.2880 Y1.3185  
G01 X-2.2483 Y1.3185  
G01 X-2.2468 Y1.3184  
G01 X-2.2458 Y1.3185  
G01 X-2.2419 Y1.3145  
G01 X-2.2141 Y1.3145  
G01 X-2.1945 Y1.3341  
G01 X-2.1945 Y1.3619  
G01 X-2.1991 Y1.3665  
G01 X-2.1977 Y1.3864  
G01 X-2.1975 Y1.3875  
G01 X-2.1975 Y1.3891  
G01 X-2.1974 Y1.3907  
G01 X-2.1975 Y1.3918  
G01 X-2.1975 Y1.3929  
G01 X-2.1979 Y1.3945  
G01 X-2.1981 Y1.3961  
G01 X-2.1984 Y1.3972  
G01 X-2.1986 Y1.3982  
G01 X-2.1993 Y1.3997  
G01 X-2.1998 Y1.4013  
G01 X-2.2003 Y1.4022  
G01 X-2.2376 Y1.4902  
G01 X-2.2360 Y1.4918  
G01 X-2.2360 Y1.5242  
G01 X-2.2588 Y1.5470  
G01 X-2.2912 Y1.5470  
G01 X-2.3140 Y1.5242  
G01 X-2.3140 Y1.4918  
G01 X-2.2912 Y1.4690  
G01 X-2.2883 Y1.4690  
G01 X-2.2529 Y1.3854  
G01 X-2.2537 Y1.3735  
G01 X-2.3015 Y1.3735  
G01 X-2.3036 Y1.3736  
G01 X-2.3042 Y1.3735  
G01 X-2.3047 Y1.3735  
G01 X-2.3068 Y1.3731  
G01 X-2.3090 Y1.3727  
G01 X-2.3095 Y1.3726  
G01 X-2.3100 Y1.3724  
G01 X-2.3120 Y1.3716  
G01 X-2.3140 Y1.3709  
G01 X-2.3145 Y1.3706  
G01 X-2.3150 Y1.3704  
G01 X-2.3168 Y1.3692  
G01 X-2.3187 Y1.3680  
G01 X-2.3191 Y1.3677  
G01 X-2.3195 Y1.3674  
G01 X-2.3211 Y1.3658  
G01 X-2.3226 Y1.3644  
G01 X-2.3230 Y1.3639  
G01 X-2.3234 Y1.3635  
G01 X-2.3246 Y1.3617  
G01 X-2.3950 Y1.2649  
G01 X-2.3954 Y1.2645  
G01 X-2.3966 Y1.2627  
G01 X-2.3978 Y1.2610  
G01 X-2.3981 Y1.2605  
G01 X-2.3984 Y1.2600  
G01 X-2.3992 Y1.2580  
G01 X-2.4001 Y1.2561  
G01 X-2.4002 Y1.2555  
G01 X-2.4004 Y1.2550  
G01 X-2.4009 Y1.2529  
G01 X-2.4014 Y1.2508  
G01 X-2.4014 Y1.2502  
G01 X-2.4015 Y1.2497  
G01 X-2.4015 Y1.2475  
G01 X-2.4016 Y1.2454  
G01 X-2.4015 Y1.2448  
G01 X-2.4015 Y1.1163  
G01 X-2.4004 Y1.1110  
G01 X-2.3984 Y1.1060  
G01 X-2.3954 Y1.1015  
G01 X-2.3915 Y1.0976  
G01 X-2.3054 Y1.0115  
G01 X-2.3045 Y0.9027  
G01 X-2.3064 Y0.8935  
G01 X-2.3316 Y0.8935  
G01 X-2.3486 Y0.9105  
G01 X-2.3854 Y0.9105  
G01 X-2.3994 Y0.8965  
G01 X-2.4346 Y0.8965  
G01 X-2.4486 Y0.9105  
G01 X-2.4854 Y0.9105  
G01 X-2.5115 Y0.8844  
G01 X-2.5115 Y0.8476  
G01 X-2.4995 Y0.8356  
G01 X-2.4995 Y0.7964  
G01 X-2.5115 Y0.7844  
G01 X-2.5115 Y0.7476  
G01 X-2.4995 Y0.7356  
G01 X-2.4995 Y0.6964  
G01 X-2.5115 Y0.6844  
G01 X-2.5115 Y0.6476  
G01 X-2.4854 Y0.6215  
G01 X-2.4486 Y0.6215  
G01 X-2.4376 Y0.6325  
G01 X-2.3964 Y0.6325  
G01 X-2.3854 Y0.6215  
G01 X-2.3486 Y0.6215  
G01 X-2.3225 Y0.6476  
G01 X-2.3225 Y0.6844  
G01 X-2.3355 Y0.6974  
G01 X-2.3355 Y0.7346  
G01 X-2.3225 Y0.7476  
G01 X-2.3225 Y0.7844  
G01 X-2.3355 Y0.7974  
G01 X-2.3355 Y0.8346  
G01 X-2.3316 Y0.8385  
G01 X-2.3034 Y0.8385  
G01 X-2.2572 Y0.7923  
G01 X-2.2570 Y0.7921  
G01 X-2.2553 Y0.7904  
G01 X-2.2535 Y0.7886  
G01 X-2.2533 Y0.7885  
G01 X-2.2532 Y0.7883  
G01 X-2.2511 Y0.7870  
G01 X-2.2490 Y0.7856  
G01 X-2.2488 Y0.7855  
G01 X-2.2486 Y0.7854  
G01 X-2.2463 Y0.7845  
G01 X-2.2440 Y0.7836  
G01 X-2.2438 Y0.7835  
G01 X-2.2436 Y0.7834  
G01 X-2.2411 Y0.7830  
G01 X-2.2387 Y0.7825  
G01 X-2.2385 Y0.7825  
G01 X-2.2382 Y0.7825  
G01 X-2.2358 Y0.7825  
G01 X-2.2333 Y0.7825  
G01 X-2.2331 Y0.7825  
G01 X-2.1216 Y0.7845  
G01 X-2.1188 Y0.7845  
G01 X-2.1162 Y0.7851  
G01 X-2.1136 Y0.7857  
G01 X-2.1110 Y0.7868  
G01 X-2.1086 Y0.7878  
G01 X-2.1063 Y0.7894  
G01 X-2.1041 Y0.7909  
G01 X-2.1022 Y0.7929  
G01 X-1.9207 Y0.9804  
G01 X-1.9191 Y0.9819  
G01 X-1.9188 Y0.9824  
G01 X-1.9184 Y0.9828  
G01 X-1.9172 Y0.9846  
G01 X-1.9160 Y0.9863  
G01 X-1.9158 Y0.9869  
G01 X-1.9154 Y0.9874  
G01 X-1.9146 Y0.9893  
G01 X-1.9138 Y0.9912  
G01 X-1.9137 Y0.9918  
G01 X-1.9134 Y0.9924  
G01 X-1.9131 Y0.9945  
G01 X-1.9126 Y0.9965  
G01 X-1.9126 Y0.9971  
G01 X-1.9125 Y0.9977  
G01 X-1.9125 Y0.9998  
G01 X-1.9088 Y1.1323  
G01 X-1.8688 Y1.1723  
G01 X-1.8659 Y1.1703  
G01 X-1.8598 Y1.1678  
G01 X-1.8533 Y1.1665  
G01 X-1.7947 Y1.1665  
G01 X-1.7894 Y1.1676  
G01 X-1.7152 Y1.1181  
G01 X-1.7130 Y1.1166  
G01 X-1.7105 Y1.1156  
G01 X-1.7080 Y1.1146  
G01 X-1.7054 Y1.1140  
G01 X-1.7027 Y1.1135  
G01 X-1.7000 Y1.1135  
G01 X-1.6165 Y1.1135  
G01 X-1.6152 Y1.1134  
G01 X-1.6138 Y1.1135  
G01 X-1.6123 Y1.1135  
G01 X-1.6111 Y1.1137  
G01 X-1.6099 Y1.1139  
G01 X-1.6084 Y1.1143  
G01 X-1.6070 Y1.1146  
G01 X-1.6058 Y1.1150  
G01 X-1.6047 Y1.1154  
G01 X-1.6033 Y1.1161  
G01 X-1.6020 Y1.1166  
G01 X-1.6009 Y1.1173  
G01 X-1.5682 Y1.1345  
G01 X-1.5672 Y1.1335  
G01 X-1.5328 Y1.1335  
G01 X-1.5085 Y1.1578  
G01 X-1.5085 Y1.1673  
G01 X-1.4807 Y1.1833  
G01 X-1.4798 Y1.1837  
G01 X-1.4784 Y1.1847  
G01 X-1.4769 Y1.1856  
G01 X-1.4761 Y1.1862  
G01 X-1.4753 Y1.1868  
G01 X-1.4741 Y1.1880  
G01 X-1.4728 Y1.1891  
G01 X-1.4722 Y1.1899  
G01 X-1.4715 Y1.1906  
G01 X-1.4706 Y1.1921  
G01 X-1.4695 Y1.1934  
G01 X-1.4691 Y1.1943  
G01 X-1.3941 Y1.3083  
G01 X-1.3935 Y1.3089  
G01 X-1.3926 Y1.3106  
G01 X-1.3915 Y1.3121  
G01 X-1.3912 Y1.3129  
G01 X-1.3908 Y1.3136  
G01 X-1.3902 Y1.3154  
G01 X-1.3895 Y1.3172  
G01 X-1.3893 Y1.3180  
G01 X-1.3724 Y1.3682  
G01 X-1.2564 Y1.3343  
G01 X-1.0275 Y1.1374  
G01 X-1.0275 Y1.0373  
G01 X-1.0264 Y1.0320  
G01 X-1.0244 Y1.0270  
G01 X-1.0214 Y1.0225  
G01 X-0.9719 Y0.9730  
G01 X-0.9914 Y0.9535  
G01 X-0.9944 Y0.9490  
G01 X-0.9964 Y0.9440  
G01 X-0.9975 Y0.9387  
G01 X-0.9975 Y0.8113  
G01 X-0.9964 Y0.8060  
G01 X-0.9944 Y0.8010  
G01 X-0.9914 Y0.7965  
G01 X-0.9875 Y0.7926  
G01 X-0.9465 Y0.7516  
G01 X-0.9420 Y0.7486  
G01 X-0.9370 Y0.7466  
G01 X-0.9317 Y0.7455  
G01 X-0.7761 Y0.7455  
G01 X-0.7675 Y0.7373  
G01 X-0.7675 Y0.1245  
G01 X-0.8519 Y0.1245  
G01 X-0.8540 Y0.1286  
G01 X-0.8593 Y0.1359  
G01 X-0.8657 Y0.1423  
G01 X-0.8730 Y0.1476  
G01 X-0.8811 Y0.1517  
G01 X-0.8897 Y0.1545  
G01 X-0.8986 Y0.1559  
G01 X-1.0077 Y0.1559  
G01 X-1.0166 Y0.1545  
G01 X-1.0252 Y0.1517  
G01 X-1.0333 Y0.1476  
G01 X-1.0406 Y0.1423  
G01 X-1.0470 Y0.1359  
G01 X-1.0523 Y0.1286  
G01 X-1.0537 Y0.1259  
G01 X-1.5526 Y0.1259  
G01 X-1.5540 Y0.1286  
G01 X-1.5593 Y0.1359  
G01 X-1.5657 Y0.1423  
G01 X-1.5730 Y0.1476  
G01 X-1.5811 Y0.1517  
G01 X-1.5897 Y0.1545  
G01 X-1.5986 Y0.1559  
G01 X-1.7077 Y0.1559  
G01 X-1.7166 Y0.1545  
G01 X-1.7252 Y0.1517  
G01 X-1.7333 Y0.1476  
G01 X-1.7406 Y0.1423  
G01 X-1.7470 Y0.1359  
G01 X-1.7523 Y0.1286  
G01 X-1.7537 Y0.1259  
G01 X-1.9696 Y0.1259  
G01 X-1.9734 Y0.1317  
G01 X-1.9786 Y0.1369  
G01 X-1.9847 Y0.1410  
G01 X-1.9915 Y0.1438  
G01 X-1.9987 Y0.1452  
G01 X-2.0653 Y0.1452  
G01 X-2.0725 Y0.1438  
G01 X-2.0793 Y0.1410  
G01 X-2.0854 Y0.1369  
G01 X-2.0906 Y0.1317  
G01 X-2.0946 Y0.1256  
G01 X-2.0974 Y0.1188  
G01 X-2.0989 Y0.1117  
G01 X-2.0989 Y0.1043  
G01 X-2.0974 Y0.0972  
G01 X-2.0946 Y0.0904  
G01 X-2.0906 Y0.0843  
G01 X-2.0854 Y0.0791  
G01 X-2.0793 Y0.0750  
G01 X-2.0725 Y0.0722  
G01 X-2.0653 Y0.0708  
G01 X-1.9987 Y0.0708  
G01 X-1.9981 Y0.0709  
G01 X-1.7537 Y0.0709  
G01 X-1.7523 Y0.0683  
G01 X-1.7470 Y0.0610  
G01 X-1.7406 Y0.0546  
G01 X-1.7333 Y0.0492  
G01 X-1.7252 Y0.0451  
G01 X-1.7166 Y0.0423  
G01 X-1.7077 Y0.0409  
G01 X-1.5986 Y0.0409  
G01 X-1.5897 Y0.0423  
G01 X-1.5811 Y0.0451  
G01 X-1.5730 Y0.0492  
G01 X-1.5657 Y0.0546  
G01 X-1.5593 Y0.0610  
G01 X-1.5540 Y0.0683  
G01 X-1.5526 Y0.0709  
G01 X-1.0537 Y0.0709  
G01 X-1.0523 Y0.0683  
G01 X-1.0470 Y0.0610  
G01 X-1.0406 Y0.0546  
G01 X-1.0333 Y0.0492  
G01 X-1.0252 Y0.0451  
G01 X-1.0166 Y0.0423  
G01 X-1.0077 Y0.0409  
G01 X-0.8986 Y0.0409  
G01 X-0.8897 Y0.0423  
G01 X-0.8811 Y0.0451  
G01 X-0.8730 Y0.0492  
G01 X-0.8657 Y0.0546  
G01 X-0.8593 Y0.0610  
G01 X-0.8540 Y0.0683  
G01 X-0.8534 Y0.0695  
G01 X-0.7313 Y0.0695  
G01 X-0.7260 Y0.0706  
G01 X-0.7251 Y0.0709  
G01 X-0.3537 Y0.0709  
G01 X-0.3523 Y0.0683  
G01 X-0.3470 Y0.0610  
G01 X-0.3406 Y0.0546  
G01 X-0.3333 Y0.0492  
G01 X-0.3252 Y0.0451  
G01 X-0.3166 Y0.0423  
G01 X-0.3077 Y0.0409  
G01 X-0.1986 Y0.0409  
G01 X-0.1897 Y0.0423  
G01 X-0.1811 Y0.0451  
G01 X-0.1730 Y0.0492  
G01 X-0.1657 Y0.0546  
G01 X-0.1593 Y0.0610  
G00 Z0.0500  
G00 X-0.1513 Y0.3515  
G01 Z-0.0035 F10    
G01 X-0.1502 Y0.3514  F20    
G01 X-0.1489 Y0.3515  
G01 X-0.1477 Y0.3515  
G01 X-0.1466 Y0.3517  
G01 X-0.1456 Y0.3518  
G01 X-0.1444 Y0.3522  
G01 X-0.1431 Y0.3524  
G01 X-0.1422 Y0.3528  
G01 X-0.1411 Y0.3531  
G01 X-0.1400 Y0.3537  
G01 X-0.1389 Y0.3542  
G01 X-0.1380 Y0.3548  
G01 X-0.1370 Y0.3553  
G01 X-0.1361 Y0.3560  
G01 X-0.1350 Y0.3567  
G01 X-0.1343 Y0.3575  
G01 X-0.1334 Y0.3582  
G01 X-0.1326 Y0.3591  
G01 X-0.1317 Y0.3600  
G01 X-0.1312 Y0.3609  
G01 X-0.1305 Y0.3617  
G01 X-0.1299 Y0.3628  
G01 X-0.1292 Y0.3639  
G01 X-0.1288 Y0.3648  
G01 X-0.1283 Y0.3658  
G01 X-0.1279 Y0.3670  
G01 X-0.1274 Y0.3681  
G01 X-0.1272 Y0.3692  
G01 X-0.0029 Y0.7670  
G01 X-0.0024 Y0.7681  
G01 X-0.0022 Y0.7692  
G01 X-0.0019 Y0.7702  
G01 X-0.0017 Y0.7715  
G01 X-0.0015 Y0.7727  
G01 X-0.0015 Y0.7737  
G01 X-0.0014 Y0.7748  
G01 X-0.0015 Y0.7761  
G01 X-0.0015 Y1.5023  
G01 X-0.0024 Y1.5069  
G01 X-0.0042 Y1.5111  
G01 X-0.0067 Y1.5150  
G01 X-0.0100 Y1.5183  
G01 X-0.0600 Y1.5683  
G01 X-0.0639 Y1.5708  
G01 X-0.0681 Y1.5726  
G01 X-0.0727 Y1.5735  
G01 X-0.1273 Y1.5735  
G01 X-0.1319 Y1.5726  
G01 X-0.1361 Y1.5708  
G01 X-0.1400 Y1.5683  
G01 X-0.1433 Y1.5650  
G01 X-0.1933 Y1.5150  
G01 X-0.1958 Y1.5111  
G01 X-0.1976 Y1.5069  
G01 X-0.1985 Y1.5023  
G01 X-0.1985 Y1.4271  
G01 X-0.1985 Y1.4269  
G01 X-0.1985 Y1.4248  
G01 X-0.1985 Y1.4227  
G01 X-0.1985 Y1.4225  
G01 X-0.1975 Y1.3648  
G01 X-0.1975 Y1.3158  
G01 X-0.2208 Y1.2612  
G01 X-0.2208 Y1.2611  
G01 X-0.2217 Y1.2591  
G01 X-0.2225 Y1.2571  
G01 X-0.2226 Y1.2570  
G01 X-0.2226 Y1.2569  
G01 X-0.2230 Y1.2547  
G01 X-0.2235 Y1.2526  
G01 X-0.2235 Y1.2524  
G01 X-0.2235 Y1.2523  
G01 X-0.2235 Y1.2501  
G01 X-0.2235 Y1.2479  
G01 X-0.2235 Y1.2478  
G01 X-0.2235 Y1.2239  
G01 X-0.2260 Y1.2214  
G01 X-0.2297 Y1.2159  
G01 X-0.2322 Y1.2098  
G01 X-0.2335 Y1.2033  
G01 X-0.2335 Y1.1967  
G01 X-0.2322 Y1.1902  
G01 X-0.2297 Y1.1841  
G01 X-0.2260 Y1.1786  
G01 X-0.2214 Y1.1740  
G01 X-0.2159 Y1.1703  
G01 X-0.2098 Y1.1678  
G01 X-0.2033 Y1.1665  
G01 X-0.1967 Y1.1665  
G01 X-0.1902 Y1.1678  
G01 X-0.1841 Y1.1703  
G01 X-0.1786 Y1.1740  
G01 X-0.1740 Y1.1786  
G01 X-0.1703 Y1.1841  
G01 X-0.1678 Y1.1902  
G01 X-0.1665 Y1.1967  
G01 X-0.1665 Y1.2033  
G01 X-0.1678 Y1.2098  
G01 X-0.1703 Y1.2159  
G01 X-0.1740 Y1.2214  
G01 X-0.1765 Y1.2239  
G01 X-0.1765 Y1.2452  
G01 X-0.1532 Y1.2998  
G01 X-0.1532 Y1.2999  
G01 X-0.1523 Y1.3019  
G01 X-0.1515 Y1.3039  
G01 X-0.1514 Y1.3040  
G01 X-0.1514 Y1.3041  
G01 X-0.1510 Y1.3063  
G01 X-0.1505 Y1.3084  
G01 X-0.1505 Y1.3086  
G01 X-0.1505 Y1.3087  
G01 X-0.1505 Y1.3109  
G01 X-0.1505 Y1.3131  
G01 X-0.1505 Y1.3132  
G01 X-0.1505 Y1.3629  
G01 X-0.1505 Y1.3631  
G01 X-0.1505 Y1.3652  
G01 X-0.1505 Y1.3673  
G01 X-0.1505 Y1.3675  
G01 X-0.1515 Y1.4252  
G01 X-0.1515 Y1.4903  
G01 X-0.1153 Y1.5265  
G01 X-0.0847 Y1.5265  
G01 X-0.0485 Y1.4903  
G01 X-0.0485 Y0.7786  
G01 X-0.1673 Y0.3985  
G01 X-0.5903 Y0.3985  
G01 X-0.6285 Y0.4367  
G01 X-0.6285 Y1.0382  
G01 X-0.6284 Y1.0386  
G01 X-0.6285 Y1.0405  
G01 X-0.6285 Y1.0423  
G01 X-0.6286 Y1.0428  
G01 X-0.6286 Y1.0433  
G01 X-0.6290 Y1.0451  
G01 X-0.6294 Y1.0469  
G01 X-0.6296 Y1.0473  
G01 X-0.6297 Y1.0478  
G01 X-0.6305 Y1.0494  
G01 X-0.6312 Y1.0511  
G01 X-0.6314 Y1.0515  
G01 X-0.6316 Y1.0520  
G01 X-0.6327 Y1.0535  
G01 X-0.6337 Y1.0550  
G01 X-0.6341 Y1.0553  
G01 X-0.6344 Y1.0557  
G01 X-0.6357 Y1.0570  
G01 X-0.6370 Y1.0583  
G01 X-0.6374 Y1.0585  
G01 X-0.6378 Y1.0588  
G01 X-0.6393 Y1.0598  
G01 X-0.6409 Y1.0608  
G01 X-0.6413 Y1.0610  
G01 X-0.6417 Y1.0613  
G01 X-0.6434 Y1.0619  
G01 X-0.6451 Y1.0626  
G01 X-0.6456 Y1.0627  
G01 X-0.6461 Y1.0629  
G01 X-0.6479 Y1.0631  
G01 X-0.6497 Y1.0635  
G01 X-0.6502 Y1.0635  
G01 X-0.8430 Y1.0938  
G01 X-0.8463 Y1.0986  
G01 X-0.8514 Y1.1037  
G01 X-0.8575 Y1.1078  
G01 X-0.8642 Y1.1106  
G01 X-0.8714 Y1.1120  
G01 X-0.8786 Y1.1120  
G01 X-0.8858 Y1.1106  
G01 X-0.8925 Y1.1078  
G01 X-0.8986 Y1.1037  
G01 X-0.9037 Y1.0986  
G01 X-0.9078 Y1.0925  
G01 X-0.9106 Y1.0858  
G01 X-0.9120 Y1.0786  
G01 X-0.9120 Y1.0714  
G01 X-0.9106 Y1.0642  
G01 X-0.9078 Y1.0575  
G01 X-0.9037 Y1.0514  
G01 X-0.8986 Y1.0463  
G01 X-0.8925 Y1.0422  
G01 X-0.8858 Y1.0394  
G01 X-0.8786 Y1.0380  
G01 X-0.8714 Y1.0380  
G01 X-0.8642 Y1.0394  
G01 X-0.8575 Y1.0422  
G01 X-0.8514 Y1.0463  
G01 X-0.8503 Y1.0473  
G01 X-0.6755 Y1.0199  
G01 X-0.6755 Y0.4247  
G01 X-0.6746 Y0.4201  
G01 X-0.6728 Y0.4159  
G01 X-0.6703 Y0.4120  
G01 X-0.6670 Y0.4087  
G01 X-0.6150 Y0.3567  
G01 X-0.6111 Y0.3542  
G01 X-0.6069 Y0.3524  
G01 X-0.6023 Y0.3515  
G01 X-0.1513 Y0.3515  
G00 Z0.0500  
G00 X-0.1593 Y0.5807  
G01 Z-0.0035 F10    
G01 X-0.1540 Y0.5880  F20    
G01 X-0.1499 Y0.5960  
G01 X-0.1471 Y0.6046  
G01 X-0.1456 Y0.6136  
G01 X-0.1456 Y0.6226  
G01 X-0.1471 Y0.6316  
G01 X-0.1499 Y0.6402  
G01 X-0.1540 Y0.6482  
G01 X-0.1593 Y0.6556  
G01 X-0.1657 Y0.6620  
G01 X-0.1730 Y0.6673  
G01 X-0.1811 Y0.6714  
G01 X-0.1843 Y0.6724  
G01 X-0.0771 Y0.8348  
G01 X-0.0756 Y0.8370  
G01 X-0.0756 Y0.8371  
G01 X-0.0746 Y0.8395  
G01 X-0.0736 Y0.8420  
G01 X-0.0735 Y0.8421  
G01 X-0.0730 Y0.8447  
G01 X-0.0725 Y0.8473  
G01 X-0.0725 Y0.8474  
G01 X-0.0725 Y0.8501  
G01 X-0.0725 Y0.9301  
G01 X-0.0665 Y0.9361  
G01 X-0.0665 Y0.9639  
G01 X-0.0861 Y0.9835  
G01 X-0.0973 Y0.9835  
G01 X-0.1173 Y1.0001  
G01 X-0.1192 Y1.0017  
G01 X-0.1194 Y1.0018  
G01 X-0.1195 Y1.0019  
G01 X-0.1218 Y1.0031  
G01 X-0.1240 Y1.0043  
G01 X-0.1241 Y1.0044  
G01 X-0.1243 Y1.0045  
G01 X-0.1267 Y1.0052  
G01 X-0.1732 Y1.0203  
G01 X-0.1740 Y1.0214  
G01 X-0.1786 Y1.0260  
G01 X-0.1841 Y1.0297  
G01 X-0.1902 Y1.0322  
G01 X-0.1967 Y1.0335  
G01 X-0.2033 Y1.0335  
G01 X-0.2098 Y1.0322  
G01 X-0.2159 Y1.0297  
G01 X-0.2214 Y1.0260  
G01 X-0.2260 Y1.0214  
G01 X-0.2297 Y1.0159  
G01 X-0.2322 Y1.0098  
G01 X-0.2335 Y1.0033  
G01 X-0.2335 Y0.9967  
G01 X-0.2322 Y0.9902  
G01 X-0.2297 Y0.9841  
G01 X-0.2260 Y0.9786  
G01 X-0.2214 Y0.9740  
G01 X-0.2159 Y0.9703  
G01 X-0.2098 Y0.9678  
G01 X-0.2033 Y0.9665  
G01 X-0.1967 Y0.9665  
G01 X-0.1902 Y0.9678  
G01 X-0.1900 Y0.9679  
G01 X-0.1485 Y0.9545  
G01 X-0.1335 Y0.9420  
G01 X-0.1335 Y0.9361  
G01 X-0.1275 Y0.9301  
G01 X-0.1275 Y0.8583  
G01 X-0.2481 Y0.6756  
G01 X-0.3077 Y0.6756  
G01 X-0.3166 Y0.6742  
G01 X-0.3252 Y0.6714  
G01 X-0.3333 Y0.6673  
G01 X-0.3406 Y0.6620  
G01 X-0.3470 Y0.6556  
G01 X-0.3523 Y0.6482  
G01 X-0.3564 Y0.6402  
G01 X-0.3592 Y0.6316  
G01 X-0.3606 Y0.6226  
G01 X-0.3606 Y0.6136  
G01 X-0.3592 Y0.6046  
G01 X-0.3564 Y0.5960  
G01 X-0.3523 Y0.5880  
G01 X-0.3470 Y0.5807  
G01 X-0.3406 Y0.5743  
G01 X-0.3333 Y0.5689  
G01 X-0.3252 Y0.5648  
G01 X-0.3166 Y0.5620  
G01 X-0.3077 Y0.5606  
G01 X-0.1986 Y0.5606  
G01 X-0.1897 Y0.5620  
G01 X-0.1811 Y0.5648  
G01 X-0.1730 Y0.5689  
G01 X-0.1657 Y0.5743  
G01 X-0.1593 Y0.5807  
G00 Z0.0500  
G00 X-0.4004 Y0.5860  
G01 Z-0.0035 F10    
G01 X-0.4018 Y0.5950  F20    
G01 X-0.4046 Y0.6036  
G01 X-0.4087 Y0.6116  
G01 X-0.4140 Y0.6190  
G01 X-0.4204 Y0.6254  
G01 X-0.4277 Y0.6307  
G01 X-0.4358 Y0.6348  
G01 X-0.4444 Y0.6376  
G01 X-0.4533 Y0.6390  
G01 X-0.4624 Y0.6390  
G01 X-0.4713 Y0.6376  
G01 X-0.4799 Y0.6348  
G01 X-0.4880 Y0.6307  
G01 X-0.4953 Y0.6254  
G01 X-0.5017 Y0.6190  
G01 X-0.5071 Y0.6116  
G01 X-0.5112 Y0.6036  
G01 X-0.5140 Y0.5950  
G01 X-0.5154 Y0.5860  
G01 X-0.5154 Y0.4770  
G01 X-0.5140 Y0.4680  
G01 X-0.5112 Y0.4594  
G01 X-0.5071 Y0.4514  
G01 X-0.5017 Y0.4440  
G01 X-0.4953 Y0.4376  
G01 X-0.4880 Y0.4323  
G01 X-0.4799 Y0.4282  
G01 X-0.4713 Y0.4254  
G01 X-0.4624 Y0.4240  
G01 X-0.4533 Y0.4240  
G01 X-0.4444 Y0.4254  
G01 X-0.4358 Y0.4282  
G01 X-0.4277 Y0.4323  
G01 X-0.4204 Y0.4376  
G01 X-0.4140 Y0.4440  
G01 X-0.4087 Y0.4514  
G01 X-0.4046 Y0.4594  
G01 X-0.4018 Y0.4680  
G01 X-0.4004 Y0.4770  
G01 X-0.4004 Y0.5860  
G00 Z0.0500  
G00 X-0.4965 Y0.6701  
G01 Z-0.0035 F10    
G01 X-0.4965 Y0.6979  F20    
G01 X-0.5161 Y0.7175  
G01 X-0.5177 Y0.7175  
G01 X-0.5439 Y0.7623  
G01 X-0.4802 Y0.8309  
G01 X-0.4786 Y0.8325  
G01 X-0.4784 Y0.8329  
G01 X-0.4780 Y0.8333  
G01 X-0.4769 Y0.8351  
G01 X-0.4756 Y0.8370  
G01 X-0.4754 Y0.8374  
G01 X-0.4752 Y0.8379  
G01 X-0.4744 Y0.8399  
G01 X-0.4736 Y0.8420  
G01 X-0.4735 Y0.8425  
G01 X-0.4733 Y0.8430  
G01 X-0.4729 Y0.8451  
G01 X-0.4725 Y0.8473  
G01 X-0.4725 Y0.8478  
G01 X-0.4724 Y0.8483  
G01 X-0.4725 Y0.8505  
G01 X-0.4725 Y0.8809  
G01 X-0.4703 Y0.8841  
G01 X-0.4678 Y0.8902  
G01 X-0.4665 Y0.8967  
G01 X-0.4665 Y0.9033  
G01 X-0.4678 Y0.9098  
G01 X-0.4703 Y0.9159  
G01 X-0.4740 Y0.9214  
G01 X-0.4786 Y0.9260  
G01 X-0.4841 Y0.9297  
G01 X-0.4902 Y0.9322  
G01 X-0.4967 Y0.9335  
G01 X-0.5033 Y0.9335  
G01 X-0.5098 Y0.9322  
G01 X-0.5159 Y0.9297  
G01 X-0.5214 Y0.9260  
G01 X-0.5260 Y0.9214  
G01 X-0.5297 Y0.9159  
G01 X-0.5322 Y0.9098  
G01 X-0.5335 Y0.9033  
G01 X-0.5335 Y0.8967  
G01 X-0.5322 Y0.8902  
G01 X-0.5297 Y0.8841  
G01 X-0.5275 Y0.8809  
G01 X-0.5275 Y0.8608  
G01 X-0.5844 Y0.7995  
G01 X-0.5919 Y0.7995  
G01 X-0.6115 Y0.7799  
G01 X-0.6115 Y0.7521  
G01 X-0.5919 Y0.7325  
G01 X-0.5903 Y0.7325  
G01 X-0.5635 Y0.6868  
G01 X-0.5635 Y0.6701  
G01 X-0.5439 Y0.6505  
G01 X-0.5161 Y0.6505  
G01 X-0.4965 Y0.6701  
G00 Z0.0500  
G00 X-0.4967 Y0.9665  
G01 Z-0.0035 F10    
G01 X-0.4902 Y0.9678  F20    
G01 X-0.4841 Y0.9703  
G01 X-0.4786 Y0.9740  
G01 X-0.4740 Y0.9786  
G01 X-0.4716 Y0.9822  
G01 X-0.3288 Y1.0427  
G01 X-0.3243 Y1.0458  
G01 X-0.3205 Y1.0496  
G01 X-0.3175 Y1.0542  
G01 X-0.3155 Y1.0592  
G01 X-0.3145 Y1.0645  
G01 X-0.3145 Y1.0699  
G01 X-0.3156 Y1.0752  
G01 X-0.3177 Y1.0802  
G01 X-0.3180 Y1.0805  
G01 X-0.3016 Y1.4979  
G01 X-0.3014 Y1.4990  
G01 X-0.3015 Y1.5002  
G01 X-0.3014 Y1.5014  
G01 X-0.3016 Y1.5025  
